P3
160 144
255
20 20 20 20 20 20 20 20 20 20 20 20 20 20 20 20 20 20 20 20 20 20 20 20 20 20 20 20 20 20 20 20 20 20 20 20 20 20 20 20 20 20 20 20 20 20 20 20 20 20 20 20 20 20 20 20 20 20 20 20 20 20 20 20 20 20 20 20 20 20 20 20 20 20 20 20 20 20 20 20 20 20 20 20 20 20 20 20 20 20 20 20 20 20 20 20 20 20 20 20 20 20 20 20 20 20 20 20 20 20 20 20 20 20 20 20 20 20 20 20 20 20 20 20 20 20 20 20 20 20 20 20 20 20 20 20 20 20 20 20 20 20 20 20 20 20 20 20 20 20 20 20 20 20 20 20 20 20 20 20 20 20 20 20 20 20 20 20 20 20 20 20 20 20 20 20 20 20 20 20 20 20 20 20 20 20 20 20 20 20 20 20 20 20 20 20 20 20 20 20 20 20 20 20 20 20 20 20 20 20 20 20 20 20 20 20 20 20 20 20 20 20 20 20 20 20 20 20 20 20 20 20 20 20 20 20 20 20 20 20 20 20 20 20 20 20 20 20 20 20 20 20 20 20 20 20 20 20 20 20 20 20 20 20 20 20 20 20 20 20 20 20 20 20 20 20 20 20 20 20 20 20 20 20 20 20 20 20 20 20 20 20 20 20 20 20 20 20 20 20 20 20 20 20 20 20 20 20 20 20 20 20 20 20 20 20 20 20 20 20 20 20 20 20 20 20 20 20 20 20 20 20 20 20 20 20 20 20 20 20 20 20 20 20 20 20 20 20 20 20 20 20 20 20 20 20 20 20 20 20 20 20 20 20 20 20 20 20 20 20 20 20 20 20 20 20 20 20 20 20 20 20 20 20 20 20 20 20 20 20 20 20 20 20 20 20 20 20 20 20 20 20 20 20 20 20 20 20 20 20 20 20 20 20 20 20 20 20 20 20 20 20 20 20 20 20 20 20 20 20 20 20 20 20 20 20 20 20 20 20 20 20 20 20 20 20 20 20 20 20 20 20 20 20 20 20 20 20 20 20 20 20 20 20 20 20 20 20 20 20 20 20 20 20 20 20 20 20 20 20 
20 20 20 250 250 250 250 250 250 250 250 250 250 250 250 250 250 250 250 250 250 250 250 250 20 20 20 250 250 250 250 250 250 250 250 250 250 250 250 250 250 250 250 250 250 250 250 250 20 20 20 250 250 250 250 250 250 250 250 250 250 250 250 250 250 250 250 250 250 250 250 250 20 20 20 250 250 250 250 250 250 250 250 250 250 250 250 250 250 250 250 250 250 250 250 250 20 20 20 250 250 250 250 250 250 250 250 250 250 250 250 250 250 250 250 250 250 250 250 250 20 20 20 250 250 250 250 250 250 250 250 250 250 250 250 250 250 250 250 250 250 250 250 250 20 20 20 250 250 250 250 250 250 250 250 250 250 250 250 250 250 250 250 250 250 250 250 250 20 20 20 250 250 250 250 250 250 250 250 250 250 250 250 250 250 250 250 250 250 250 250 250 20 20 20 250 250 250 250 250 250 250 250 250 250 250 250 250 250 250 250 250 250 250 250 250 20 20 20 250 250 250 250 250 250 250 250 250 250 250 250 250 250 250 250 250 250 250 250 250 20 20 20 250 250 250 250 250 250 250 250 250 250 250 250 250 250 250 250 250 250 250 250 250 20 20 20 250 250 250 250 250 250 250 250 250 250 250 250 250 250 250 250 250 250 250 250 250 20 20 20 250 250 250 250 250 250 250 250 250 250 250 250 250 250 250 250 250 250 250 250 250 20 20 20 250 250 250 250 250 250 250 250 250 250 250 250 250 250 250 250 250 250 250 250 250 20 20 20 250 250 250 250 250 250 250 250 250 250 250 250 250 250 250 250 250 250 250 250 250 20 20 20 250 250 250 250 250 250 250 250 250 250 250 250 250 250 250 250 250 250 250 250 250 20 20 20 250 250 250 250 250 250 250 250 250 250 250 250 250 250 250 250 250 250 250 250 250 20 20 20 250 250 250 250 250 250 250 250 250 250 250 250 250 250 250 250 250 250 250 250 250 20 20 20 250 250 250 250 250 250 250 250 250 250 250 250 250 250 250 250 250 250 250 250 250 20 20 20 250 250 250 250 250 250 250 250 250 250 250 250 250 250 250 250 250 250 250 250 250 
20 20 20 250 250 250 250 250 250 250 250 250 250 250 250 250 250 250 250 250 250 250 250 250 20 20 20 250 250 250 250 250 250 250 250 250 250 250 250 250 250 250 250 250 250 250 250 250 20 20 20 250 250 250 250 250 250 250 250 250 250 250 250 250 250 250 250 250 250 250 250 250 20 20 20 250 250 250 250 250 250 250 250 250 250 250 250 250 250 250 250 250 250 250 250 250 20 20 20 250 250 250 250 250 250 250 250 250 250 250 250 250 250 250 250 250 250 250 250 250 20 20 20 250 250 250 250 250 250 250 250 250 250 250 250 250 250 250 250 250 250 250 250 250 20 20 20 250 250 250 250 250 250 250 250 250 250 250 250 250 250 250 250 250 250 250 250 250 20 20 20 250 250 250 250 250 250 250 250 250 250 250 250 250 250 250 250 250 250 250 250 250 20 20 20 250 250 250 250 250 250 250 250 250 250 250 250 250 250 250 250 250 250 250 250 250 20 20 20 250 250 250 250 250 250 250 250 250 250 250 250 250 250 250 250 250 250 250 250 250 20 20 20 250 250 250 250 250 250 250 250 250 250 250 250 250 250 250 250 250 250 250 250 250 20 20 20 250 250 250 250 250 250 250 250 250 250 250 250 250 250 250 250 250 250 250 250 250 20 20 20 250 250 250 250 250 250 250 250 250 250 250 250 250 250 250 250 250 250 250 250 250 20 20 20 250 250 250 250 250 250 250 250 250 250 250 250 250 250 250 250 250 250 250 250 250 20 20 20 250 250 250 250 250 250 250 250 250 250 250 250 250 250 250 250 250 250 250 250 250 20 20 20 250 250 250 250 250 250 250 250 250 250 250 250 250 250 250 250 250 250 250 250 250 20 20 20 250 250 250 250 250 250 250 250 250 250 250 250 250 250 250 250 250 250 250 250 250 20 20 20 250 250 250 250 250 250 250 250 250 250 250 250 250 250 250 250 250 250 250 250 250 20 20 20 250 250 250 250 250 250 250 250 250 250 250 250 250 250 250 250 250 250 250 250 250 20 20 20 250 250 250 250 250 250 250 250 250 250 250 250 250 250 250 250 250 250 250 250 250 
20 20 20 250 250 250 250 250 250 250 250 250 250 250 250 250 250 250 250 250 250 250 250 250 20 20 20 250 250 250 250 250 250 250 250 250 250 250 250 250 250 250 250 250 250 250 250 250 20 20 20 250 250 250 250 250 250 250 250 250 250 250 250 250 250 250 250 250 250 250 250 250 20 20 20 250 250 250 250 250 250 250 250 250 250 250 250 250 250 250 250 250 250 250 250 250 20 20 20 250 250 250 250 250 250 250 250 250 250 250 250 250 250 250 250 250 250 250 250 250 20 20 20 250 250 250 250 250 250 250 250 250 250 250 250 250 250 250 250 250 250 250 250 250 20 20 20 250 250 250 250 250 250 250 250 250 250 250 250 250 250 250 250 250 250 250 250 250 20 20 20 250 250 250 250 250 250 250 250 250 250 250 250 250 250 250 250 250 250 250 250 250 20 20 20 250 250 250 250 250 250 250 250 250 250 250 250 250 250 250 250 250 250 250 250 250 20 20 20 250 250 250 250 250 250 250 250 250 250 250 250 250 250 250 250 250 250 250 250 250 20 20 20 250 250 250 250 250 250 250 250 250 250 250 250 250 250 250 250 250 250 250 250 250 20 20 20 250 250 250 250 250 250 250 250 250 250 250 250 250 250 250 250 250 250 250 250 250 20 20 20 250 250 250 250 250 250 250 250 250 250 250 250 250 250 250 250 250 250 250 250 250 20 20 20 250 250 250 250 250 250 250 250 250 250 250 250 250 250 250 250 250 250 250 250 250 20 20 20 250 250 250 250 250 250 250 250 250 250 250 250 250 250 250 250 250 250 250 250 250 20 20 20 250 250 250 250 250 250 250 250 250 250 250 250 250 250 250 250 250 250 250 250 250 20 20 20 250 250 250 250 250 250 250 250 250 250 250 250 250 250 250 250 250 250 250 250 250 20 20 20 250 250 250 250 250 250 250 250 250 250 250 250 250 250 250 250 250 250 250 250 250 20 20 20 250 250 250 250 250 250 250 250 250 250 250 250 250 250 250 250 250 250 250 250 250 20 20 20 250 250 250 250 250 250 250 250 250 250 250 250 250 250 250 250 250 250 250 250 250 
20 20 20 250 250 250 250 250 250 250 250 250 250 250 250 250 250 250 250 250 250 250 250 250 20 20 20 250 250 250 250 250 250 250 250 250 250 250 250 250 250 250 250 250 250 250 250 250 20 20 20 250 250 250 250 250 250 250 250 250 250 250 250 250 250 250 250 250 250 250 250 250 20 20 20 250 250 250 250 250 250 250 250 250 250 250 250 250 250 250 250 250 250 250 250 250 20 20 20 250 250 250 250 250 250 250 250 250 250 250 250 250 250 250 250 250 250 250 250 250 20 20 20 250 250 250 250 250 250 250 250 250 250 250 250 250 250 250 250 250 250 250 250 250 20 20 20 250 250 250 250 250 250 250 250 250 250 250 250 250 250 250 250 250 250 250 250 250 20 20 20 250 250 250 250 250 250 250 250 250 250 250 250 250 250 250 250 250 250 250 250 250 20 20 20 250 250 250 250 250 250 250 250 250 250 250 250 250 250 250 250 250 250 250 250 250 20 20 20 250 250 250 250 250 250 250 250 250 250 250 250 250 250 250 250 250 250 250 250 250 20 20 20 250 250 250 250 250 250 250 250 250 250 250 250 250 250 250 250 250 250 250 250 250 20 20 20 250 250 250 250 250 250 250 250 250 250 250 250 250 250 250 250 250 250 250 250 250 20 20 20 250 250 250 250 250 250 250 250 250 250 250 250 250 250 250 250 250 250 250 250 250 20 20 20 250 250 250 250 250 250 250 250 250 250 250 250 250 250 250 250 250 250 250 250 250 20 20 20 250 250 250 250 250 250 250 250 250 250 250 250 250 250 250 250 250 250 250 250 250 20 20 20 250 250 250 250 250 250 250 250 250 250 250 250 250 250 250 250 250 250 250 250 250 20 20 20 250 250 250 250 250 250 250 250 250 250 250 250 250 250 250 250 250 250 250 250 250 20 20 20 250 250 250 250 250 250 250 250 250 250 250 250 250 250 250 250 250 250 250 250 250 20 20 20 250 250 250 250 250 250 250 250 250 250 250 250 250 250 250 250 250 250 250 250 250 20 20 20 250 250 250 250 250 250 250 250 250 250 250 250 250 250 250 250 250 250 250 250 250 
20 20 20 250 250 250 250 250 250 250 250 250 250 250 250 250 250 250 250 250 250 250 250 250 20 20 20 250 250 250 250 250 250 250 250 250 250 250 250 250 250 250 250 250 250 250 250 250 20 20 20 250 250 250 250 250 250 250 250 250 250 250 250 250 250 250 250 250 250 250 250 250 20 20 20 250 250 250 250 250 250 250 250 250 250 250 250 250 250 250 250 250 250 250 250 250 20 20 20 250 250 250 250 250 250 250 250 250 250 250 250 250 250 250 250 250 250 250 250 250 20 20 20 250 250 250 250 250 250 250 250 250 250 250 250 250 250 250 250 250 250 250 250 250 20 20 20 250 250 250 250 250 250 250 250 250 250 250 250 250 250 250 250 250 250 250 250 250 20 20 20 250 250 250 250 250 250 250 250 250 250 250 250 250 250 250 250 250 250 250 250 250 20 20 20 250 250 250 250 250 250 250 250 250 250 250 250 250 250 250 250 250 250 250 250 250 20 20 20 250 250 250 250 250 250 250 250 250 250 250 250 250 250 250 250 250 250 250 250 250 20 20 20 250 250 250 250 250 250 250 250 250 250 250 250 250 250 250 250 250 250 250 250 250 20 20 20 250 250 250 250 250 250 250 250 250 250 250 250 250 250 250 250 250 250 250 250 250 20 20 20 250 250 250 250 250 250 250 250 250 250 250 250 250 250 250 250 250 250 250 250 250 20 20 20 250 250 250 250 250 250 250 250 250 250 250 250 250 250 250 250 250 250 250 250 250 20 20 20 250 250 250 250 250 250 250 250 250 250 250 250 250 250 250 250 250 250 250 250 250 20 20 20 250 250 250 250 250 250 250 250 250 250 250 250 250 250 250 250 250 250 250 250 250 20 20 20 250 250 250 250 250 250 250 250 250 250 250 250 250 250 250 250 250 250 250 250 250 20 20 20 250 250 250 250 250 250 250 250 250 250 250 250 250 250 250 250 250 250 250 250 250 20 20 20 250 250 250 250 250 250 250 250 250 250 250 250 250 250 250 250 250 250 250 250 250 20 20 20 250 250 250 250 250 250 250 250 250 250 250 250 250 250 250 250 250 250 250 250 250 
20 20 20 250 250 250 250 250 250 250 250 250 250 250 250 250 250 250 250 250 250 250 250 250 20 20 20 250 250 250 250 250 250 250 250 250 250 250 250 250 250 250 250 250 250 250 250 250 20 20 20 250 250 250 250 250 250 250 250 250 250 250 250 250 250 250 250 250 250 250 250 250 20 20 20 250 250 250 250 250 250 250 250 250 250 250 250 250 250 250 250 250 250 250 250 250 20 20 20 250 250 250 250 250 250 250 250 250 250 250 250 250 250 250 250 250 250 250 250 250 20 20 20 250 250 250 250 250 250 250 250 250 250 250 250 250 250 250 250 250 250 250 250 250 20 20 20 250 250 250 250 250 250 250 250 250 250 250 250 250 250 250 250 250 250 250 250 250 20 20 20 250 250 250 250 250 250 250 250 250 250 250 250 250 250 250 250 250 250 250 250 250 20 20 20 250 250 250 250 250 250 250 250 250 250 250 250 250 250 250 250 250 250 250 250 250 20 20 20 250 250 250 250 250 250 250 250 250 250 250 250 250 250 250 250 250 250 250 250 250 20 20 20 250 250 250 250 250 250 250 250 250 250 250 250 250 250 250 250 250 250 250 250 250 20 20 20 250 250 250 250 250 250 250 250 250 250 250 250 250 250 250 250 250 250 250 250 250 20 20 20 250 250 250 250 250 250 250 250 250 250 250 250 250 250 250 250 250 250 250 250 250 20 20 20 250 250 250 250 250 250 250 250 250 250 250 250 250 250 250 250 250 250 250 250 250 20 20 20 250 250 250 250 250 250 250 250 250 250 250 250 250 250 250 250 250 250 250 250 250 20 20 20 250 250 250 250 250 250 250 250 250 250 250 250 250 250 250 250 250 250 250 250 250 20 20 20 250 250 250 250 250 250 250 250 250 250 250 250 250 250 250 250 250 250 250 250 250 20 20 20 250 250 250 250 250 250 250 250 250 250 250 250 250 250 250 250 250 250 250 250 250 20 20 20 250 250 250 250 250 250 250 250 250 250 250 250 250 250 250 250 250 250 250 250 250 20 20 20 250 250 250 250 250 250 250 250 250 250 250 250 250 250 250 250 250 250 250 250 250 
20 20 20 250 250 250 250 250 250 250 250 250 250 250 250 250 250 250 250 250 250 250 250 250 20 20 20 250 250 250 250 250 250 250 250 250 250 250 250 250 250 250 250 250 250 250 250 250 20 20 20 250 250 250 250 250 250 250 250 250 250 250 250 250 250 250 250 250 250 250 250 250 20 20 20 250 250 250 250 250 250 250 250 250 250 250 250 250 250 250 250 250 250 250 250 250 20 20 20 250 250 250 250 250 250 250 250 250 250 250 250 250 250 250 250 250 250 250 250 250 20 20 20 250 250 250 250 250 250 250 250 250 250 250 250 250 250 250 250 250 250 250 250 250 20 20 20 250 250 250 250 250 250 250 250 250 250 250 250 250 250 250 250 250 250 250 250 250 20 20 20 250 250 250 250 250 250 250 250 250 250 250 250 250 250 250 250 250 250 250 250 250 20 20 20 250 250 250 250 250 250 250 250 250 250 250 250 250 250 250 250 250 250 250 250 250 20 20 20 250 250 250 250 250 250 250 250 250 250 250 250 250 250 250 250 250 250 250 250 250 20 20 20 250 250 250 250 250 250 250 250 250 250 250 250 250 250 250 250 250 250 250 250 250 20 20 20 250 250 250 250 250 250 250 250 250 250 250 250 250 250 250 250 250 250 250 250 250 20 20 20 250 250 250 250 250 250 250 250 250 250 250 250 250 250 250 250 250 250 250 250 250 20 20 20 250 250 250 250 250 250 250 250 250 250 250 250 250 250 250 250 250 250 250 250 250 20 20 20 250 250 250 250 250 250 250 250 250 250 250 250 250 250 250 250 250 250 250 250 250 20 20 20 250 250 250 250 250 250 250 250 250 250 250 250 250 250 250 250 250 250 250 250 250 20 20 20 250 250 250 250 250 250 250 250 250 250 250 250 250 250 250 250 250 250 250 250 250 20 20 20 250 250 250 250 250 250 250 250 250 250 250 250 250 250 250 250 250 250 250 250 250 20 20 20 250 250 250 250 250 250 250 250 250 250 250 250 250 250 250 250 250 250 250 250 250 20 20 20 250 250 250 250 250 250 250 250 250 250 250 250 250 250 250 250 250 250 250 250 250 
20 20 20 20 20 20 20 20 20 20 20 20 20 20 20 20 20 20 20 20 20 20 20 20 20 20 20 20 20 20 20 20 20 20 20 20 20 20 20 20 20 20 20 20 20 20 20 20 20 20 20 20 20 20 20 20 20 20 20 20 20 20 20 20 20 20 20 20 20 20 20 20 20 20 20 20 20 20 20 20 20 20 20 20 20 20 20 20 20 20 20 20 20 20 20 20 20 20 20 20 20 20 20 20 20 20 20 20 20 20 20 20 20 20 20 20 20 20 20 20 20 20 20 20 20 20 20 20 20 20 20 20 20 20 20 20 20 20 20 20 20 20 20 20 20 20 20 20 20 20 20 20 20 20 20 20 20 20 20 20 20 20 20 20 20 20 20 20 20 20 20 20 20 20 20 20 20 20 20 20 20 20 20 20 20 20 20 20 20 20 20 20 20 20 20 20 20 20 20 20 20 20 20 20 20 20 20 20 20 20 20 20 20 20 20 20 20 20 20 20 20 20 20 20 20 20 20 20 20 20 20 20 20 20 20 20 20 20 20 20 20 20 20 20 20 20 20 20 20 20 20 20 20 20 20 20 20 20 20 20 20 20 20 20 20 20 20 20 20 20 20 20 20 20 20 20 20 20 20 20 20 20 20 20 20 20 20 20 20 20 20 20 20 20 20 20 20 20 20 20 20 20 20 20 20 20 20 20 20 20 20 20 20 20 20 20 20 20 20 20 20 20 20 20 20 20 20 20 20 20 20 20 20 20 20 20 20 20 20 20 20 20 20 20 20 20 20 20 20 20 20 20 20 20 20 20 20 20 20 20 20 20 20 20 20 20 20 20 20 20 20 20 20 20 20 20 20 20 20 20 20 20 20 20 20 20 20 20 20 20 20 20 20 20 20 20 20 20 20 20 20 20 20 20 20 20 20 20 20 20 20 20 20 20 20 20 20 20 20 20 20 20 20 20 20 20 20 20 20 20 20 20 20 20 20 20 20 20 20 20 20 20 20 20 20 20 20 20 20 20 20 20 20 20 20 20 20 20 20 20 20 20 20 20 20 20 20 20 20 20 20 20 20 20 20 20 20 20 20 20 
20 20 20 250 250 250 250 250 250 250 250 250 250 250 250 250 250 250 250 250 250 250 250 250 20 20 20 250 250 250 250 250 250 250 250 250 250 250 250 250 250 250 250 250 250 250 250 250 20 20 20 250 250 250 250 250 250 250 250 250 250 250 250 250 250 250 250 250 250 250 250 250 20 20 20 250 250 250 250 250 250 250 250 250 250 250 250 250 250 250 250 250 250 250 250 250 20 20 20 250 250 250 250 250 250 250 250 250 250 250 250 250 250 250 250 250 250 250 250 250 20 20 20 250 250 250 250 250 250 250 250 250 250 250 250 250 250 250 250 250 250 250 250 250 20 20 20 250 250 250 250 250 250 250 250 250 250 250 250 250 250 250 250 250 250 250 250 250 20 20 20 250 250 250 250 250 250 250 250 250 250 250 250 250 250 250 250 250 250 250 250 250 20 20 20 250 250 250 250 250 250 250 250 250 250 250 250 250 250 250 250 250 250 250 250 250 20 20 20 250 250 250 250 250 250 250 250 250 250 250 250 250 250 250 250 250 250 250 250 250 20 20 20 250 250 250 250 250 250 250 250 250 250 250 250 250 250 250 250 250 250 250 250 250 20 20 20 250 250 250 250 250 250 250 250 250 250 250 250 250 250 250 250 250 250 250 250 250 20 20 20 250 250 250 250 250 250 250 250 250 250 250 250 250 250 250 250 250 250 250 250 250 20 20 20 250 250 250 250 250 250 250 250 250 250 250 250 250 250 250 250 250 250 250 250 250 20 20 20 250 250 250 250 250 250 250 250 250 250 250 250 250 250 250 250 250 250 250 250 250 20 20 20 250 250 250 250 250 250 250 250 250 250 250 250 250 250 250 250 250 250 250 250 250 20 20 20 250 250 250 250 250 250 250 250 250 250 250 250 250 250 250 250 250 250 250 250 250 20 20 20 250 250 250 250 250 250 250 250 250 250 250 250 250 250 250 250 250 250 250 250 250 20 20 20 250 250 250 250 250 250 250 250 250 250 250 250 250 250 250 250 250 250 250 250 250 20 20 20 250 250 250 250 250 250 250 250 250 250 250 250 250 250 250 250 250 250 250 250 250 
20 20 20 250 250 250 250 250 250 250 250 250 250 250 250 250 250 250 250 250 250 250 250 250 20 20 20 250 250 250 250 250 250 250 250 250 250 250 250 250 250 250 250 250 250 250 250 250 20 20 20 250 250 250 250 250 250 250 250 250 250 250 250 250 250 250 250 250 250 250 250 250 20 20 20 250 250 250 250 250 250 250 250 250 250 250 250 250 250 250 250 250 250 250 250 250 20 20 20 250 250 250 250 250 250 250 250 250 250 250 250 250 250 250 250 250 250 250 250 250 20 20 20 250 250 250 250 250 250 250 250 250 250 250 250 250 250 250 250 250 250 250 250 250 20 20 20 250 250 250 250 250 250 250 250 250 250 250 250 250 250 250 250 250 250 250 250 250 20 20 20 250 250 250 250 250 250 250 250 250 250 250 250 250 250 250 250 250 250 250 250 250 20 20 20 250 250 250 250 250 250 250 250 250 250 250 250 250 250 250 250 250 250 250 250 250 20 20 20 250 250 250 250 250 250 250 250 250 250 250 250 250 250 250 250 250 250 250 250 250 20 20 20 250 250 250 250 250 250 250 250 250 250 250 250 250 250 250 250 250 250 250 250 250 20 20 20 250 250 250 250 250 250 250 250 250 250 250 250 250 250 250 250 250 250 250 250 250 20 20 20 250 250 250 250 250 250 250 250 250 250 250 250 250 250 250 250 250 250 250 250 250 20 20 20 250 250 250 250 250 250 250 250 250 250 250 250 250 250 250 250 250 250 250 250 250 20 20 20 250 250 250 250 250 250 250 250 250 250 250 250 250 250 250 250 250 250 250 250 250 20 20 20 250 250 250 250 250 250 250 250 250 250 250 250 250 250 250 250 250 250 250 250 250 20 20 20 250 250 250 250 250 250 250 250 250 250 250 250 250 250 250 250 250 250 250 250 250 20 20 20 250 250 250 250 250 250 250 250 250 250 250 250 250 250 250 250 250 250 250 250 250 20 20 20 250 250 250 250 250 250 250 250 250 250 250 250 250 250 250 250 250 250 250 250 250 20 20 20 250 250 250 250 250 250 250 250 250 250 250 250 250 250 250 250 250 250 250 250 250 
20 20 20 250 250 250 250 250 250 250 250 250 250 250 250 250 250 250 250 250 250 250 250 250 20 20 20 250 250 250 250 250 250 250 250 250 250 250 250 250 250 250 250 250 250 250 250 250 20 20 20 250 250 250 250 250 250 250 250 250 250 250 250 250 250 250 250 250 250 250 250 250 20 20 20 250 250 250 250 250 250 250 250 250 250 250 250 250 250 250 250 250 250 250 250 250 20 20 20 250 250 250 250 250 250 250 250 250 250 250 250 250 250 250 250 250 250 250 250 250 20 20 20 250 250 250 250 250 250 250 250 250 250 250 250 250 250 250 250 250 250 250 250 250 20 20 20 250 250 250 250 250 250 250 250 250 250 250 250 250 250 250 250 250 250 250 250 250 20 20 20 250 250 250 250 250 250 250 250 250 250 250 250 250 250 250 250 250 250 250 250 250 20 20 20 250 250 250 250 250 250 250 250 250 250 250 250 250 250 250 250 250 250 250 250 250 20 20 20 250 250 250 250 250 250 250 250 250 250 250 250 250 250 250 250 250 250 250 250 250 20 20 20 250 250 250 250 250 250 250 250 250 250 250 250 250 250 250 250 250 250 250 250 250 20 20 20 250 250 250 250 250 250 250 250 250 250 250 250 250 250 250 250 250 250 250 250 250 20 20 20 250 250 250 250 250 250 250 250 250 250 250 250 250 250 250 250 250 250 250 250 250 20 20 20 250 250 250 250 250 250 250 250 250 250 250 250 250 250 250 250 250 250 250 250 250 20 20 20 250 250 250 250 250 250 250 250 250 250 250 250 250 250 250 250 250 250 250 250 250 20 20 20 250 250 250 250 250 250 250 250 250 250 250 250 250 250 250 250 250 250 250 250 250 20 20 20 250 250 250 250 250 250 250 250 250 250 250 250 250 250 250 250 250 250 250 250 250 20 20 20 250 250 250 250 250 250 250 250 250 250 250 250 250 250 250 250 250 250 250 250 250 20 20 20 250 250 250 250 250 250 250 250 250 250 250 250 250 250 250 250 250 250 250 250 250 20 20 20 250 250 250 250 250 250 250 250 250 250 250 250 250 250 250 250 250 250 250 250 250 
20 20 20 250 250 250 250 250 250 250 250 250 250 250 250 250 250 250 250 250 250 250 250 250 20 20 20 250 250 250 250 250 250 250 250 250 250 250 250 250 250 250 250 250 250 250 250 250 20 20 20 250 250 250 250 250 250 250 250 250 250 250 250 250 250 250 250 250 250 250 250 250 20 20 20 250 250 250 250 250 250 250 250 250 250 250 250 250 250 250 250 250 250 250 250 250 20 20 20 250 250 250 250 250 250 250 250 250 250 250 250 250 250 250 250 250 250 250 250 250 20 20 20 250 250 250 250 250 250 250 250 250 250 250 250 250 250 250 250 250 250 250 250 250 20 20 20 250 250 250 250 250 250 250 250 250 250 250 250 250 250 250 250 250 250 250 250 250 20 20 20 250 250 250 250 250 250 250 250 250 250 250 250 250 250 250 250 250 250 250 250 250 20 20 20 250 250 250 250 250 250 250 250 250 250 250 250 250 250 250 250 250 250 250 250 250 20 20 20 250 250 250 250 250 250 250 250 250 250 250 250 250 250 250 250 250 250 250 250 250 20 20 20 250 250 250 250 250 250 250 250 250 250 250 250 250 250 250 250 250 250 250 250 250 20 20 20 250 250 250 250 250 250 250 250 250 250 250 250 250 250 250 250 250 250 250 250 250 20 20 20 250 250 250 250 250 250 250 250 250 250 250 250 250 250 250 250 250 250 250 250 250 20 20 20 250 250 250 250 250 250 250 250 250 250 250 250 250 250 250 250 250 250 250 250 250 20 20 20 250 250 250 250 250 250 250 250 250 250 250 250 250 250 250 250 250 250 250 250 250 20 20 20 250 250 250 250 250 250 250 250 250 250 250 250 250 250 250 250 250 250 250 250 250 20 20 20 250 250 250 250 250 250 250 250 250 250 250 250 250 250 250 250 250 250 250 250 250 20 20 20 250 250 250 250 250 250 250 250 250 250 250 250 250 250 250 250 250 250 250 250 250 20 20 20 250 250 250 250 250 250 250 250 250 250 250 250 250 250 250 250 250 250 250 250 250 20 20 20 250 250 250 250 250 250 250 250 250 250 250 250 250 250 250 250 250 250 250 250 250 
20 20 20 250 250 250 250 250 250 250 250 250 250 250 250 250 250 250 250 250 250 250 250 250 20 20 20 250 250 250 250 250 250 250 250 250 250 250 250 250 250 250 250 250 250 250 250 250 20 20 20 250 250 250 250 250 250 250 250 250 250 250 250 250 250 250 250 250 250 250 250 250 20 20 20 250 250 250 250 250 250 250 250 250 250 250 250 250 250 250 250 250 250 250 250 250 20 20 20 250 250 250 250 250 250 250 250 250 250 250 250 250 250 250 250 250 250 250 250 250 20 20 20 250 250 250 250 250 250 250 250 250 250 250 250 250 250 250 250 250 250 250 250 250 20 20 20 250 250 250 250 250 250 250 250 250 250 250 250 250 250 250 250 250 250 250 250 250 20 20 20 250 250 250 250 250 250 250 250 250 250 250 250 250 250 250 250 250 250 250 250 250 20 20 20 250 250 250 250 250 250 250 250 250 250 250 250 250 250 250 250 250 250 250 250 250 20 20 20 250 250 250 250 250 250 250 250 250 250 250 250 250 250 250 250 250 250 250 250 250 20 20 20 250 250 250 250 250 250 250 250 250 250 250 250 250 250 250 250 250 250 250 250 250 20 20 20 250 250 250 250 250 250 250 250 250 250 250 250 250 250 250 250 250 250 250 250 250 20 20 20 250 250 250 250 250 250 250 250 250 250 250 250 250 250 250 250 250 250 250 250 250 20 20 20 250 250 250 250 250 250 250 250 250 250 250 250 250 250 250 250 250 250 250 250 250 20 20 20 250 250 250 250 250 250 250 250 250 250 250 250 250 250 250 250 250 250 250 250 250 20 20 20 250 250 250 250 250 250 250 250 250 250 250 250 250 250 250 250 250 250 250 250 250 20 20 20 250 250 250 250 250 250 250 250 250 250 250 250 250 250 250 250 250 250 250 250 250 20 20 20 250 250 250 250 250 250 250 250 250 250 250 250 250 250 250 250 250 250 250 250 250 20 20 20 250 250 250 250 250 250 250 250 250 250 250 250 250 250 250 250 250 250 250 250 250 20 20 20 250 250 250 250 250 250 250 250 250 250 250 250 250 250 250 250 250 250 250 250 250 
20 20 20 250 250 250 250 250 250 250 250 250 250 250 250 250 250 250 250 250 250 250 250 250 20 20 20 250 250 250 250 250 250 250 250 250 250 250 250 250 250 250 250 250 250 250 250 250 20 20 20 250 250 250 250 250 250 250 250 250 250 250 250 250 250 250 250 250 250 250 250 250 20 20 20 250 250 250 250 250 250 250 250 250 250 250 250 250 250 250 250 250 250 250 250 250 20 20 20 250 250 250 250 250 250 250 250 250 250 250 250 250 250 250 250 250 250 250 250 250 20 20 20 250 250 250 250 250 250 250 250 250 250 250 250 250 250 250 250 250 250 250 250 250 20 20 20 250 250 250 250 250 250 250 250 250 250 250 250 250 250 250 250 250 250 250 250 250 20 20 20 250 250 250 250 250 250 250 250 250 250 250 250 250 250 250 250 250 250 250 250 250 20 20 20 250 250 250 250 250 250 250 250 250 250 250 250 250 250 250 250 250 250 250 250 250 20 20 20 250 250 250 250 250 250 250 250 250 250 250 250 250 250 250 250 250 250 250 250 250 20 20 20 250 250 250 250 250 250 250 250 250 250 250 250 250 250 250 250 250 250 250 250 250 20 20 20 250 250 250 250 250 250 250 250 250 250 250 250 250 250 250 250 250 250 250 250 250 20 20 20 250 250 250 250 250 250 250 250 250 250 250 250 250 250 250 250 250 250 250 250 250 20 20 20 250 250 250 250 250 250 250 250 250 250 250 250 250 250 250 250 250 250 250 250 250 20 20 20 250 250 250 250 250 250 250 250 250 250 250 250 250 250 250 250 250 250 250 250 250 20 20 20 250 250 250 250 250 250 250 250 250 250 250 250 250 250 250 250 250 250 250 250 250 20 20 20 250 250 250 250 250 250 250 250 250 250 250 250 250 250 250 250 250 250 250 250 250 20 20 20 250 250 250 250 250 250 250 250 250 250 250 250 250 250 250 250 250 250 250 250 250 20 20 20 250 250 250 250 250 250 250 250 250 250 250 250 250 250 250 250 250 250 250 250 250 20 20 20 250 250 250 250 250 250 250 250 250 250 250 250 250 250 250 250 250 250 250 250 250 
20 20 20 250 250 250 250 250 250 250 250 250 250 250 250 250 250 250 250 250 250 250 250 250 20 20 20 250 250 250 250 250 250 250 250 250 250 250 250 250 250 250 250 250 250 250 250 250 20 20 20 250 250 250 250 250 250 250 250 250 250 250 250 250 250 250 250 250 250 250 250 250 20 20 20 250 250 250 250 250 250 250 250 250 250 250 250 250 250 250 250 250 250 250 250 250 20 20 20 250 250 250 250 250 250 250 250 250 250 250 250 250 250 250 250 250 250 250 250 250 20 20 20 250 250 250 250 250 250 250 250 250 250 250 250 250 250 250 250 250 250 250 250 250 20 20 20 250 250 250 250 250 250 250 250 250 250 250 250 250 250 250 250 250 250 250 250 250 20 20 20 250 250 250 250 250 250 250 250 250 250 250 250 250 250 250 250 250 250 250 250 250 20 20 20 250 250 250 250 250 250 250 250 250 250 250 250 250 250 250 250 250 250 250 250 250 20 20 20 250 250 250 250 250 250 250 250 250 250 250 250 250 250 250 250 250 250 250 250 250 20 20 20 250 250 250 250 250 250 250 250 250 250 250 250 250 250 250 250 250 250 250 250 250 20 20 20 250 250 250 250 250 250 250 250 250 250 250 250 250 250 250 250 250 250 250 250 250 20 20 20 250 250 250 250 250 250 250 250 250 250 250 250 250 250 250 250 250 250 250 250 250 20 20 20 250 250 250 250 250 250 250 250 250 250 250 250 250 250 250 250 250 250 250 250 250 20 20 20 250 250 250 250 250 250 250 250 250 250 250 250 250 250 250 250 250 250 250 250 250 20 20 20 250 250 250 250 250 250 250 250 250 250 250 250 250 250 250 250 250 250 250 250 250 20 20 20 250 250 250 250 250 250 250 250 250 250 250 250 250 250 250 250 250 250 250 250 250 20 20 20 250 250 250 250 250 250 250 250 250 250 250 250 250 250 250 250 250 250 250 250 250 20 20 20 250 250 250 250 250 250 250 250 250 250 250 250 250 250 250 250 250 250 250 250 250 20 20 20 250 250 250 250 250 250 250 250 250 250 250 250 250 250 250 250 250 250 250 250 250 
20 20 20 20 20 20 20 20 20 20 20 20 20 20 20 20 20 20 20 20 20 20 20 20 20 20 20 20 20 20 20 20 20 20 20 20 20 20 20 20 20 20 20 20 20 20 20 20 20 20 20 20 20 20 20 20 20 20 20 20 20 20 20 20 20 20 20 20 20 20 20 20 20 20 20 20 20 20 20 20 20 20 20 20 20 20 20 20 20 20 20 20 20 20 20 20 20 20 20 20 20 20 20 20 20 20 20 20 20 20 20 20 20 20 20 20 20 20 20 20 20 20 20 20 20 20 20 20 20 20 20 20 20 20 20 20 20 20 20 20 20 20 20 20 20 20 20 20 20 20 20 20 20 20 20 20 20 20 20 20 20 20 20 20 20 20 20 20 20 20 20 20 20 20 20 20 20 20 20 20 20 20 20 20 20 20 20 20 20 20 20 20 20 20 20 20 20 20 20 20 20 20 20 20 20 20 20 20 20 20 20 20 20 20 20 20 20 20 20 20 20 20 20 20 20 20 20 20 20 20 20 20 20 20 20 20 20 20 20 20 20 20 20 20 20 20 20 20 20 20 20 20 20 20 20 20 20 20 20 20 20 20 20 20 20 20 20 20 20 20 20 20 20 20 20 20 20 20 20 20 20 20 20 20 20 20 20 20 20 20 20 20 20 20 20 20 20 20 20 20 20 20 20 20 20 20 20 20 20 20 20 20 20 20 20 20 20 20 20 20 20 20 20 20 20 20 20 20 20 20 20 20 20 20 20 20 20 20 20 20 20 20 20 20 20 20 20 20 20 20 20 20 20 20 20 20 20 20 20 20 20 20 20 20 20 20 20 20 20 20 20 20 20 20 20 20 20 20 20 20 20 20 20 20 20 20 20 20 20 20 20 20 20 20 20 20 20 20 20 20 20 20 20 20 20 20 20 20 20 20 20 20 20 20 20 20 20 20 20 20 20 20 20 20 20 20 20 20 20 20 20 20 20 20 20 20 20 20 20 20 20 20 20 20 20 20 20 20 20 20 20 20 20 20 20 20 20 20 20 20 20 20 20 20 20 20 20 20 20 20 20 20 20 20 20 20 20 20 20 20 
20 20 20 250 250 250 250 250 250 250 250 250 250 250 250 250 250 250 250 250 250 250 250 250 20 20 20 250 250 250 250 250 250 250 250 250 250 250 250 250 250 250 250 250 250 250 250 250 20 20 20 250 250 250 250 250 250 250 250 250 250 250 250 250 250 250 250 250 250 250 250 250 20 20 20 250 250 250 250 250 250 250 250 250 250 250 250 250 250 250 250 250 250 250 250 250 20 20 20 250 250 250 250 250 250 250 250 250 250 250 250 250 250 250 250 250 250 250 250 250 20 20 20 250 250 250 250 250 250 250 250 250 250 250 250 250 250 250 250 250 250 250 250 250 20 20 20 250 250 250 250 250 250 250 250 250 250 250 250 250 250 250 250 250 250 250 250 250 20 20 20 250 250 250 250 250 250 250 250 250 250 250 250 250 250 250 250 250 250 250 250 250 20 20 20 250 250 250 250 250 250 250 250 250 250 250 250 250 250 250 250 250 250 250 250 250 20 20 20 250 250 250 250 250 250 250 250 250 250 250 250 250 250 250 250 250 250 250 250 250 20 20 20 250 250 250 250 250 250 250 250 250 250 250 250 250 250 250 250 250 250 250 250 250 20 20 20 250 250 250 250 250 250 250 250 250 250 250 250 250 250 250 250 250 250 250 250 250 20 20 20 250 250 250 250 250 250 250 250 250 250 250 250 250 250 250 250 250 250 250 250 250 20 20 20 250 250 250 250 250 250 250 250 250 250 250 250 250 250 250 250 250 250 250 250 250 20 20 20 250 250 250 250 250 250 250 250 250 250 250 250 250 250 250 250 250 250 250 250 250 20 20 20 250 250 250 250 250 250 250 250 250 250 250 250 250 250 250 250 250 250 250 250 250 20 20 20 250 250 250 250 250 250 250 250 250 250 250 250 250 250 250 250 250 250 250 250 250 20 20 20 250 250 250 250 250 250 250 250 250 250 250 250 250 250 250 250 250 250 250 250 250 20 20 20 250 250 250 250 250 250 250 250 250 250 250 250 250 250 250 250 250 250 250 250 250 20 20 20 250 250 250 250 250 250 250 250 250 250 250 250 250 250 250 250 250 250 250 250 250 
20 20 20 250 250 250 250 250 250 250 250 250 250 250 250 250 250 250 250 250 250 250 250 250 20 20 20 250 250 250 250 250 250 250 250 250 250 250 250 250 250 250 250 250 250 250 250 250 20 20 20 250 250 250 250 250 250 250 250 250 250 250 250 250 250 250 250 250 250 250 250 250 20 20 20 250 250 250 250 250 250 250 250 250 250 250 250 250 250 250 250 250 250 250 250 250 20 20 20 250 250 250 250 250 250 250 250 250 250 250 250 250 250 250 250 250 250 250 250 250 20 20 20 250 250 250 250 250 250 250 250 250 250 250 250 250 250 250 250 250 250 250 250 250 20 20 20 250 250 250 250 250 250 250 250 250 250 250 250 250 250 250 250 250 250 250 250 250 20 20 20 250 250 250 250 250 250 250 250 250 250 250 250 250 250 250 250 250 250 250 250 250 20 20 20 250 250 250 250 250 250 250 250 250 250 250 250 250 250 250 250 250 250 250 250 250 20 20 20 250 250 250 250 250 250 250 250 250 250 250 250 250 250 250 250 250 250 250 250 250 20 20 20 250 250 250 250 250 250 250 250 250 250 250 250 250 250 250 250 250 250 250 250 250 20 20 20 250 250 250 250 250 250 250 250 250 250 250 250 250 250 250 250 250 250 250 250 250 20 20 20 250 250 250 250 250 250 250 250 250 250 250 250 250 250 250 250 250 250 250 250 250 20 20 20 250 250 250 250 250 250 250 250 250 250 250 250 250 250 250 250 250 250 250 250 250 20 20 20 250 250 250 250 250 250 250 250 250 250 250 250 250 250 250 250 250 250 250 250 250 20 20 20 250 250 250 250 250 250 250 250 250 250 250 250 250 250 250 250 250 250 250 250 250 20 20 20 250 250 250 250 250 250 250 250 250 250 250 250 250 250 250 250 250 250 250 250 250 20 20 20 250 250 250 250 250 250 250 250 250 250 250 250 250 250 250 250 250 250 250 250 250 20 20 20 250 250 250 250 250 250 250 250 250 250 250 250 250 250 250 250 250 250 250 250 250 20 20 20 250 250 250 250 250 250 250 250 250 250 250 250 250 250 250 250 250 250 250 250 250 
20 20 20 250 250 250 250 250 250 250 250 250 250 250 250 250 250 250 250 250 250 250 250 250 20 20 20 250 250 250 250 250 250 250 250 250 250 250 250 250 250 250 250 250 250 250 250 250 20 20 20 250 250 250 250 250 250 250 250 250 250 250 250 250 250 250 250 250 250 250 250 250 20 20 20 250 250 250 250 250 250 250 250 250 250 250 250 250 250 250 250 250 250 250 250 250 20 20 20 250 250 250 250 250 250 250 250 250 250 250 250 250 250 250 250 250 250 250 250 250 20 20 20 250 250 250 250 250 250 250 250 250 250 250 250 250 250 250 250 250 250 250 250 250 20 20 20 250 250 250 250 250 250 250 250 250 250 250 250 250 250 250 250 250 250 250 250 250 20 20 20 250 250 250 250 250 250 250 250 250 250 250 250 250 250 250 250 250 250 250 250 250 20 20 20 250 250 250 250 250 250 250 250 250 250 250 250 250 250 250 250 250 250 250 250 250 20 20 20 250 250 250 250 250 250 250 250 250 250 250 250 250 250 250 250 250 250 250 250 250 20 20 20 250 250 250 250 250 250 250 250 250 250 250 250 250 250 250 250 250 250 250 250 250 20 20 20 250 250 250 250 250 250 250 250 250 250 250 250 250 250 250 250 250 250 250 250 250 20 20 20 250 250 250 250 250 250 250 250 250 250 250 250 250 250 250 250 250 250 250 250 250 20 20 20 250 250 250 250 250 250 250 250 250 250 250 250 250 250 250 250 250 250 250 250 250 20 20 20 250 250 250 250 250 250 250 250 250 250 250 250 250 250 250 250 250 250 250 250 250 20 20 20 250 250 250 250 250 250 250 250 250 250 250 250 250 250 250 250 250 250 250 250 250 20 20 20 250 250 250 250 250 250 250 250 250 250 250 250 250 250 250 250 250 250 250 250 250 20 20 20 250 250 250 250 250 250 250 250 250 250 250 250 250 250 250 250 250 250 250 250 250 20 20 20 250 250 250 250 250 250 250 250 250 250 250 250 250 250 250 250 250 250 250 250 250 20 20 20 250 250 250 250 250 250 250 250 250 250 250 250 250 250 250 250 250 250 250 250 250 
20 20 20 250 250 250 250 250 250 250 250 250 250 250 250 250 250 250 250 250 250 250 250 250 20 20 20 250 250 250 250 250 250 250 250 250 250 250 250 250 250 250 250 250 250 250 250 250 20 20 20 250 250 250 250 250 250 250 250 250 250 250 250 250 250 250 250 250 250 250 250 250 20 20 20 250 250 250 250 250 250 250 250 250 250 250 250 250 250 250 250 250 250 250 250 250 20 20 20 250 250 250 250 250 250 250 250 250 250 250 250 250 250 250 250 250 250 250 250 250 20 20 20 250 250 250 250 250 250 250 250 250 250 250 250 250 250 250 250 250 250 250 250 250 20 20 20 250 250 250 250 250 250 250 250 250 250 250 250 250 250 250 250 250 250 250 250 250 20 20 20 250 250 250 250 250 250 250 250 250 250 250 250 250 250 250 250 250 250 250 250 250 20 20 20 250 250 250 250 250 250 250 250 250 250 250 250 250 250 250 250 250 250 250 250 250 20 20 20 250 250 250 250 250 250 250 250 250 250 250 250 250 250 250 250 250 250 250 250 250 20 20 20 250 250 250 250 250 250 250 250 250 250 250 250 250 250 250 250 250 250 250 250 250 20 20 20 250 250 250 250 250 250 250 250 250 250 250 250 250 250 250 250 250 250 250 250 250 20 20 20 250 250 250 250 250 250 250 250 250 250 250 250 250 250 250 250 250 250 250 250 250 20 20 20 250 250 250 250 250 250 250 250 250 250 250 250 250 250 250 250 250 250 250 250 250 20 20 20 250 250 250 250 250 250 250 250 250 250 250 250 250 250 250 250 250 250 250 250 250 20 20 20 250 250 250 250 250 250 250 250 250 250 250 250 250 250 250 250 250 250 250 250 250 20 20 20 250 250 250 250 250 250 250 250 250 250 250 250 250 250 250 250 250 250 250 250 250 20 20 20 250 250 250 250 250 250 250 250 250 250 250 250 250 250 250 250 250 250 250 250 250 20 20 20 250 250 250 250 250 250 250 250 250 250 250 250 250 250 250 250 250 250 250 250 250 20 20 20 250 250 250 250 250 250 250 250 250 250 250 250 250 250 250 250 250 250 250 250 250 
20 20 20 250 250 250 250 250 250 250 250 250 250 250 250 250 250 250 250 250 250 250 250 250 20 20 20 250 250 250 250 250 250 250 250 250 250 250 250 250 250 250 250 250 250 250 250 250 20 20 20 250 250 250 250 250 250 250 250 250 250 250 250 250 250 250 250 250 250 250 250 250 20 20 20 250 250 250 250 250 250 250 250 250 250 250 250 250 250 250 250 250 250 250 250 250 20 20 20 250 250 250 250 250 250 250 250 250 250 250 250 250 250 250 250 250 250 250 250 250 20 20 20 250 250 250 250 250 250 250 250 250 250 250 250 250 250 250 250 250 250 250 250 250 20 20 20 250 250 250 250 250 250 250 250 250 250 250 250 250 250 250 250 250 250 250 250 250 20 20 20 250 250 250 250 250 250 250 250 250 250 250 250 250 250 250 250 250 250 250 250 250 20 20 20 250 250 250 250 250 250 250 250 250 250 250 250 250 250 250 250 250 250 250 250 250 20 20 20 250 250 250 250 250 250 250 250 250 250 250 250 250 250 250 250 250 250 250 250 250 20 20 20 250 250 250 250 250 250 250 250 250 250 250 250 250 250 250 250 250 250 250 250 250 20 20 20 250 250 250 250 250 250 250 250 250 250 250 250 250 250 250 250 250 250 250 250 250 20 20 20 250 250 250 250 250 250 250 250 250 250 250 250 250 250 250 250 250 250 250 250 250 20 20 20 250 250 250 250 250 250 250 250 250 250 250 250 250 250 250 250 250 250 250 250 250 20 20 20 250 250 250 250 250 250 250 250 250 250 250 250 250 250 250 250 250 250 250 250 250 20 20 20 250 250 250 250 250 250 250 250 250 250 250 250 250 250 250 250 250 250 250 250 250 20 20 20 250 250 250 250 250 250 250 250 250 250 250 250 250 250 250 250 250 250 250 250 250 20 20 20 250 250 250 250 250 250 250 250 250 250 250 250 250 250 250 250 250 250 250 250 250 20 20 20 250 250 250 250 250 250 250 250 250 250 250 250 250 250 250 250 250 250 250 250 250 20 20 20 250 250 250 250 250 250 250 250 250 250 250 250 250 250 250 250 250 250 250 250 250 
20 20 20 250 250 250 250 250 250 250 250 250 250 250 250 250 250 250 250 250 250 250 250 250 20 20 20 250 250 250 250 250 250 250 250 250 250 250 250 250 250 250 250 250 250 250 250 250 20 20 20 250 250 250 250 250 250 250 250 250 250 250 250 250 250 250 250 250 250 250 250 250 20 20 20 250 250 250 250 250 250 250 250 250 250 250 250 250 250 250 250 250 250 250 250 250 20 20 20 250 250 250 250 250 250 250 250 250 250 250 250 250 250 250 250 250 250 250 250 250 20 20 20 250 250 250 250 250 250 250 250 250 250 250 250 250 250 250 250 250 250 250 250 250 20 20 20 250 250 250 250 250 250 250 250 250 250 250 250 250 250 250 250 250 250 250 250 250 20 20 20 250 250 250 250 250 250 250 250 250 250 250 250 250 250 250 250 250 250 250 250 250 20 20 20 250 250 250 250 250 250 250 250 250 250 250 250 250 250 250 250 250 250 250 250 250 20 20 20 250 250 250 250 250 250 250 250 250 250 250 250 250 250 250 250 250 250 250 250 250 20 20 20 250 250 250 250 250 250 250 250 250 250 250 250 250 250 250 250 250 250 250 250 250 20 20 20 250 250 250 250 250 250 250 250 250 250 250 250 250 250 250 250 250 250 250 250 250 20 20 20 250 250 250 250 250 250 250 250 250 250 250 250 250 250 250 250 250 250 250 250 250 20 20 20 250 250 250 250 250 250 250 250 250 250 250 250 250 250 250 250 250 250 250 250 250 20 20 20 250 250 250 250 250 250 250 250 250 250 250 250 250 250 250 250 250 250 250 250 250 20 20 20 250 250 250 250 250 250 250 250 250 250 250 250 250 250 250 250 250 250 250 250 250 20 20 20 250 250 250 250 250 250 250 250 250 250 250 250 250 250 250 250 250 250 250 250 250 20 20 20 250 250 250 250 250 250 250 250 250 250 250 250 250 250 250 250 250 250 250 250 250 20 20 20 250 250 250 250 250 250 250 250 250 250 250 250 250 250 250 250 250 250 250 250 250 20 20 20 250 250 250 250 250 250 250 250 250 250 250 250 250 250 250 250 250 250 250 250 250 
20 20 20 250 250 250 250 250 250 250 250 250 250 250 250 250 250 250 250 250 250 250 250 250 20 20 20 250 250 250 250 250 250 250 250 250 250 250 250 250 250 250 250 250 250 250 250 250 20 20 20 250 250 250 250 250 250 250 250 250 250 250 250 250 250 250 250 250 250 250 250 250 20 20 20 250 250 250 250 250 250 250 250 250 250 250 250 250 250 250 250 250 250 250 250 250 20 20 20 250 250 250 250 250 250 250 250 250 250 250 250 250 250 250 250 250 250 250 250 250 20 20 20 250 250 250 250 250 250 250 250 250 250 250 250 250 250 250 250 250 250 250 250 250 20 20 20 250 250 250 250 250 250 250 250 250 250 250 250 250 250 250 250 250 250 250 250 250 20 20 20 250 250 250 250 250 250 250 250 250 250 250 250 250 250 250 250 250 250 250 250 250 20 20 20 250 250 250 250 250 250 250 250 250 250 250 250 250 250 250 250 250 250 250 250 250 20 20 20 250 250 250 250 250 250 250 250 250 250 250 250 250 250 250 250 250 250 250 250 250 20 20 20 250 250 250 250 250 250 250 250 250 250 250 250 250 250 250 250 250 250 250 250 250 20 20 20 250 250 250 250 250 250 250 250 250 250 250 250 250 250 250 250 250 250 250 250 250 20 20 20 250 250 250 250 250 250 250 250 250 250 250 250 250 250 250 250 250 250 250 250 250 20 20 20 250 250 250 250 250 250 250 250 250 250 250 250 250 250 250 250 250 250 250 250 250 20 20 20 250 250 250 250 250 250 250 250 250 250 250 250 250 250 250 250 250 250 250 250 250 20 20 20 250 250 250 250 250 250 250 250 250 250 250 250 250 250 250 250 250 250 250 250 250 20 20 20 250 250 250 250 250 250 250 250 250 250 250 250 250 250 250 250 250 250 250 250 250 20 20 20 250 250 250 250 250 250 250 250 250 250 250 250 250 250 250 250 250 250 250 250 250 20 20 20 250 250 250 250 250 250 250 250 250 250 250 250 250 250 250 250 250 250 250 250 250 20 20 20 250 250 250 250 250 250 250 250 250 250 250 250 250 250 250 250 250 250 250 250 250 
20 20 20 20 20 20 20 20 20 20 20 20 20 20 20 20 20 20 20 20 20 20 20 20 20 20 20 20 20 20 20 20 20 20 20 20 20 20 20 20 20 20 20 20 20 20 20 20 20 20 20 20 20 20 20 20 20 20 20 20 20 20 20 20 20 20 20 20 20 20 20 20 20 20 20 20 20 20 20 20 20 20 20 20 20 20 20 20 20 20 20 20 20 20 20 20 20 20 20 20 20 20 20 20 20 20 20 20 20 20 20 20 20 20 20 20 20 20 20 20 20 20 20 20 20 20 20 20 20 20 20 20 20 20 20 20 20 20 20 20 20 20 20 20 20 20 20 20 20 20 20 20 20 20 20 20 20 20 20 20 20 20 20 20 20 20 20 20 20 20 20 20 20 20 20 20 20 20 20 20 20 20 20 20 20 20 20 20 20 20 20 20 20 20 20 20 20 20 20 20 20 20 20 20 20 20 20 20 20 20 20 20 20 20 20 20 20 20 20 20 20 20 20 20 20 20 20 20 20 20 20 20 20 20 20 20 20 20 20 20 20 20 20 20 20 20 20 20 20 20 20 20 20 20 20 20 20 20 20 20 20 20 20 20 20 20 20 20 20 20 20 20 20 20 20 20 20 20 20 20 20 20 20 20 20 20 20 20 20 20 20 20 20 20 20 20 20 20 20 20 20 20 20 20 20 20 20 20 20 20 20 20 20 20 20 20 20 20 20 20 20 20 20 20 20 20 20 20 20 20 20 20 20 20 20 20 20 20 20 20 20 20 20 20 20 20 20 20 20 20 20 20 20 20 20 20 20 20 20 20 20 20 20 20 20 20 20 20 20 20 20 20 20 20 20 20 20 20 20 20 20 20 20 20 20 20 20 20 20 20 20 20 20 20 20 20 20 20 20 20 20 20 20 20 20 20 20 20 20 20 20 20 20 20 20 20 20 20 20 20 20 20 20 20 20 20 20 20 20 20 20 20 20 20 20 20 20 20 20 20 20 20 20 20 20 20 20 20 20 20 20 20 20 20 20 20 20 20 20 20 20 20 20 20 20 20 20 20 20 20 20 20 20 20 20 20 20 20 20 20 
20 20 20 250 250 250 250 250 250 250 250 250 250 250 250 250 250 250 250 250 250 250 250 250 20 20 20 250 250 250 250 250 250 250 250 250 250 250 250 250 250 250 250 250 250 250 250 250 20 20 20 250 250 250 250 250 250 250 250 250 250 250 250 250 250 250 250 250 250 250 250 250 20 20 20 250 250 250 250 250 250 250 250 250 250 250 250 250 250 250 250 250 250 250 250 250 20 20 20 250 250 250 250 250 250 250 250 250 250 250 250 250 250 250 250 250 250 250 250 250 20 20 20 250 250 250 250 250 250 250 250 250 250 250 250 250 250 250 250 250 250 250 250 250 20 20 20 250 250 250 250 250 250 250 250 250 250 250 250 250 250 250 250 250 250 250 250 250 20 20 20 250 250 250 250 250 250 250 250 250 250 250 250 250 250 250 250 250 250 250 250 250 20 20 20 250 250 250 250 250 250 250 250 250 250 250 250 250 250 250 250 250 250 250 250 250 20 20 20 250 250 250 250 250 250 250 250 250 250 250 250 250 250 250 250 250 250 250 250 250 20 20 20 250 250 250 250 250 250 250 250 250 250 250 250 250 250 250 250 250 250 250 250 250 20 20 20 250 250 250 250 250 250 250 250 250 250 250 250 250 250 250 250 250 250 250 250 250 20 20 20 250 250 250 250 250 250 250 250 250 250 250 250 250 250 250 250 250 250 250 250 250 20 20 20 250 250 250 250 250 250 250 250 250 250 250 250 250 250 250 250 250 250 250 250 250 20 20 20 250 250 250 250 250 250 250 250 250 250 250 250 250 250 250 250 250 250 250 250 250 20 20 20 250 250 250 250 250 250 250 250 250 250 250 250 250 250 250 250 250 250 250 250 250 20 20 20 250 250 250 250 250 250 250 250 250 250 250 250 250 250 250 250 250 250 250 250 250 20 20 20 250 250 250 250 250 250 250 250 250 250 250 250 250 250 250 250 250 250 250 250 250 20 20 20 250 250 250 250 250 250 250 250 250 250 250 250 250 250 250 250 250 250 250 250 250 20 20 20 250 250 250 250 250 250 250 250 250 250 250 250 250 250 250 250 250 250 250 250 250 
20 20 20 250 250 250 250 250 250 250 250 250 250 250 250 250 250 250 250 250 250 250 250 250 20 20 20 250 250 250 250 250 250 250 250 250 250 250 250 250 250 250 250 250 250 250 250 250 20 20 20 250 250 250 250 250 250 250 250 250 250 250 250 250 250 250 250 250 250 250 250 250 20 20 20 250 250 250 250 250 250 250 250 250 250 250 250 250 250 250 250 250 250 250 250 250 20 20 20 250 250 250 250 250 250 250 250 250 250 250 250 250 250 250 250 250 250 250 250 250 20 20 20 250 250 250 250 250 250 250 250 250 250 250 250 250 250 250 250 250 250 250 250 250 20 20 20 250 250 250 250 250 250 250 250 250 250 250 250 250 250 250 250 250 250 250 250 250 20 20 20 250 250 250 250 250 250 250 250 250 250 250 250 250 250 250 250 250 250 250 250 250 20 20 20 250 250 250 250 250 250 250 250 250 250 250 250 250 250 250 250 250 250 250 250 250 20 20 20 250 250 250 250 250 250 250 250 250 250 250 250 250 250 250 250 250 250 250 250 250 20 20 20 250 250 250 250 250 250 250 250 250 250 250 250 250 250 250 250 250 250 250 250 250 20 20 20 250 250 250 250 250 250 250 250 250 250 250 250 250 250 250 250 250 250 250 250 250 20 20 20 250 250 250 250 250 250 250 250 250 250 250 250 250 250 250 250 250 250 250 250 250 20 20 20 250 250 250 250 250 250 250 250 250 250 250 250 250 250 250 250 250 250 250 250 250 20 20 20 250 250 250 250 250 250 250 250 250 250 250 250 250 250 250 250 250 250 250 250 250 20 20 20 250 250 250 250 250 250 250 250 250 250 250 250 250 250 250 250 250 250 250 250 250 20 20 20 250 250 250 250 250 250 250 250 250 250 250 250 250 250 250 250 250 250 250 250 250 20 20 20 250 250 250 250 250 250 250 250 250 250 250 250 250 250 250 250 250 250 250 250 250 20 20 20 250 250 250 250 250 250 250 250 250 250 250 250 250 250 250 250 250 250 250 250 250 20 20 20 250 250 250 250 250 250 250 250 250 250 250 250 250 250 250 250 250 250 250 250 250 
20 20 20 250 250 250 250 250 250 250 250 250 250 250 250 250 250 250 250 250 250 250 250 250 20 20 20 250 250 250 250 250 250 250 250 250 250 250 250 250 250 250 250 250 250 250 250 250 20 20 20 250 250 250 250 250 250 250 250 250 250 250 250 250 250 250 250 250 250 250 250 250 20 20 20 250 250 250 250 250 250 250 250 250 250 250 250 250 250 250 250 250 250 250 250 250 20 20 20 250 250 250 250 250 250 250 250 250 250 250 250 250 250 250 250 250 250 250 250 250 20 20 20 250 250 250 250 250 250 250 250 250 250 250 250 250 250 250 250 250 250 250 250 250 20 20 20 250 250 250 250 250 250 250 250 250 250 250 250 250 250 250 250 250 250 250 250 250 20 20 20 250 250 250 250 250 250 250 250 250 250 250 250 250 250 250 250 250 250 250 250 250 20 20 20 250 250 250 250 250 250 250 250 250 250 250 250 250 250 250 250 250 250 250 250 250 20 20 20 250 250 250 250 250 250 250 250 250 250 250 250 250 250 250 250 250 250 250 250 250 20 20 20 250 250 250 250 250 250 250 250 250 250 250 250 250 250 250 250 250 250 250 250 250 20 20 20 250 250 250 250 250 250 250 250 250 250 250 250 250 250 250 250 250 250 250 250 250 20 20 20 250 250 250 250 250 250 250 250 250 250 250 250 250 250 250 250 250 250 250 250 250 20 20 20 250 250 250 250 250 250 250 250 250 250 250 250 250 250 250 250 250 250 250 250 250 20 20 20 250 250 250 250 250 250 250 250 250 250 250 250 250 250 250 250 250 250 250 250 250 20 20 20 250 250 250 250 250 250 250 250 250 250 250 250 250 250 250 250 250 250 250 250 250 20 20 20 250 250 250 250 250 250 250 250 250 250 250 250 250 250 250 250 250 250 250 250 250 20 20 20 250 250 250 250 250 250 250 250 250 250 250 250 250 250 250 250 250 250 250 250 250 20 20 20 250 250 250 250 250 250 250 250 250 250 250 250 250 250 250 250 250 250 250 250 250 20 20 20 250 250 250 250 250 250 250 250 250 250 250 250 250 250 250 250 250 250 250 250 250 
20 20 20 250 250 250 250 250 250 250 250 250 250 250 250 250 250 250 250 250 250 250 250 250 20 20 20 250 250 250 250 250 250 250 250 250 250 250 250 250 250 250 250 250 250 250 250 250 20 20 20 250 250 250 250 250 250 250 250 250 250 250 250 250 250 250 250 250 250 250 250 250 20 20 20 250 250 250 250 250 250 250 250 250 250 250 250 250 250 250 250 250 250 250 250 250 20 20 20 250 250 250 250 250 250 250 250 250 250 250 250 250 250 250 250 250 250 250 250 250 20 20 20 250 250 250 250 250 250 250 250 250 250 250 250 250 250 250 250 250 250 250 250 250 20 20 20 250 250 250 250 250 250 250 250 250 250 250 250 250 250 250 250 250 250 250 250 250 20 20 20 250 250 250 250 250 250 250 250 250 250 250 250 250 250 250 250 250 250 250 250 250 20 20 20 250 250 250 250 250 250 250 250 250 250 250 250 250 250 250 250 250 250 250 250 250 20 20 20 250 250 250 250 250 250 250 250 250 250 250 250 250 250 250 250 250 250 250 250 250 20 20 20 250 250 250 250 250 250 250 250 250 250 250 250 250 250 250 250 250 250 250 250 250 20 20 20 250 250 250 250 250 250 250 250 250 250 250 250 250 250 250 250 250 250 250 250 250 20 20 20 250 250 250 250 250 250 250 250 250 250 250 250 250 250 250 250 250 250 250 250 250 20 20 20 250 250 250 250 250 250 250 250 250 250 250 250 250 250 250 250 250 250 250 250 250 20 20 20 250 250 250 250 250 250 250 250 250 250 250 250 250 250 250 250 250 250 250 250 250 20 20 20 250 250 250 250 250 250 250 250 250 250 250 250 250 250 250 250 250 250 250 250 250 20 20 20 250 250 250 250 250 250 250 250 250 250 250 250 250 250 250 250 250 250 250 250 250 20 20 20 250 250 250 250 250 250 250 250 250 250 250 250 250 250 250 250 250 250 250 250 250 20 20 20 250 250 250 250 250 250 250 250 250 250 250 250 250 250 250 250 250 250 250 250 250 20 20 20 250 250 250 250 250 250 250 250 250 250 250 250 250 250 250 250 250 250 250 250 250 
20 20 20 250 250 250 250 250 250 250 250 250 250 250 250 250 250 250 250 250 250 250 250 250 20 20 20 250 250 250 250 250 250 250 250 250 250 250 250 250 250 250 250 250 250 250 250 250 20 20 20 250 250 250 250 250 250 250 250 250 250 250 250 250 250 250 250 250 250 250 250 250 20 20 20 250 250 250 250 250 250 250 250 250 250 250 250 250 250 250 250 250 250 250 250 250 20 20 20 250 250 250 250 250 250 250 250 250 250 250 250 250 250 250 250 250 250 250 250 250 20 20 20 250 250 250 250 250 250 250 250 250 250 250 250 250 250 250 250 250 250 250 250 250 20 20 20 250 250 250 250 250 250 250 250 250 250 250 250 250 250 250 250 250 250 250 250 250 20 20 20 250 250 250 250 250 250 250 250 250 250 250 250 250 250 250 250 250 250 250 250 250 20 20 20 250 250 250 250 250 250 250 250 250 250 250 250 250 250 250 250 250 250 250 250 250 20 20 20 250 250 250 250 250 250 250 250 250 250 250 250 250 250 250 250 250 250 250 250 250 20 20 20 250 250 250 250 250 250 250 250 250 250 250 250 250 250 250 250 250 250 250 250 250 20 20 20 250 250 250 250 250 250 250 250 250 250 250 250 250 250 250 250 250 250 250 250 250 20 20 20 250 250 250 250 250 250 250 250 250 250 250 250 250 250 250 250 250 250 250 250 250 20 20 20 250 250 250 250 250 250 250 250 250 250 250 250 250 250 250 250 250 250 250 250 250 20 20 20 250 250 250 250 250 250 250 250 250 250 250 250 250 250 250 250 250 250 250 250 250 20 20 20 250 250 250 250 250 250 250 250 250 250 250 250 250 250 250 250 250 250 250 250 250 20 20 20 250 250 250 250 250 250 250 250 250 250 250 250 250 250 250 250 250 250 250 250 250 20 20 20 250 250 250 250 250 250 250 250 250 250 250 250 250 250 250 250 250 250 250 250 250 20 20 20 250 250 250 250 250 250 250 250 250 250 250 250 250 250 250 250 250 250 250 250 250 20 20 20 250 250 250 250 250 250 250 250 250 250 250 250 250 250 250 250 250 250 250 250 250 
20 20 20 250 250 250 250 250 250 250 250 250 250 250 250 250 250 250 250 250 250 250 250 250 20 20 20 250 250 250 250 250 250 250 250 250 250 250 250 250 250 250 250 250 250 250 250 250 20 20 20 250 250 250 250 250 250 250 250 250 250 250 250 250 250 250 250 250 250 250 250 250 20 20 20 250 250 250 250 250 250 250 250 250 250 250 250 250 250 250 250 250 250 250 250 250 20 20 20 250 250 250 250 250 250 250 250 250 250 250 250 250 250 250 250 250 250 250 250 250 20 20 20 250 250 250 250 250 250 250 250 250 250 250 250 250 250 250 250 250 250 250 250 250 20 20 20 250 250 250 250 250 250 250 250 250 250 250 250 250 250 250 250 250 250 250 250 250 20 20 20 250 250 250 250 250 250 250 250 250 250 250 250 250 250 250 250 250 250 250 250 250 20 20 20 250 250 250 250 250 250 250 250 250 250 250 250 250 250 250 250 250 250 250 250 250 20 20 20 250 250 250 250 250 250 250 250 250 250 250 250 250 250 250 250 250 250 250 250 250 20 20 20 250 250 250 250 250 250 250 250 250 250 250 250 250 250 250 250 250 250 250 250 250 20 20 20 250 250 250 250 250 250 250 250 250 250 250 250 250 250 250 250 250 250 250 250 250 20 20 20 250 250 250 250 250 250 250 250 250 250 250 250 250 250 250 250 250 250 250 250 250 20 20 20 250 250 250 250 250 250 250 250 250 250 250 250 250 250 250 250 250 250 250 250 250 20 20 20 250 250 250 250 250 250 250 250 250 250 250 250 250 250 250 250 250 250 250 250 250 20 20 20 250 250 250 250 250 250 250 250 250 250 250 250 250 250 250 250 250 250 250 250 250 20 20 20 250 250 250 250 250 250 250 250 250 250 250 250 250 250 250 250 250 250 250 250 250 20 20 20 250 250 250 250 250 250 250 250 250 250 250 250 250 250 250 250 250 250 250 250 250 20 20 20 250 250 250 250 250 250 250 250 250 250 250 250 250 250 250 250 250 250 250 250 250 20 20 20 250 250 250 250 250 250 250 250 250 250 250 250 250 250 250 250 250 250 250 250 250 
20 20 20 250 250 250 250 250 250 250 250 250 250 250 250 250 250 250 250 250 250 250 250 250 20 20 20 250 250 250 250 250 250 250 250 250 250 250 250 250 250 250 250 250 250 250 250 250 20 20 20 250 250 250 250 250 250 250 250 250 250 250 250 250 250 250 250 250 250 250 250 250 20 20 20 250 250 250 250 250 250 250 250 250 250 250 250 250 250 250 250 250 250 250 250 250 20 20 20 250 250 250 250 250 250 250 250 250 250 250 250 250 250 250 250 250 250 250 250 250 20 20 20 250 250 250 250 250 250 250 250 250 250 250 250 250 250 250 250 250 250 250 250 250 20 20 20 250 250 250 250 250 250 250 250 250 250 250 250 250 250 250 250 250 250 250 250 250 20 20 20 250 250 250 250 250 250 250 250 250 250 250 250 250 250 250 250 250 250 250 250 250 20 20 20 250 250 250 250 250 250 250 250 250 250 250 250 250 250 250 250 250 250 250 250 250 20 20 20 250 250 250 250 250 250 250 250 250 250 250 250 250 250 250 250 250 250 250 250 250 20 20 20 250 250 250 250 250 250 250 250 250 250 250 250 250 250 250 250 250 250 250 250 250 20 20 20 250 250 250 250 250 250 250 250 250 250 250 250 250 250 250 250 250 250 250 250 250 20 20 20 250 250 250 250 250 250 250 250 250 250 250 250 250 250 250 250 250 250 250 250 250 20 20 20 250 250 250 250 250 250 250 250 250 250 250 250 250 250 250 250 250 250 250 250 250 20 20 20 250 250 250 250 250 250 250 250 250 250 250 250 250 250 250 250 250 250 250 250 250 20 20 20 250 250 250 250 250 250 250 250 250 250 250 250 250 250 250 250 250 250 250 250 250 20 20 20 250 250 250 250 250 250 250 250 250 250 250 250 250 250 250 250 250 250 250 250 250 20 20 20 250 250 250 250 250 250 250 250 250 250 250 250 250 250 250 250 250 250 250 250 250 20 20 20 250 250 250 250 250 250 250 250 250 250 250 250 250 250 250 250 250 250 250 250 250 20 20 20 250 250 250 250 250 250 250 250 250 250 250 250 250 250 250 250 250 250 250 250 250 
20 20 20 20 20 20 20 20 20 20 20 20 20 20 20 20 20 20 20 20 20 20 20 20 20 20 20 20 20 20 20 20 20 20 20 20 20 20 20 20 20 20 20 20 20 20 20 20 20 20 20 20 20 20 20 20 20 20 20 20 20 20 20 20 20 20 20 20 20 20 20 20 20 20 20 20 20 20 20 20 20 20 20 20 20 20 20 20 20 20 20 20 20 20 20 20 20 20 20 20 20 20 20 20 20 20 20 20 20 20 20 20 20 20 20 20 20 20 20 20 20 20 20 20 20 20 20 20 20 20 20 20 20 20 20 20 20 20 20 20 20 20 20 20 20 20 20 20 20 20 20 20 20 20 20 20 20 20 20 20 20 20 20 20 20 20 20 20 20 20 20 20 20 20 20 20 20 20 20 20 20 20 20 20 20 20 20 20 20 20 20 20 20 20 20 20 20 20 20 20 20 20 20 20 20 20 20 20 20 20 20 20 20 20 20 20 20 20 20 20 20 20 20 20 20 20 20 20 20 20 20 20 20 20 20 20 20 20 20 20 20 20 20 20 20 20 20 20 20 20 20 20 20 20 20 20 20 20 20 20 20 20 20 20 20 20 20 20 20 20 20 20 20 20 20 20 20 20 20 20 20 20 20 20 20 20 20 20 20 20 20 20 20 20 20 20 20 20 20 20 20 20 20 20 20 20 20 20 20 20 20 20 20 20 20 20 20 20 20 20 20 20 20 20 20 20 20 20 20 20 20 20 20 20 20 20 20 20 20 20 20 20 20 20 20 20 20 20 20 20 20 20 20 20 20 20 20 20 20 20 20 20 20 20 20 20 20 20 20 20 20 20 20 20 20 20 20 20 20 20 20 20 20 20 20 20 20 20 20 20 20 20 20 20 20 20 20 20 20 20 20 20 20 20 20 20 20 20 20 20 20 20 20 20 20 20 20 20 20 20 20 20 20 20 20 20 20 20 20 20 20 20 20 20 20 20 20 20 20 20 20 20 20 20 20 20 20 20 20 20 20 20 20 20 20 20 20 20 20 20 20 20 20 20 20 20 20 20 20 20 20 20 20 20 20 20 20 20 20 20 
20 20 20 250 250 250 250 250 250 250 250 250 250 250 250 250 250 250 250 250 250 250 250 250 20 20 20 250 250 250 250 250 250 250 250 250 250 250 250 250 250 250 250 250 250 250 250 250 20 20 20 250 250 250 250 250 250 250 250 250 250 250 250 250 250 250 250 250 250 250 250 250 20 20 20 250 250 250 250 250 250 250 250 250 250 250 250 250 250 250 250 250 250 250 250 250 20 20 20 250 250 250 250 250 250 250 250 250 250 250 250 250 250 250 250 250 250 250 250 250 20 20 20 250 250 250 250 250 250 250 250 250 250 250 250 250 250 250 250 250 250 250 250 250 20 20 20 250 250 250 250 250 250 250 250 250 250 250 250 250 250 250 250 250 250 250 250 250 20 20 20 250 250 250 250 250 250 250 250 250 250 250 250 250 250 250 250 250 250 250 250 250 20 20 20 250 250 250 250 250 250 250 250 250 250 250 250 250 250 250 250 250 250 250 250 250 20 20 20 250 250 250 250 250 250 250 250 250 250 250 250 250 250 250 250 250 250 250 250 250 20 20 20 250 250 250 250 250 250 250 250 250 250 250 250 250 250 250 250 250 250 250 250 250 20 20 20 250 250 250 250 250 250 250 250 250 250 250 250 250 250 250 250 250 250 250 250 250 20 20 20 250 250 250 250 250 250 250 250 250 250 250 250 250 250 250 250 250 250 250 250 250 20 20 20 250 250 250 250 250 250 250 250 250 250 250 250 250 250 250 250 250 250 250 250 250 20 20 20 250 250 250 250 250 250 250 250 250 250 250 250 250 250 250 250 250 250 250 250 250 20 20 20 250 250 250 250 250 250 250 250 250 250 250 250 250 250 250 250 250 250 250 250 250 20 20 20 250 250 250 250 250 250 250 250 250 250 250 250 250 250 250 250 250 250 250 250 250 20 20 20 250 250 250 250 250 250 250 250 250 250 250 250 250 250 250 250 250 250 250 250 250 20 20 20 250 250 250 250 250 250 250 250 250 250 250 250 250 250 250 250 250 250 250 250 250 20 20 20 250 250 250 250 250 250 250 250 250 250 250 250 250 250 250 250 250 250 250 250 250 
20 20 20 250 250 250 250 250 250 250 250 250 250 250 250 250 250 250 250 250 250 250 250 250 20 20 20 250 250 250 250 250 250 250 250 250 250 250 250 250 250 250 250 250 250 250 250 250 20 20 20 250 250 250 250 250 250 250 250 250 250 250 250 250 250 250 250 250 250 250 250 250 20 20 20 250 250 250 250 250 250 250 250 250 250 250 250 250 250 250 250 250 250 250 250 250 20 20 20 250 250 250 250 250 250 250 250 250 250 250 250 250 250 250 250 250 250 250 250 250 20 20 20 250 250 250 250 250 250 250 250 250 250 250 250 250 250 250 250 250 250 250 250 250 20 20 20 250 250 250 250 250 250 250 250 250 250 250 250 250 250 250 250 250 250 250 250 250 20 20 20 250 250 250 250 250 250 250 250 250 250 250 250 250 250 250 250 250 250 250 250 250 20 20 20 250 250 250 250 250 250 250 250 250 250 250 250 250 250 250 250 250 250 250 250 250 20 20 20 250 250 250 250 250 250 250 250 250 250 250 250 250 250 250 250 250 250 250 250 250 20 20 20 250 250 250 250 250 250 250 250 250 250 250 250 250 250 250 250 250 250 250 250 250 20 20 20 250 250 250 250 250 250 250 250 250 250 250 250 250 250 250 250 250 250 250 250 250 20 20 20 250 250 250 250 250 250 250 250 250 250 250 250 250 250 250 250 250 250 250 250 250 20 20 20 250 250 250 250 250 250 250 250 250 250 250 250 250 250 250 250 250 250 250 250 250 20 20 20 250 250 250 250 250 250 250 250 250 250 250 250 250 250 250 250 250 250 250 250 250 20 20 20 250 250 250 250 250 250 250 250 250 250 250 250 250 250 250 250 250 250 250 250 250 20 20 20 250 250 250 250 250 250 250 250 250 250 250 250 250 250 250 250 250 250 250 250 250 20 20 20 250 250 250 250 250 250 250 250 250 250 250 250 250 250 250 250 250 250 250 250 250 20 20 20 250 250 250 250 250 250 250 250 250 250 250 250 250 250 250 250 250 250 250 250 250 20 20 20 250 250 250 250 250 250 250 250 250 250 250 250 250 250 250 250 250 250 250 250 250 
20 20 20 250 250 250 250 250 250 250 250 250 250 250 250 250 250 250 250 250 250 250 250 250 20 20 20 250 250 250 250 250 250 250 250 250 250 250 250 250 250 250 250 250 250 250 250 250 20 20 20 250 250 250 250 250 250 250 250 250 250 250 250 250 250 250 250 250 250 250 250 250 20 20 20 250 250 250 250 250 250 250 250 250 250 250 250 250 250 250 250 250 250 250 250 250 20 20 20 250 250 250 250 250 250 250 250 250 250 250 250 250 250 250 250 250 250 250 250 250 20 20 20 250 250 250 250 250 250 250 250 250 250 250 250 250 250 250 250 250 250 250 250 250 20 20 20 250 250 250 250 250 250 250 250 250 250 250 250 250 250 250 250 250 250 250 250 250 20 20 20 250 250 250 250 250 250 250 250 250 250 250 250 250 250 250 250 250 250 250 250 250 20 20 20 250 250 250 250 250 250 250 250 250 250 250 250 250 250 250 250 250 250 250 250 250 20 20 20 250 250 250 250 250 250 250 250 250 250 250 250 250 250 250 250 250 250 250 250 250 20 20 20 250 250 250 250 250 250 250 250 250 250 250 250 250 250 250 250 250 250 250 250 250 20 20 20 250 250 250 250 250 250 250 250 250 250 250 250 250 250 250 250 250 250 250 250 250 20 20 20 250 250 250 250 250 250 250 250 250 250 250 250 250 250 250 250 250 250 250 250 250 20 20 20 250 250 250 250 250 250 250 250 250 250 250 250 250 250 250 250 250 250 250 250 250 20 20 20 250 250 250 250 250 250 250 250 250 250 250 250 250 250 250 250 250 250 250 250 250 20 20 20 250 250 250 250 250 250 250 250 250 250 250 250 250 250 250 250 250 250 250 250 250 20 20 20 250 250 250 250 250 250 250 250 250 250 250 250 250 250 250 250 250 250 250 250 250 20 20 20 250 250 250 250 250 250 250 250 250 250 250 250 250 250 250 250 250 250 250 250 250 20 20 20 250 250 250 250 250 250 250 250 250 250 250 250 250 250 250 250 250 250 250 250 250 20 20 20 250 250 250 250 250 250 250 250 250 250 250 250 250 250 250 250 250 250 250 250 250 
20 20 20 250 250 250 250 250 250 250 250 250 250 250 250 250 250 250 250 250 250 250 250 250 20 20 20 250 250 250 250 250 250 250 250 250 250 250 250 250 250 250 250 250 250 250 250 250 20 20 20 250 250 250 250 250 250 250 250 250 250 250 250 250 250 250 250 250 250 250 250 250 20 20 20 250 250 250 250 250 250 250 250 250 250 250 250 250 250 250 250 250 250 250 250 250 20 20 20 250 250 250 250 250 250 250 250 250 250 250 250 250 250 250 250 250 250 250 250 250 20 20 20 250 250 250 250 250 250 250 250 250 250 250 250 250 250 250 250 250 250 250 250 250 20 20 20 250 250 250 250 250 250 250 250 250 250 250 250 250 250 250 250 250 250 250 250 250 20 20 20 250 250 250 250 250 250 250 250 250 250 250 250 250 250 250 250 250 250 250 250 250 20 20 20 250 250 250 250 250 250 250 250 250 250 250 250 250 250 250 250 250 250 250 250 250 20 20 20 250 250 250 250 250 250 250 250 250 250 250 250 250 250 250 250 250 250 250 250 250 20 20 20 250 250 250 250 250 250 250 250 250 250 250 250 250 250 250 250 250 250 250 250 250 20 20 20 250 250 250 250 250 250 250 250 250 250 250 250 250 250 250 250 250 250 250 250 250 20 20 20 250 250 250 250 250 250 250 250 250 250 250 250 250 250 250 250 250 250 250 250 250 20 20 20 250 250 250 250 250 250 250 250 250 250 250 250 250 250 250 250 250 250 250 250 250 20 20 20 250 250 250 250 250 250 250 250 250 250 250 250 250 250 250 250 250 250 250 250 250 20 20 20 250 250 250 250 250 250 250 250 250 250 250 250 250 250 250 250 250 250 250 250 250 20 20 20 250 250 250 250 250 250 250 250 250 250 250 250 250 250 250 250 250 250 250 250 250 20 20 20 250 250 250 250 250 250 250 250 250 250 250 250 250 250 250 250 250 250 250 250 250 20 20 20 250 250 250 250 250 250 250 250 250 250 250 250 250 250 250 250 250 250 250 250 250 20 20 20 250 250 250 250 250 250 250 250 250 250 250 250 250 250 250 250 250 250 250 250 250 
20 20 20 250 250 250 250 250 250 250 250 250 250 250 250 250 250 250 250 250 250 250 250 250 20 20 20 250 250 250 250 250 250 250 250 250 250 250 250 250 250 250 250 250 250 250 250 250 20 20 20 250 250 250 250 250 250 250 250 250 250 250 250 250 250 250 250 250 250 250 250 250 20 20 20 250 250 250 250 250 250 250 250 250 250 250 250 250 250 250 250 250 250 250 250 250 20 20 20 250 250 250 250 250 250 250 250 250 250 250 250 250 250 250 250 250 250 250 250 250 20 20 20 250 250 250 250 250 250 250 250 250 250 250 250 250 250 250 250 250 250 250 250 250 20 20 20 250 250 250 250 250 250 250 250 250 250 250 250 250 250 250 250 250 250 250 250 250 20 20 20 250 250 250 250 250 250 250 250 250 250 250 250 250 250 250 250 250 250 250 250 250 20 20 20 250 250 250 250 250 250 250 250 250 250 250 250 250 250 250 250 250 250 250 250 250 20 20 20 250 250 250 250 250 250 250 250 250 250 250 250 250 250 250 250 250 250 250 250 250 20 20 20 250 250 250 250 250 250 250 250 250 250 250 250 250 250 250 250 250 250 250 250 250 20 20 20 250 250 250 250 250 250 250 250 250 250 250 250 250 250 250 250 250 250 250 250 250 20 20 20 250 250 250 250 250 250 250 250 250 250 250 250 250 250 250 250 250 250 250 250 250 20 20 20 250 250 250 250 250 250 250 250 250 250 250 250 250 250 250 250 250 250 250 250 250 20 20 20 250 250 250 250 250 250 250 250 250 250 250 250 250 250 250 250 250 250 250 250 250 20 20 20 250 250 250 250 250 250 250 250 250 250 250 250 250 250 250 250 250 250 250 250 250 20 20 20 250 250 250 250 250 250 250 250 250 250 250 250 250 250 250 250 250 250 250 250 250 20 20 20 250 250 250 250 250 250 250 250 250 250 250 250 250 250 250 250 250 250 250 250 250 20 20 20 250 250 250 250 250 250 250 250 250 250 250 250 250 250 250 250 250 250 250 250 250 20 20 20 250 250 250 250 250 250 250 250 250 250 250 250 250 250 250 250 250 250 250 250 250 
20 20 20 250 250 250 250 250 250 250 250 250 250 250 250 250 250 250 250 250 250 250 250 250 20 20 20 250 250 250 250 250 250 250 250 250 250 250 250 250 250 250 250 250 250 250 250 250 20 20 20 250 250 250 250 250 250 250 250 250 250 250 250 250 250 250 250 250 250 250 250 250 20 20 20 250 250 250 250 250 250 250 250 250 250 250 250 250 250 250 250 250 250 250 250 250 20 20 20 250 250 250 250 250 250 250 250 250 250 250 250 250 250 250 250 250 250 250 250 250 20 20 20 250 250 250 250 250 250 250 250 250 250 250 250 250 250 250 250 250 250 250 250 250 20 20 20 250 250 250 250 250 250 250 250 250 250 250 250 250 250 250 250 250 250 250 250 250 20 20 20 250 250 250 250 250 250 250 250 250 250 250 250 250 250 250 250 250 250 250 250 250 20 20 20 250 250 250 250 250 250 250 250 250 250 250 250 250 250 250 250 250 250 250 250 250 20 20 20 250 250 250 250 250 250 250 250 250 250 250 250 250 250 250 250 250 250 250 250 250 20 20 20 250 250 250 250 250 250 250 250 250 250 250 250 250 250 250 250 250 250 250 250 250 20 20 20 250 250 250 250 250 250 250 250 250 250 250 250 250 250 250 250 250 250 250 250 250 20 20 20 250 250 250 250 250 250 250 250 250 250 250 250 250 250 250 250 250 250 250 250 250 20 20 20 250 250 250 250 250 250 250 250 250 250 250 250 250 250 250 250 250 250 250 250 250 20 20 20 250 250 250 250 250 250 250 250 250 250 250 250 250 250 250 250 250 250 250 250 250 20 20 20 250 250 250 250 250 250 250 250 250 250 250 250 250 250 250 250 250 250 250 250 250 20 20 20 250 250 250 250 250 250 250 250 250 250 250 250 250 250 250 250 250 250 250 250 250 20 20 20 250 250 250 250 250 250 250 250 250 250 250 250 250 250 250 250 250 250 250 250 250 20 20 20 250 250 250 250 250 250 250 250 250 250 250 250 250 250 250 250 250 250 250 250 250 20 20 20 250 250 250 250 250 250 250 250 250 250 250 250 250 250 250 250 250 250 250 250 250 
20 20 20 250 250 250 250 250 250 250 250 250 250 250 250 250 250 250 250 250 250 250 250 250 20 20 20 250 250 250 250 250 250 250 250 250 250 250 250 250 250 250 250 250 250 250 250 250 20 20 20 250 250 250 250 250 250 250 250 250 250 250 250 250 250 250 250 250 250 250 250 250 20 20 20 250 250 250 250 250 250 250 250 250 250 250 250 250 250 250 250 250 250 250 250 250 20 20 20 250 250 250 250 250 250 250 250 250 250 250 250 250 250 250 250 250 250 250 250 250 20 20 20 250 250 250 250 250 250 250 250 250 250 250 250 250 250 250 250 250 250 250 250 250 20 20 20 250 250 250 250 250 250 250 250 250 250 250 250 250 250 250 250 250 250 250 250 250 20 20 20 250 250 250 250 250 250 250 250 250 250 250 250 250 250 250 250 250 250 250 250 250 20 20 20 250 250 250 250 250 250 250 250 250 250 250 250 250 250 250 250 250 250 250 250 250 20 20 20 250 250 250 250 250 250 250 250 250 250 250 250 250 250 250 250 250 250 250 250 250 20 20 20 250 250 250 250 250 250 250 250 250 250 250 250 250 250 250 250 250 250 250 250 250 20 20 20 250 250 250 250 250 250 250 250 250 250 250 250 250 250 250 250 250 250 250 250 250 20 20 20 250 250 250 250 250 250 250 250 250 250 250 250 250 250 250 250 250 250 250 250 250 20 20 20 250 250 250 250 250 250 250 250 250 250 250 250 250 250 250 250 250 250 250 250 250 20 20 20 250 250 250 250 250 250 250 250 250 250 250 250 250 250 250 250 250 250 250 250 250 20 20 20 250 250 250 250 250 250 250 250 250 250 250 250 250 250 250 250 250 250 250 250 250 20 20 20 250 250 250 250 250 250 250 250 250 250 250 250 250 250 250 250 250 250 250 250 250 20 20 20 250 250 250 250 250 250 250 250 250 250 250 250 250 250 250 250 250 250 250 250 250 20 20 20 250 250 250 250 250 250 250 250 250 250 250 250 250 250 250 250 250 250 250 250 250 20 20 20 250 250 250 250 250 250 250 250 250 250 250 250 250 250 250 250 250 250 250 250 250 
20 20 20 20 20 20 20 20 20 20 20 20 20 20 20 20 20 20 20 20 20 20 20 20 20 20 20 20 20 20 20 20 20 20 20 20 20 20 20 20 20 20 20 20 20 20 20 20 20 20 20 20 20 20 20 20 20 20 20 20 20 20 20 20 20 20 20 20 20 20 20 20 20 20 20 20 20 20 20 20 20 20 20 20 20 20 20 20 20 20 20 20 20 20 20 20 20 20 20 20 20 20 20 20 20 20 20 20 20 20 20 20 20 20 20 20 20 20 20 20 20 20 20 20 20 20 20 20 20 20 20 20 20 20 20 20 20 20 20 20 20 20 20 20 20 20 20 20 20 20 20 20 20 20 20 20 20 20 20 20 20 20 20 20 20 20 20 20 20 20 20 20 20 20 20 20 20 20 20 20 20 20 20 20 20 20 20 20 20 20 20 20 20 20 20 20 20 20 20 20 20 20 20 20 20 20 20 20 20 20 20 20 20 20 20 20 20 20 20 20 20 20 20 20 20 20 20 20 20 20 20 20 20 20 20 20 20 20 20 20 20 20 20 20 20 20 20 20 20 20 20 20 20 20 20 20 20 20 20 20 20 20 20 20 20 20 20 20 20 20 20 20 20 20 20 20 20 20 20 20 20 20 20 20 20 20 20 20 20 20 20 20 20 20 20 20 20 20 20 20 20 20 20 20 20 20 20 20 20 20 20 20 20 20 20 20 20 20 20 20 20 20 20 20 20 20 20 20 20 20 20 20 20 20 20 20 20 20 20 20 20 20 20 20 20 20 20 20 20 20 20 20 20 20 20 20 20 20 20 20 20 20 20 20 20 20 20 20 20 20 20 20 20 20 20 20 20 20 20 20 20 20 20 20 20 20 20 20 20 20 20 20 20 20 20 20 20 20 20 20 20 20 20 20 20 20 20 20 20 20 20 20 20 20 20 20 20 20 20 20 20 20 20 20 20 20 20 20 20 20 20 20 20 20 20 20 20 20 20 20 20 20 20 20 20 20 20 20 20 20 20 20 20 20 20 20 20 20 20 20 20 20 20 20 20 20 20 20 20 20 20 20 20 20 20 20 20 20 20 20 
20 20 20 250 250 250 250 250 250 250 250 250 250 250 250 250 250 250 250 250 250 250 250 250 20 20 20 250 250 250 250 250 250 250 250 250 250 250 250 250 250 250 250 250 250 250 250 250 20 20 20 250 250 250 250 250 250 250 250 250 250 250 250 250 250 250 250 250 250 250 250 250 20 20 20 250 250 250 250 250 250 250 250 250 250 250 250 250 250 250 250 250 250 250 250 250 20 20 20 250 250 250 250 250 250 250 250 250 250 250 250 250 250 250 250 250 250 250 250 250 20 20 20 250 250 250 250 250 250 250 250 250 250 250 250 250 250 250 250 250 250 250 250 250 20 20 20 250 250 250 250 250 250 250 250 250 250 250 250 250 250 250 250 250 250 250 250 250 20 20 20 250 250 250 250 250 250 250 250 250 250 250 250 250 250 250 250 250 250 250 250 250 20 20 20 250 250 250 250 250 250 250 250 250 250 250 250 250 250 250 250 250 250 250 250 250 20 20 20 250 250 250 250 250 250 250 250 250 250 250 250 250 250 250 250 250 250 250 250 250 20 20 20 250 250 250 250 250 250 250 250 250 250 250 250 250 250 250 250 250 250 250 250 250 20 20 20 250 250 250 250 250 250 250 250 250 250 250 250 250 250 250 250 250 250 250 250 250 20 20 20 250 250 250 250 250 250 250 250 250 250 250 250 250 250 250 250 250 250 250 250 250 20 20 20 250 250 250 250 250 250 250 250 250 250 250 250 250 250 250 250 250 250 250 250 250 20 20 20 250 250 250 250 250 250 250 250 250 250 250 250 250 250 250 250 250 250 250 250 250 20 20 20 250 250 250 250 250 250 250 250 250 250 250 250 250 250 250 250 250 250 250 250 250 20 20 20 250 250 250 250 250 250 250 250 250 250 250 250 250 250 250 250 250 250 250 250 250 20 20 20 250 250 250 250 250 250 250 250 250 250 250 250 250 250 250 250 250 250 250 250 250 20 20 20 250 250 250 250 250 250 250 250 250 250 250 250 250 250 250 250 250 250 250 250 250 20 20 20 250 250 250 250 250 250 250 250 250 250 250 250 250 250 250 250 250 250 250 250 250 
20 20 20 250 250 250 250 250 250 250 250 250 250 250 250 250 250 250 250 250 250 250 250 250 20 20 20 250 250 250 250 250 250 250 250 250 250 250 250 250 250 250 250 250 250 250 250 250 20 20 20 250 250 250 250 250 250 250 250 250 250 250 250 250 250 250 250 250 250 250 250 250 20 20 20 250 250 250 250 250 250 250 250 250 250 250 250 250 250 250 250 250 250 250 250 250 20 20 20 250 250 250 250 250 250 250 250 250 250 250 250 250 250 250 250 250 250 250 250 250 20 20 20 250 250 250 250 250 250 250 250 250 250 250 250 250 250 250 250 250 250 250 250 250 20 20 20 250 250 250 250 250 250 250 250 250 250 250 250 250 250 250 250 250 250 250 250 250 20 20 20 250 250 250 250 250 250 250 250 250 250 250 250 250 250 250 250 250 250 250 250 250 20 20 20 250 250 250 250 250 250 250 250 250 250 250 250 250 250 250 250 250 250 250 250 250 20 20 20 250 250 250 250 250 250 250 250 250 250 250 250 250 250 250 250 250 250 250 250 250 20 20 20 250 250 250 250 250 250 250 250 250 250 250 250 250 250 250 250 250 250 250 250 250 20 20 20 250 250 250 250 250 250 250 250 250 250 250 250 250 250 250 250 250 250 250 250 250 20 20 20 250 250 250 250 250 250 250 250 250 250 250 250 250 250 250 250 250 250 250 250 250 20 20 20 250 250 250 250 250 250 250 250 250 250 250 250 250 250 250 250 250 250 250 250 250 20 20 20 250 250 250 250 250 250 250 250 250 250 250 250 250 250 250 250 250 250 250 250 250 20 20 20 250 250 250 250 250 250 250 250 250 250 250 250 250 250 250 250 250 250 250 250 250 20 20 20 250 250 250 250 250 250 250 250 250 250 250 250 250 250 250 250 250 250 250 250 250 20 20 20 250 250 250 250 250 250 250 250 250 250 250 250 250 250 250 250 250 250 250 250 250 20 20 20 250 250 250 250 250 250 250 250 250 250 250 250 250 250 250 250 250 250 250 250 250 20 20 20 250 250 250 250 250 250 250 250 250 250 250 250 250 250 250 250 250 250 250 250 250 
20 20 20 250 250 250 250 250 250 250 250 250 250 250 250 250 250 250 250 250 250 250 250 250 20 20 20 250 250 250 250 250 250 250 250 250 250 250 250 250 250 250 250 250 250 250 250 250 20 20 20 250 250 250 250 250 250 250 250 250 250 250 250 250 250 250 250 250 250 250 250 250 20 20 20 250 250 250 250 250 250 250 250 250 250 250 250 250 250 250 250 250 250 250 250 250 20 20 20 250 250 250 250 250 250 250 250 250 250 250 250 250 250 250 250 250 250 250 250 250 20 20 20 250 250 250 250 250 250 250 250 250 250 250 250 250 250 250 250 250 250 250 250 250 20 20 20 250 250 250 250 250 250 250 250 250 250 250 250 250 250 250 250 250 250 250 250 250 20 20 20 250 250 250 250 250 250 250 250 250 250 250 250 250 250 250 250 250 250 250 250 250 20 20 20 250 250 250 250 250 250 250 250 250 250 250 250 250 250 250 250 250 250 250 250 250 20 20 20 250 250 250 250 250 250 250 250 250 250 250 250 250 250 250 250 250 250 250 250 250 20 20 20 250 250 250 250 250 250 250 250 250 250 250 250 250 250 250 250 250 250 250 250 250 20 20 20 250 250 250 250 250 250 250 250 250 250 250 250 250 250 250 250 250 250 250 250 250 20 20 20 250 250 250 250 250 250 250 250 250 250 250 250 250 250 250 250 250 250 250 250 250 20 20 20 250 250 250 250 250 250 250 250 250 250 250 250 250 250 250 250 250 250 250 250 250 20 20 20 250 250 250 250 250 250 250 250 250 250 250 250 250 250 250 250 250 250 250 250 250 20 20 20 250 250 250 250 250 250 250 250 250 250 250 250 250 250 250 250 250 250 250 250 250 20 20 20 250 250 250 250 250 250 250 250 250 250 250 250 250 250 250 250 250 250 250 250 250 20 20 20 250 250 250 250 250 250 250 250 250 250 250 250 250 250 250 250 250 250 250 250 250 20 20 20 250 250 250 250 250 250 250 250 250 250 250 250 250 250 250 250 250 250 250 250 250 20 20 20 250 250 250 250 250 250 250 250 250 250 250 250 250 250 250 250 250 250 250 250 250 
20 20 20 250 250 250 250 250 250 250 250 250 250 250 250 250 250 250 250 250 250 250 250 250 20 20 20 250 250 250 250 250 250 250 250 250 250 250 250 250 250 250 250 250 250 250 250 250 20 20 20 250 250 250 250 250 250 250 250 250 250 250 250 250 250 250 250 250 250 250 250 250 20 20 20 250 250 250 250 250 250 250 250 250 250 250 250 250 250 250 250 250 250 250 250 250 20 20 20 250 250 250 250 250 250 250 250 250 250 250 250 250 250 250 250 250 250 250 250 250 20 20 20 250 250 250 250 250 250 250 250 250 250 250 250 250 250 250 250 250 250 250 250 250 20 20 20 250 250 250 250 250 250 250 250 250 250 250 250 250 250 250 250 250 250 250 250 250 20 20 20 250 250 250 250 250 250 250 250 250 250 250 250 250 250 250 250 250 250 250 250 250 20 20 20 250 250 250 250 250 250 250 250 250 250 250 250 250 250 250 250 250 250 250 250 250 20 20 20 250 250 250 250 250 250 250 250 250 250 250 250 250 250 250 250 250 250 250 250 250 20 20 20 250 250 250 250 250 250 250 250 250 250 250 250 250 250 250 250 250 250 250 250 250 20 20 20 250 250 250 250 250 250 250 250 250 250 250 250 250 250 250 250 250 250 250 250 250 20 20 20 250 250 250 250 250 250 250 250 250 250 250 250 250 250 250 250 250 250 250 250 250 20 20 20 250 250 250 250 250 250 250 250 250 250 250 250 250 250 250 250 250 250 250 250 250 20 20 20 250 250 250 250 250 250 250 250 250 250 250 250 250 250 250 250 250 250 250 250 250 20 20 20 250 250 250 250 250 250 250 250 250 250 250 250 250 250 250 250 250 250 250 250 250 20 20 20 250 250 250 250 250 250 250 250 250 250 250 250 250 250 250 250 250 250 250 250 250 20 20 20 250 250 250 250 250 250 250 250 250 250 250 250 250 250 250 250 250 250 250 250 250 20 20 20 250 250 250 250 250 250 250 250 250 250 250 250 250 250 250 250 250 250 250 250 250 20 20 20 250 250 250 250 250 250 250 250 250 250 250 250 250 250 250 250 250 250 250 250 250 
20 20 20 250 250 250 250 250 250 250 250 250 250 250 250 250 250 250 250 250 250 250 250 250 20 20 20 250 250 250 250 250 250 250 250 250 250 250 250 250 250 250 250 250 250 250 250 250 20 20 20 250 250 250 250 250 250 250 250 250 250 250 250 250 250 250 250 250 250 250 250 250 20 20 20 250 250 250 250 250 250 250 250 250 250 250 250 250 250 250 250 250 250 250 250 250 20 20 20 250 250 250 250 250 250 250 250 250 250 250 250 250 250 250 250 250 250 250 250 250 20 20 20 250 250 250 250 250 250 250 250 250 250 250 250 250 250 250 250 250 250 250 250 250 20 20 20 250 250 250 250 250 250 250 250 250 250 250 250 250 250 250 250 250 250 250 250 250 20 20 20 250 250 250 250 250 250 250 250 250 250 250 250 250 250 250 250 250 250 250 250 250 20 20 20 250 250 250 250 250 250 250 250 250 250 250 250 250 250 250 250 250 250 250 250 250 20 20 20 250 250 250 250 250 250 250 250 250 250 250 250 250 250 250 250 250 250 250 250 250 20 20 20 250 250 250 250 250 250 250 250 250 250 250 250 250 250 250 250 250 250 250 250 250 20 20 20 250 250 250 250 250 250 250 250 250 250 250 250 250 250 250 250 250 250 250 250 250 20 20 20 250 250 250 250 250 250 250 250 250 250 250 250 250 250 250 250 250 250 250 250 250 20 20 20 250 250 250 250 250 250 250 250 250 250 250 250 250 250 250 250 250 250 250 250 250 20 20 20 250 250 250 250 250 250 250 250 250 250 250 250 250 250 250 250 250 250 250 250 250 20 20 20 250 250 250 250 250 250 250 250 250 250 250 250 250 250 250 250 250 250 250 250 250 20 20 20 250 250 250 250 250 250 250 250 250 250 250 250 250 250 250 250 250 250 250 250 250 20 20 20 250 250 250 250 250 250 250 250 250 250 250 250 250 250 250 250 250 250 250 250 250 20 20 20 250 250 250 250 250 250 250 250 250 250 250 250 250 250 250 250 250 250 250 250 250 20 20 20 250 250 250 250 250 250 250 250 250 250 250 250 250 250 250 250 250 250 250 250 250 
20 20 20 250 250 250 250 250 250 250 250 250 250 250 250 250 250 250 250 250 250 250 250 250 20 20 20 250 250 250 250 250 250 250 250 250 250 250 250 250 250 250 250 250 250 250 250 250 20 20 20 250 250 250 250 250 250 250 250 250 250 250 250 250 250 250 250 250 250 250 250 250 20 20 20 250 250 250 250 250 250 250 250 250 250 250 250 250 250 250 250 250 250 250 250 250 20 20 20 250 250 250 250 250 250 250 250 250 250 250 250 250 250 250 250 250 250 250 250 250 20 20 20 250 250 250 250 250 250 250 250 250 250 250 250 250 250 250 250 250 250 250 250 250 20 20 20 250 250 250 250 250 250 250 250 250 250 250 250 250 250 250 250 250 250 250 250 250 20 20 20 250 250 250 250 250 250 250 250 250 250 250 250 250 250 250 250 250 250 250 250 250 20 20 20 250 250 250 250 250 250 250 250 250 250 250 250 250 250 250 250 250 250 250 250 250 20 20 20 250 250 250 250 250 250 250 250 250 250 250 250 250 250 250 250 250 250 250 250 250 20 20 20 250 250 250 250 250 250 250 250 250 250 250 250 250 250 250 250 250 250 250 250 250 20 20 20 250 250 250 250 250 250 250 250 250 250 250 250 250 250 250 250 250 250 250 250 250 20 20 20 250 250 250 250 250 250 250 250 250 250 250 250 250 250 250 250 250 250 250 250 250 20 20 20 250 250 250 250 250 250 250 250 250 250 250 250 250 250 250 250 250 250 250 250 250 20 20 20 250 250 250 250 250 250 250 250 250 250 250 250 250 250 250 250 250 250 250 250 250 20 20 20 250 250 250 250 250 250 250 250 250 250 250 250 250 250 250 250 250 250 250 250 250 20 20 20 250 250 250 250 250 250 250 250 250 250 250 250 250 250 250 250 250 250 250 250 250 20 20 20 250 250 250 250 250 250 250 250 250 250 250 250 250 250 250 250 250 250 250 250 250 20 20 20 250 250 250 250 250 250 250 250 250 250 250 250 250 250 250 250 250 250 250 250 250 20 20 20 250 250 250 250 250 250 250 250 250 250 250 250 250 250 250 250 250 250 250 250 250 
20 20 20 250 250 250 250 250 250 250 250 250 250 250 250 250 250 250 250 250 250 250 250 250 20 20 20 250 250 250 250 250 250 250 250 250 250 250 250 250 250 250 250 250 250 250 250 250 20 20 20 250 250 250 250 250 250 250 250 250 250 250 250 250 250 250 250 250 250 250 250 250 20 20 20 250 250 250 250 250 250 250 250 250 250 250 250 250 250 250 250 250 250 250 250 250 20 20 20 250 250 250 250 250 250 250 250 250 250 250 250 250 250 250 250 250 250 250 250 250 20 20 20 250 250 250 250 250 250 250 250 250 250 250 250 250 250 250 250 250 250 250 250 250 20 20 20 250 250 250 250 250 250 250 250 250 250 250 250 250 250 250 250 250 250 250 250 250 20 20 20 250 250 250 250 250 250 250 250 250 250 250 250 250 250 250 250 250 250 250 250 250 20 20 20 250 250 250 250 250 250 250 250 250 250 250 250 250 250 250 250 250 250 250 250 250 20 20 20 250 250 250 250 250 250 250 250 250 250 250 250 250 250 250 250 250 250 250 250 250 20 20 20 250 250 250 250 250 250 250 250 250 250 250 250 250 250 250 250 250 250 250 250 250 20 20 20 250 250 250 250 250 250 250 250 250 250 250 250 250 250 250 250 250 250 250 250 250 20 20 20 250 250 250 250 250 250 250 250 250 250 250 250 250 250 250 250 250 250 250 250 250 20 20 20 250 250 250 250 250 250 250 250 250 250 250 250 250 250 250 250 250 250 250 250 250 20 20 20 250 250 250 250 250 250 250 250 250 250 250 250 250 250 250 250 250 250 250 250 250 20 20 20 250 250 250 250 250 250 250 250 250 250 250 250 250 250 250 250 250 250 250 250 250 20 20 20 250 250 250 250 250 250 250 250 250 250 250 250 250 250 250 250 250 250 250 250 250 20 20 20 250 250 250 250 250 250 250 250 250 250 250 250 250 250 250 250 250 250 250 250 250 20 20 20 250 250 250 250 250 250 250 250 250 250 250 250 250 250 250 250 250 250 250 250 250 20 20 20 250 250 250 250 250 250 250 250 250 250 250 250 250 250 250 250 250 250 250 250 250 
20 20 20 20 20 20 20 20 20 20 20 20 20 20 20 20 20 20 20 20 20 20 20 20 20 20 20 20 20 20 20 20 20 20 20 20 20 20 20 20 20 20 20 20 20 20 20 20 20 20 20 20 20 20 20 20 20 20 20 20 20 20 20 20 20 20 20 20 20 20 20 20 20 20 20 20 20 20 20 20 20 20 20 20 20 20 20 20 20 20 20 20 20 20 20 20 20 20 20 20 20 20 20 20 20 20 20 20 20 20 20 20 20 20 20 20 20 20 20 20 20 20 20 20 20 20 20 20 20 20 20 20 20 20 20 20 20 20 20 20 20 20 20 20 20 20 20 20 20 20 20 20 20 20 20 20 20 20 20 20 20 20 20 20 20 20 20 20 20 20 20 20 20 20 20 20 20 20 20 20 20 20 20 20 20 20 20 20 20 20 20 20 20 20 20 20 20 20 20 20 20 20 20 20 20 20 20 20 20 20 20 20 20 20 20 20 20 20 20 20 20 20 20 20 20 20 20 20 20 20 20 20 20 20 20 20 20 20 20 20 20 20 20 20 20 20 20 20 20 20 20 20 20 20 20 20 20 20 20 20 20 20 20 20 20 20 20 20 20 20 20 20 20 20 20 20 20 20 20 20 20 20 20 20 20 20 20 20 20 20 20 20 20 20 20 20 20 20 20 20 20 20 20 20 20 20 20 20 20 20 20 20 20 20 20 20 20 20 20 20 20 20 20 20 20 20 20 20 20 20 20 20 20 20 20 20 20 20 20 20 20 20 20 20 20 20 20 20 20 20 20 20 20 20 20 20 20 20 20 20 20 20 20 20 20 20 20 20 20 20 20 20 20 20 20 20 20 20 20 20 20 20 20 20 20 20 20 20 20 20 20 20 20 20 20 20 20 20 20 20 20 20 20 20 20 20 20 20 20 20 20 20 20 20 20 20 20 20 20 20 20 20 20 20 20 20 20 20 20 20 20 20 20 20 20 20 20 20 20 20 20 20 20 20 20 20 20 20 20 20 20 20 20 20 20 20 20 20 20 20 20 20 20 20 20 20 20 20 20 20 20 20 20 20 20 20 20 20 20 20 
20 20 20 250 250 250 250 250 250 250 250 250 250 250 250 250 250 250 250 250 250 250 250 250 20 20 20 250 250 250 250 250 250 250 250 250 250 250 250 250 250 250 250 250 250 250 250 250 20 20 20 250 250 250 250 250 250 250 250 250 250 250 250 250 250 250 250 250 250 250 250 250 20 20 20 250 250 250 250 250 250 250 250 250 250 250 250 250 250 250 250 250 250 250 250 250 20 20 20 250 250 250 250 250 250 250 250 250 250 250 250 250 250 250 250 250 250 250 250 250 20 20 20 250 250 250 250 250 250 250 250 250 250 250 250 250 250 250 250 250 250 250 250 250 20 20 20 250 250 250 250 250 250 250 250 250 250 250 250 250 250 250 250 250 250 250 250 250 20 20 20 250 250 250 250 250 250 250 250 250 250 250 250 250 250 250 250 250 250 250 250 250 20 20 20 250 250 250 250 250 250 250 250 250 250 250 250 250 250 250 250 250 250 250 250 250 20 20 20 250 250 250 250 250 250 250 250 250 250 250 250 250 250 250 250 250 250 250 250 250 20 20 20 250 250 250 250 250 250 250 250 250 250 250 250 250 250 250 250 250 250 250 250 250 20 20 20 250 250 250 250 250 250 250 250 250 250 250 250 250 250 250 250 250 250 250 250 250 20 20 20 250 250 250 250 250 250 250 250 250 250 250 250 250 250 250 250 250 250 250 250 250 20 20 20 250 250 250 250 250 250 250 250 250 250 250 250 250 250 250 250 250 250 250 250 250 20 20 20 250 250 250 250 250 250 250 250 250 250 250 250 250 250 250 250 250 250 250 250 250 20 20 20 250 250 250 250 250 250 250 250 250 250 250 250 250 250 250 250 250 250 250 250 250 20 20 20 250 250 250 250 250 250 250 250 250 250 250 250 250 250 250 250 250 250 250 250 250 20 20 20 250 250 250 250 250 250 250 250 250 250 250 250 250 250 250 250 250 250 250 250 250 20 20 20 250 250 250 250 250 250 250 250 250 250 250 250 250 250 250 250 250 250 250 250 250 20 20 20 250 250 250 250 250 250 250 250 250 250 250 250 250 250 250 250 250 250 250 250 250 
20 20 20 250 250 250 250 250 250 250 250 250 250 250 250 250 250 250 250 250 250 250 250 250 20 20 20 250 250 250 250 250 250 250 250 250 250 250 250 250 250 250 250 250 250 250 250 250 20 20 20 250 250 250 250 250 250 250 250 250 250 250 250 250 250 250 250 250 250 250 250 250 20 20 20 250 250 250 250 250 250 250 250 250 250 250 250 250 250 250 250 250 250 250 250 250 20 20 20 250 250 250 250 250 250 250 250 250 250 250 250 250 250 250 250 250 250 250 250 250 20 20 20 250 250 250 250 250 250 250 250 250 250 250 250 250 250 250 250 250 250 250 250 250 20 20 20 250 250 250 250 250 250 250 250 250 250 250 250 250 250 250 250 250 250 250 250 250 20 20 20 250 250 250 250 250 250 250 250 250 250 250 250 250 250 250 250 250 250 250 250 250 20 20 20 250 250 250 250 250 250 250 250 250 250 250 250 250 250 250 250 250 250 250 250 250 20 20 20 250 250 250 250 250 250 250 250 250 250 250 250 250 250 250 250 250 250 250 250 250 20 20 20 250 250 250 250 250 250 250 250 250 250 250 250 250 250 250 250 250 250 250 250 250 20 20 20 250 250 250 250 250 250 250 250 250 250 250 250 250 250 250 250 250 250 250 250 250 20 20 20 250 250 250 250 250 250 250 250 250 250 250 250 250 250 250 250 250 250 250 250 250 20 20 20 250 250 250 250 250 250 250 250 250 250 250 250 250 250 250 250 250 250 250 250 250 20 20 20 250 250 250 250 250 250 250 250 250 250 250 250 250 250 250 250 250 250 250 250 250 20 20 20 250 250 250 250 250 250 250 250 250 250 250 250 250 250 250 250 250 250 250 250 250 20 20 20 250 250 250 250 250 250 250 250 250 250 250 250 250 250 250 250 250 250 250 250 250 20 20 20 250 250 250 250 250 250 250 250 250 250 250 250 250 250 250 250 250 250 250 250 250 20 20 20 250 250 250 250 250 250 250 250 250 250 250 250 250 250 250 250 250 250 250 250 250 20 20 20 250 250 250 250 250 250 250 250 250 250 250 250 250 250 250 250 250 250 250 250 250 
20 20 20 250 250 250 250 250 250 250 250 250 250 250 250 250 250 250 250 250 250 250 250 250 20 20 20 250 250 250 250 250 250 250 250 250 250 250 250 250 250 250 250 250 250 250 250 250 20 20 20 250 250 250 250 250 250 250 250 250 250 250 250 250 250 250 250 250 250 250 250 250 20 20 20 250 250 250 250 250 250 250 250 250 250 250 250 250 250 250 250 250 250 250 250 250 20 20 20 250 250 250 250 250 250 250 250 250 250 250 250 250 250 250 250 250 250 250 250 250 20 20 20 250 250 250 250 250 250 250 250 250 250 250 250 250 250 250 250 250 250 250 250 250 20 20 20 250 250 250 250 250 250 250 250 250 250 250 250 250 250 250 250 250 250 250 250 250 20 20 20 250 250 250 250 250 250 250 250 250 250 250 250 250 250 250 250 250 250 250 250 250 20 20 20 250 250 250 250 250 250 250 250 250 250 250 250 250 250 250 250 250 250 250 250 250 20 20 20 250 250 250 250 250 250 250 250 250 250 250 250 250 250 250 250 250 250 250 250 250 20 20 20 250 250 250 250 250 250 250 250 250 250 250 250 250 250 250 250 250 250 250 250 250 20 20 20 250 250 250 250 250 250 250 250 250 250 250 250 250 250 250 250 250 250 250 250 250 20 20 20 250 250 250 250 250 250 250 250 250 250 250 250 250 250 250 250 250 250 250 250 250 20 20 20 250 250 250 250 250 250 250 250 250 250 250 250 250 250 250 250 250 250 250 250 250 20 20 20 250 250 250 250 250 250 250 250 250 250 250 250 250 250 250 250 250 250 250 250 250 20 20 20 250 250 250 250 250 250 250 250 250 250 250 250 250 250 250 250 250 250 250 250 250 20 20 20 250 250 250 250 250 250 250 250 250 250 250 250 250 250 250 250 250 250 250 250 250 20 20 20 250 250 250 250 250 250 250 250 250 250 250 250 250 250 250 250 250 250 250 250 250 20 20 20 250 250 250 250 250 250 250 250 250 250 250 250 250 250 250 250 250 250 250 250 250 20 20 20 250 250 250 250 250 250 250 250 250 250 250 250 250 250 250 250 250 250 250 250 250 
20 20 20 250 250 250 250 250 250 250 250 250 250 250 250 250 250 250 250 250 250 250 250 250 20 20 20 250 250 250 250 250 250 250 250 250 250 250 250 250 250 250 250 250 250 250 250 250 20 20 20 250 250 250 250 250 250 250 250 250 250 250 250 250 250 250 250 250 250 250 250 250 20 20 20 250 250 250 250 250 250 250 250 250 250 250 250 250 250 250 250 250 250 250 250 250 20 20 20 250 250 250 250 250 250 250 250 250 250 250 250 250 250 250 250 250 250 250 250 250 20 20 20 250 250 250 250 250 250 250 250 250 250 250 250 250 250 250 250 250 250 250 250 250 20 20 20 250 250 250 250 250 250 250 250 250 250 250 250 250 250 250 250 250 250 250 250 250 20 20 20 250 250 250 250 250 250 250 250 250 250 250 250 250 250 250 250 250 250 250 250 250 20 20 20 250 250 250 250 250 250 250 250 250 250 250 250 250 250 250 250 250 250 250 250 250 20 20 20 250 250 250 250 250 250 250 250 250 250 250 250 250 250 250 250 250 250 250 250 250 20 20 20 250 250 250 250 250 250 250 250 250 250 250 250 250 250 250 250 250 250 250 250 250 20 20 20 250 250 250 250 250 250 250 250 250 250 250 250 250 250 250 250 250 250 250 250 250 20 20 20 250 250 250 250 250 250 250 250 250 250 250 250 250 250 250 250 250 250 250 250 250 20 20 20 250 250 250 250 250 250 250 250 250 250 250 250 250 250 250 250 250 250 250 250 250 20 20 20 250 250 250 250 250 250 250 250 250 250 250 250 250 250 250 250 250 250 250 250 250 20 20 20 250 250 250 250 250 250 250 250 250 250 250 250 250 250 250 250 250 250 250 250 250 20 20 20 250 250 250 250 250 250 250 250 250 250 250 250 250 250 250 250 250 250 250 250 250 20 20 20 250 250 250 250 250 250 250 250 250 250 250 250 250 250 250 250 250 250 250 250 250 20 20 20 250 250 250 250 250 250 250 250 250 250 250 250 250 250 250 250 250 250 250 250 250 20 20 20 250 250 250 250 250 250 250 250 250 250 250 250 250 250 250 250 250 250 250 250 250 
20 20 20 250 250 250 250 250 250 250 250 250 250 250 250 250 250 250 250 250 250 250 250 250 20 20 20 250 250 250 250 250 250 250 250 250 250 250 250 250 250 250 250 250 250 250 250 250 20 20 20 250 250 250 250 250 250 250 250 250 250 250 250 250 250 250 250 250 250 250 250 250 20 20 20 250 250 250 250 250 250 250 250 250 250 250 250 250 250 250 250 250 250 250 250 250 20 20 20 250 250 250 250 250 250 250 250 250 250 250 250 250 250 250 250 250 250 250 250 250 20 20 20 250 250 250 250 250 250 250 250 250 250 250 250 250 250 250 250 250 250 250 250 250 20 20 20 250 250 250 250 250 250 250 250 250 250 250 250 250 250 250 250 250 250 250 250 250 20 20 20 250 250 250 250 250 250 250 250 250 250 250 250 250 250 250 250 250 250 250 250 250 20 20 20 250 250 250 250 250 250 250 250 250 250 250 250 250 250 250 250 250 250 250 250 250 20 20 20 250 250 250 250 250 250 250 250 250 250 250 250 250 250 250 250 250 250 250 250 250 20 20 20 250 250 250 250 250 250 250 250 250 250 250 250 250 250 250 250 250 250 250 250 250 20 20 20 250 250 250 250 250 250 250 250 250 250 250 250 250 250 250 250 250 250 250 250 250 20 20 20 250 250 250 250 250 250 250 250 250 250 250 250 250 250 250 250 250 250 250 250 250 20 20 20 250 250 250 250 250 250 250 250 250 250 250 250 250 250 250 250 250 250 250 250 250 20 20 20 250 250 250 250 250 250 250 250 250 250 250 250 250 250 250 250 250 250 250 250 250 20 20 20 250 250 250 250 250 250 250 250 250 250 250 250 250 250 250 250 250 250 250 250 250 20 20 20 250 250 250 250 250 250 250 250 250 250 250 250 250 250 250 250 250 250 250 250 250 20 20 20 250 250 250 250 250 250 250 250 250 250 250 250 250 250 250 250 250 250 250 250 250 20 20 20 250 250 250 250 250 250 250 250 250 250 250 250 250 250 250 250 250 250 250 250 250 20 20 20 250 250 250 250 250 250 250 250 250 250 250 250 250 250 250 250 250 250 250 250 250 
20 20 20 250 250 250 250 250 250 250 250 250 250 250 250 250 250 250 250 250 250 250 250 250 20 20 20 250 250 250 250 250 250 250 250 250 250 250 250 250 250 250 250 250 250 250 250 250 20 20 20 250 250 250 250 250 250 250 250 250 250 250 250 250 250 250 250 250 250 250 250 250 20 20 20 250 250 250 250 250 250 250 250 250 250 250 250 250 250 250 250 250 250 250 250 250 20 20 20 250 250 250 250 250 250 250 250 250 250 250 250 250 250 250 250 250 250 250 250 250 20 20 20 250 250 250 250 250 250 250 250 250 250 250 250 250 250 250 250 250 250 250 250 250 20 20 20 250 250 250 250 250 250 250 250 250 250 250 250 250 250 250 250 250 250 250 250 250 20 20 20 250 250 250 250 250 250 250 250 250 250 250 250 250 250 250 250 250 250 250 250 250 20 20 20 250 250 250 250 250 250 250 250 250 250 250 250 250 250 250 250 250 250 250 250 250 20 20 20 250 250 250 250 250 250 250 250 250 250 250 250 250 250 250 250 250 250 250 250 250 20 20 20 250 250 250 250 250 250 250 250 250 250 250 250 250 250 250 250 250 250 250 250 250 20 20 20 250 250 250 250 250 250 250 250 250 250 250 250 250 250 250 250 250 250 250 250 250 20 20 20 250 250 250 250 250 250 250 250 250 250 250 250 250 250 250 250 250 250 250 250 250 20 20 20 250 250 250 250 250 250 250 250 250 250 250 250 250 250 250 250 250 250 250 250 250 20 20 20 250 250 250 250 250 250 250 250 250 250 250 250 250 250 250 250 250 250 250 250 250 20 20 20 250 250 250 250 250 250 250 250 250 250 250 250 250 250 250 250 250 250 250 250 250 20 20 20 250 250 250 250 250 250 250 250 250 250 250 250 250 250 250 250 250 250 250 250 250 20 20 20 250 250 250 250 250 250 250 250 250 250 250 250 250 250 250 250 250 250 250 250 250 20 20 20 250 250 250 250 250 250 250 250 250 250 250 250 250 250 250 250 250 250 250 250 250 20 20 20 250 250 250 250 250 250 250 250 250 250 250 250 250 250 250 250 250 250 250 250 250 
20 20 20 250 250 250 250 250 250 250 250 250 250 250 250 250 250 250 250 250 250 250 250 250 20 20 20 250 250 250 250 250 250 250 250 250 250 250 250 250 250 250 250 250 250 250 250 250 20 20 20 250 250 250 250 250 250 250 250 250 250 250 250 250 250 250 250 250 250 250 250 250 20 20 20 250 250 250 250 250 250 250 250 250 250 250 250 250 250 250 250 250 250 250 250 250 20 20 20 250 250 250 250 250 250 250 250 250 250 250 250 250 250 250 250 250 250 250 250 250 20 20 20 250 250 250 250 250 250 250 250 250 250 250 250 250 250 250 250 250 250 250 250 250 20 20 20 250 250 250 250 250 250 250 250 250 250 250 250 250 250 250 250 250 250 250 250 250 20 20 20 250 250 250 250 250 250 250 250 250 250 250 250 250 250 250 250 250 250 250 250 250 20 20 20 250 250 250 250 250 250 250 250 250 250 250 250 250 250 250 250 250 250 250 250 250 20 20 20 250 250 250 250 250 250 250 250 250 250 250 250 250 250 250 250 250 250 250 250 250 20 20 20 250 250 250 250 250 250 250 250 250 250 250 250 250 250 250 250 250 250 250 250 250 20 20 20 250 250 250 250 250 250 250 250 250 250 250 250 250 250 250 250 250 250 250 250 250 20 20 20 250 250 250 250 250 250 250 250 250 250 250 250 250 250 250 250 250 250 250 250 250 20 20 20 250 250 250 250 250 250 250 250 250 250 250 250 250 250 250 250 250 250 250 250 250 20 20 20 250 250 250 250 250 250 250 250 250 250 250 250 250 250 250 250 250 250 250 250 250 20 20 20 250 250 250 250 250 250 250 250 250 250 250 250 250 250 250 250 250 250 250 250 250 20 20 20 250 250 250 250 250 250 250 250 250 250 250 250 250 250 250 250 250 250 250 250 250 20 20 20 250 250 250 250 250 250 250 250 250 250 250 250 250 250 250 250 250 250 250 250 250 20 20 20 250 250 250 250 250 250 250 250 250 250 250 250 250 250 250 250 250 250 250 250 250 20 20 20 250 250 250 250 250 250 250 250 250 250 250 250 250 250 250 250 250 250 250 250 250 
20 20 20 20 20 20 20 20 20 20 20 20 20 20 20 20 20 20 20 20 20 20 20 20 20 20 20 20 20 20 20 20 20 20 20 20 20 20 20 20 20 20 20 20 20 20 20 20 20 20 20 20 20 20 20 20 20 20 20 20 20 20 20 20 20 20 20 20 20 20 20 20 20 20 20 20 20 20 20 20 20 20 20 20 20 20 20 20 20 20 20 20 20 20 20 20 20 20 20 20 20 20 20 20 20 20 20 20 20 20 20 20 20 20 20 20 20 20 20 20 20 20 20 20 20 20 20 20 20 20 20 20 20 20 20 20 20 20 20 20 20 20 20 20 20 20 20 20 20 20 20 20 20 20 20 20 20 20 20 20 20 20 20 20 20 20 20 20 20 20 20 20 20 20 20 20 20 20 20 20 20 20 20 20 20 20 20 20 20 20 20 20 20 20 20 20 20 20 20 20 20 20 20 20 20 20 20 20 20 20 20 20 20 20 20 20 20 20 20 20 20 20 20 20 20 20 20 20 20 20 20 20 20 20 20 20 20 20 20 20 20 20 20 20 20 20 20 20 20 20 20 20 20 20 20 20 20 20 20 20 20 20 20 20 20 20 20 20 20 20 20 20 20 20 20 20 20 20 20 20 20 20 20 20 20 20 20 20 20 20 20 20 20 20 20 20 20 20 20 20 20 20 20 20 20 20 20 20 20 20 20 20 20 20 20 20 20 20 20 20 20 20 20 20 20 20 20 20 20 20 20 20 20 20 20 20 20 20 20 20 20 20 20 20 20 20 20 20 20 20 20 20 20 20 20 20 20 20 20 20 20 20 20 20 20 20 20 20 20 20 20 20 20 20 20 20 20 20 20 20 20 20 20 20 20 20 20 20 20 20 20 20 20 20 20 20 20 20 20 20 20 20 20 20 20 20 20 20 20 20 20 20 20 20 20 20 20 20 20 20 20 20 20 20 20 20 20 20 20 20 20 20 20 20 20 20 20 20 20 20 20 20 20 20 20 20 20 20 20 20 20 20 20 20 20 20 20 20 20 20 20 20 20 20 20 20 20 20 20 20 20 20 20 20 20 20 20 20 20 20 
20 20 20 250 250 250 250 250 250 250 250 250 250 250 250 250 250 250 250 250 250 250 250 250 20 20 20 250 250 250 250 250 250 250 250 250 250 250 250 250 250 250 250 250 250 250 250 250 20 20 20 250 250 250 250 250 250 250 250 250 250 250 250 250 250 250 250 250 250 250 250 250 20 20 20 250 250 250 250 250 250 250 250 250 250 250 250 250 250 250 250 250 250 250 250 250 20 20 20 250 250 250 250 250 250 250 250 250 250 250 250 250 250 250 250 250 250 250 250 250 20 20 20 250 250 250 250 250 250 250 250 250 250 250 250 250 250 250 250 250 250 250 250 250 20 20 20 250 250 250 250 250 250 250 250 250 250 250 250 250 250 250 250 250 250 250 250 250 20 20 20 250 250 250 250 250 250 250 250 250 250 250 250 250 250 250 250 250 250 250 250 250 20 20 20 250 250 250 250 250 250 250 250 250 250 250 250 250 250 250 250 250 250 250 250 250 20 20 20 250 250 250 250 250 250 250 250 250 250 250 250 250 250 250 250 250 250 250 250 250 20 20 20 250 250 250 250 250 250 250 250 250 250 250 250 250 250 250 250 250 250 250 250 250 20 20 20 250 250 250 250 250 250 250 250 250 250 250 250 250 250 250 250 250 250 250 250 250 20 20 20 250 250 250 250 250 250 250 250 250 250 250 250 250 250 250 250 250 250 250 250 250 20 20 20 250 250 250 250 250 250 250 250 250 250 250 250 250 250 250 250 250 250 250 250 250 20 20 20 250 250 250 250 250 250 250 250 250 250 250 250 250 250 250 250 250 250 250 250 250 20 20 20 250 250 250 250 250 250 250 250 250 250 250 250 250 250 250 250 250 250 250 250 250 20 20 20 250 250 250 250 250 250 250 250 250 250 250 250 250 250 250 250 250 250 250 250 250 20 20 20 250 250 250 250 250 250 250 250 250 250 250 250 250 250 250 250 250 250 250 250 250 20 20 20 250 250 250 250 250 250 250 250 250 250 250 250 250 250 250 250 250 250 250 250 250 20 20 20 250 250 250 250 250 250 250 250 250 250 250 250 250 250 250 250 250 250 250 250 250 
20 20 20 250 250 250 250 250 250 250 250 250 250 250 250 250 250 250 250 250 250 250 250 250 20 20 20 250 250 250 250 250 250 250 250 250 250 250 250 250 250 250 250 250 250 250 250 250 20 20 20 250 250 250 250 250 250 250 250 250 250 250 250 250 250 250 250 250 250 250 250 250 20 20 20 250 250 250 250 250 250 250 250 250 250 250 250 250 250 250 250 250 250 250 250 250 20 20 20 250 250 250 250 250 250 250 250 250 250 250 250 250 250 250 250 250 250 250 250 250 20 20 20 250 250 250 250 250 250 250 250 250 250 250 250 250 250 250 250 250 250 250 250 250 20 20 20 250 250 250 250 250 250 250 250 250 250 250 250 250 250 250 250 250 250 250 250 250 20 20 20 250 250 250 250 250 250 250 250 250 250 250 250 250 250 250 250 250 250 250 250 250 20 20 20 250 250 250 250 250 250 250 250 250 250 250 250 250 250 250 250 250 250 250 250 250 20 20 20 250 250 250 250 250 250 250 250 250 250 250 250 250 250 250 250 250 250 250 250 250 20 20 20 250 250 250 250 250 250 250 250 250 250 250 250 250 250 250 250 250 250 250 250 250 20 20 20 250 250 250 250 250 250 250 250 250 250 250 250 250 250 250 250 250 250 250 250 250 20 20 20 250 250 250 250 250 250 250 250 250 250 250 250 250 250 250 250 250 250 250 250 250 20 20 20 250 250 250 250 250 250 250 250 250 250 250 250 250 250 250 250 250 250 250 250 250 20 20 20 250 250 250 250 250 250 250 250 250 250 250 250 250 250 250 250 250 250 250 250 250 20 20 20 250 250 250 250 250 250 250 250 250 250 250 250 250 250 250 250 250 250 250 250 250 20 20 20 250 250 250 250 250 250 250 250 250 250 250 250 250 250 250 250 250 250 250 250 250 20 20 20 250 250 250 250 250 250 250 250 250 250 250 250 250 250 250 250 250 250 250 250 250 20 20 20 250 250 250 250 250 250 250 250 250 250 250 250 250 250 250 250 250 250 250 250 250 20 20 20 250 250 250 250 250 250 250 250 250 250 250 250 250 250 250 250 250 250 250 250 250 
20 20 20 250 250 250 250 250 250 250 250 250 250 250 250 250 250 250 250 250 250 250 250 250 20 20 20 250 250 250 250 250 250 250 250 250 250 250 250 250 250 250 250 250 250 250 250 250 20 20 20 250 250 250 250 250 250 250 250 250 250 250 250 250 250 250 250 250 250 250 250 250 20 20 20 250 250 250 250 250 250 250 250 250 250 250 250 250 250 250 250 250 250 250 250 250 20 20 20 250 250 250 250 250 250 250 250 250 250 250 250 250 250 250 250 250 250 250 250 250 20 20 20 250 250 250 250 250 250 250 250 250 250 250 250 250 250 250 250 250 250 250 250 250 20 20 20 250 250 250 250 250 250 250 250 250 250 250 250 250 250 250 250 250 250 250 250 250 20 20 20 250 250 250 250 250 250 250 250 250 250 250 250 250 250 250 250 250 250 250 250 250 20 20 20 250 250 250 250 250 250 250 250 250 250 250 250 250 250 250 250 250 250 250 250 250 20 20 20 250 250 250 250 250 250 250 250 250 250 250 250 250 250 250 250 250 250 250 250 250 20 20 20 250 250 250 250 250 250 250 250 250 250 250 250 250 250 250 250 250 250 250 250 250 20 20 20 250 250 250 250 250 250 250 250 250 250 250 250 250 250 250 250 250 250 250 250 250 20 20 20 250 250 250 250 250 250 250 250 250 250 250 250 250 250 250 250 250 250 250 250 250 20 20 20 250 250 250 250 250 250 250 250 250 250 250 250 250 250 250 250 250 250 250 250 250 20 20 20 250 250 250 250 250 250 250 250 250 250 250 250 250 250 250 250 250 250 250 250 250 20 20 20 250 250 250 250 250 250 250 250 250 250 250 250 250 250 250 250 250 250 250 250 250 20 20 20 250 250 250 250 250 250 250 250 250 250 250 250 250 250 250 250 250 250 250 250 250 20 20 20 250 250 250 250 250 250 250 250 250 250 250 250 250 250 250 250 250 250 250 250 250 20 20 20 250 250 250 250 250 250 250 250 250 250 250 250 250 250 250 250 250 250 250 250 250 20 20 20 250 250 250 250 250 250 250 250 250 250 250 250 250 250 250 250 250 250 250 250 250 
20 20 20 250 250 250 250 250 250 250 250 250 250 250 250 250 250 250 250 250 250 250 250 250 20 20 20 250 250 250 250 250 250 250 250 250 250 250 250 250 250 250 250 250 250 250 250 250 20 20 20 250 250 250 250 250 250 250 250 250 250 250 250 250 250 250 250 250 250 250 250 250 20 20 20 250 250 250 250 250 250 250 250 250 250 250 250 250 250 250 250 250 250 250 250 250 20 20 20 250 250 250 250 250 250 250 250 250 250 250 250 250 250 250 250 250 250 250 250 250 20 20 20 250 250 250 250 250 250 250 250 250 250 250 250 250 250 250 250 250 250 250 250 250 20 20 20 250 250 250 250 250 250 250 250 250 250 250 250 250 250 250 250 250 250 250 250 250 20 20 20 250 250 250 250 250 250 250 250 250 250 250 250 250 250 250 250 250 250 250 250 250 20 20 20 250 250 250 250 250 250 250 250 250 250 250 250 250 250 250 250 250 250 250 250 250 20 20 20 250 250 250 250 250 250 250 250 250 250 250 250 250 250 250 250 250 250 250 250 250 20 20 20 250 250 250 250 250 250 250 250 250 250 250 250 250 250 250 250 250 250 250 250 250 20 20 20 250 250 250 250 250 250 250 250 250 250 250 250 250 250 250 250 250 250 250 250 250 20 20 20 250 250 250 250 250 250 250 250 250 250 250 250 250 250 250 250 250 250 250 250 250 20 20 20 250 250 250 250 250 250 250 250 250 250 250 250 250 250 250 250 250 250 250 250 250 20 20 20 250 250 250 250 250 250 250 250 250 250 250 250 250 250 250 250 250 250 250 250 250 20 20 20 250 250 250 250 250 250 250 250 250 250 250 250 250 250 250 250 250 250 250 250 250 20 20 20 250 250 250 250 250 250 250 250 250 250 250 250 250 250 250 250 250 250 250 250 250 20 20 20 250 250 250 250 250 250 250 250 250 250 250 250 250 250 250 250 250 250 250 250 250 20 20 20 250 250 250 250 250 250 250 250 250 250 250 250 250 250 250 250 250 250 250 250 250 20 20 20 250 250 250 250 250 250 250 250 250 250 250 250 250 250 250 250 250 250 250 250 250 
20 20 20 250 250 250 250 250 250 250 250 250 250 250 250 250 250 250 250 250 250 250 250 250 20 20 20 250 250 250 250 250 250 250 250 250 250 250 250 250 250 250 250 250 250 250 250 250 20 20 20 250 250 250 250 250 250 250 250 250 250 250 250 250 250 250 250 250 250 250 250 250 20 20 20 250 250 250 250 250 250 250 250 250 250 250 250 250 250 250 250 250 250 250 250 250 20 20 20 250 250 250 250 250 250 250 250 250 250 250 250 250 250 250 250 250 250 250 250 250 20 20 20 250 250 250 250 250 250 250 250 250 250 250 250 250 250 250 250 250 250 250 250 250 20 20 20 250 250 250 250 250 250 250 250 250 250 250 250 250 250 250 250 250 250 250 250 250 20 20 20 250 250 250 250 250 250 250 250 250 250 250 250 250 250 250 250 250 250 250 250 250 20 20 20 250 250 250 250 250 250 250 250 250 250 250 250 250 250 250 250 250 250 250 250 250 20 20 20 250 250 250 250 250 250 250 250 250 250 250 250 250 250 250 250 250 250 250 250 250 20 20 20 250 250 250 250 250 250 250 250 250 250 250 250 250 250 250 250 250 250 250 250 250 20 20 20 250 250 250 250 250 250 250 250 250 250 250 250 250 250 250 250 250 250 250 250 250 20 20 20 250 250 250 250 250 250 250 250 250 250 250 250 250 250 250 250 250 250 250 250 250 20 20 20 250 250 250 250 250 250 250 250 250 250 250 250 250 250 250 250 250 250 250 250 250 20 20 20 250 250 250 250 250 250 250 250 250 250 250 250 250 250 250 250 250 250 250 250 250 20 20 20 250 250 250 250 250 250 250 250 250 250 250 250 250 250 250 250 250 250 250 250 250 20 20 20 250 250 250 250 250 250 250 250 250 250 250 250 250 250 250 250 250 250 250 250 250 20 20 20 250 250 250 250 250 250 250 250 250 250 250 250 250 250 250 250 250 250 250 250 250 20 20 20 250 250 250 250 250 250 250 250 250 250 250 250 250 250 250 250 250 250 250 250 250 20 20 20 250 250 250 250 250 250 250 250 250 250 250 250 250 250 250 250 250 250 250 250 250 
20 20 20 250 250 250 250 250 250 250 250 250 250 250 250 250 250 250 250 250 250 250 250 250 20 20 20 250 250 250 250 250 250 250 250 250 250 250 250 250 250 250 250 250 250 250 250 250 20 20 20 250 250 250 250 250 250 250 250 250 250 250 250 250 250 250 250 250 250 250 250 250 20 20 20 250 250 250 250 250 250 250 250 250 250 250 250 250 250 250 250 250 250 250 250 250 20 20 20 250 250 250 250 250 250 250 250 250 250 250 250 250 250 250 250 250 250 250 250 250 20 20 20 250 250 250 250 250 250 250 250 250 250 250 250 250 250 250 250 250 250 250 250 250 20 20 20 250 250 250 250 250 250 250 250 250 250 250 250 250 250 250 250 250 250 250 250 250 20 20 20 250 250 250 250 250 250 250 250 250 250 250 250 250 250 250 250 250 250 250 250 250 20 20 20 250 250 250 250 250 250 250 250 250 250 250 250 250 250 250 250 250 250 250 250 250 20 20 20 250 250 250 250 250 250 250 250 250 250 250 250 250 250 250 250 250 250 250 250 250 20 20 20 250 250 250 250 250 250 250 250 250 250 250 250 250 250 250 250 250 250 250 250 250 20 20 20 250 250 250 250 250 250 250 250 250 250 250 250 250 250 250 250 250 250 250 250 250 20 20 20 250 250 250 250 250 250 250 250 250 250 250 250 250 250 250 250 250 250 250 250 250 20 20 20 250 250 250 250 250 250 250 250 250 250 250 250 250 250 250 250 250 250 250 250 250 20 20 20 250 250 250 250 250 250 250 250 250 250 250 250 250 250 250 250 250 250 250 250 250 20 20 20 250 250 250 250 250 250 250 250 250 250 250 250 250 250 250 250 250 250 250 250 250 20 20 20 250 250 250 250 250 250 250 250 250 250 250 250 250 250 250 250 250 250 250 250 250 20 20 20 250 250 250 250 250 250 250 250 250 250 250 250 250 250 250 250 250 250 250 250 250 20 20 20 250 250 250 250 250 250 250 250 250 250 250 250 250 250 250 250 250 250 250 250 250 20 20 20 250 250 250 250 250 250 250 250 250 250 250 250 250 250 250 250 250 250 250 250 250 
20 20 20 250 250 250 250 250 250 250 250 250 250 250 250 250 250 250 250 250 250 250 250 250 20 20 20 250 250 250 250 250 250 250 250 250 250 250 250 250 250 250 250 250 250 250 250 250 20 20 20 250 250 250 250 250 250 250 250 250 250 250 250 250 250 250 250 250 250 250 250 250 20 20 20 250 250 250 250 250 250 250 250 250 250 250 250 250 250 250 250 250 250 250 250 250 20 20 20 250 250 250 250 250 250 250 250 250 250 250 250 250 250 250 250 250 250 250 250 250 20 20 20 250 250 250 250 250 250 250 250 250 250 250 250 250 250 250 250 250 250 250 250 250 20 20 20 250 250 250 250 250 250 250 250 250 250 250 250 250 250 250 250 250 250 250 250 250 20 20 20 250 250 250 250 250 250 250 250 250 250 250 250 250 250 250 250 250 250 250 250 250 20 20 20 250 250 250 250 250 250 250 250 250 250 250 250 250 250 250 250 250 250 250 250 250 20 20 20 250 250 250 250 250 250 250 250 250 250 250 250 250 250 250 250 250 250 250 250 250 20 20 20 250 250 250 250 250 250 250 250 250 250 250 250 250 250 250 250 250 250 250 250 250 20 20 20 250 250 250 250 250 250 250 250 250 250 250 250 250 250 250 250 250 250 250 250 250 20 20 20 250 250 250 250 250 250 250 250 250 250 250 250 250 250 250 250 250 250 250 250 250 20 20 20 250 250 250 250 250 250 250 250 250 250 250 250 250 250 250 250 250 250 250 250 250 20 20 20 250 250 250 250 250 250 250 250 250 250 250 250 250 250 250 250 250 250 250 250 250 20 20 20 250 250 250 250 250 250 250 250 250 250 250 250 250 250 250 250 250 250 250 250 250 20 20 20 250 250 250 250 250 250 250 250 250 250 250 250 250 250 250 250 250 250 250 250 250 20 20 20 250 250 250 250 250 250 250 250 250 250 250 250 250 250 250 250 250 250 250 250 250 20 20 20 250 250 250 250 250 250 250 250 250 250 250 250 250 250 250 250 250 250 250 250 250 20 20 20 250 250 250 250 250 250 250 250 250 250 250 250 250 250 250 250 250 250 250 250 250 
20 20 20 20 20 20 20 20 20 20 20 20 20 20 20 20 20 20 20 20 20 20 20 20 20 20 20 20 20 20 20 20 20 20 20 20 20 20 20 20 20 20 20 20 20 20 20 20 20 20 20 20 20 20 20 20 20 20 20 20 20 20 20 20 20 20 20 20 20 20 20 20 20 20 20 20 20 20 20 20 20 20 20 20 20 20 20 20 20 20 20 20 20 20 20 20 20 20 20 20 20 20 20 20 20 20 20 20 20 20 20 20 20 20 20 20 20 20 20 20 20 20 20 20 20 20 20 20 20 20 20 20 20 20 20 20 20 20 20 20 20 20 20 20 20 20 20 20 20 20 20 20 20 20 20 20 20 20 20 20 20 20 20 20 20 20 20 20 20 20 20 20 20 20 20 20 20 20 20 20 20 20 20 20 20 20 20 20 20 20 20 20 20 20 20 20 20 20 20 20 20 20 20 20 20 20 20 20 20 20 20 20 20 20 20 20 20 20 20 20 20 20 20 20 20 20 20 20 20 20 20 20 20 20 20 20 20 20 20 20 20 20 20 20 20 20 20 20 20 20 20 20 20 20 20 20 20 20 20 20 20 20 20 20 20 20 20 20 20 20 20 20 20 20 20 20 20 20 20 20 20 20 20 20 20 20 20 20 20 20 20 20 20 20 20 20 20 20 20 20 20 20 20 20 20 20 20 20 20 20 20 20 20 20 20 20 20 20 20 20 20 20 20 20 20 20 20 20 20 20 20 20 20 20 20 20 20 20 20 20 20 20 20 20 20 20 20 20 20 20 20 20 20 20 20 20 20 20 20 20 20 20 20 20 20 20 20 20 20 20 20 20 20 20 20 20 20 20 20 20 20 20 20 20 20 20 20 20 20 20 20 20 20 20 20 20 20 20 20 20 20 20 20 20 20 20 20 20 20 20 20 20 20 20 20 20 20 20 20 20 20 20 20 20 20 20 20 20 20 20 20 20 20 20 20 20 20 20 20 20 20 20 20 20 20 20 20 20 20 20 20 20 20 20 20 20 20 20 20 20 20 20 20 20 20 20 20 20 20 20 20 20 20 20 20 20 20 20 20 20 
20 20 20 250 250 250 250 250 250 250 250 250 250 250 250 250 250 250 250 250 250 250 250 250 20 20 20 250 250 250 250 250 250 250 250 250 250 250 250 250 250 250 250 250 250 250 250 250 20 20 20 250 250 250 250 250 250 250 250 250 250 250 250 250 250 250 250 250 250 250 250 250 20 20 20 250 250 250 250 250 250 250 250 250 250 250 250 250 250 250 250 250 250 250 250 250 20 20 20 250 250 250 250 250 250 250 250 250 250 250 250 250 250 250 250 250 250 250 250 250 20 20 20 250 250 250 250 250 250 250 250 250 250 250 250 250 250 250 250 250 250 250 250 250 20 20 20 250 250 250 250 250 250 250 250 250 250 250 250 250 250 250 250 250 250 250 250 250 20 20 20 250 250 250 250 250 250 250 250 250 250 250 250 250 250 250 250 250 250 250 250 250 20 20 20 250 250 250 250 250 250 250 250 250 250 250 250 250 250 250 250 250 250 250 250 250 20 20 20 250 250 250 250 250 250 250 250 250 250 250 250 250 250 250 250 250 250 250 250 250 20 20 20 250 250 250 250 250 250 250 250 250 250 250 250 250 250 250 250 250 250 250 250 250 20 20 20 250 250 250 250 250 250 250 250 250 250 250 250 250 250 250 250 250 250 250 250 250 20 20 20 250 250 250 250 250 250 250 250 250 250 250 250 250 250 250 250 250 250 250 250 250 20 20 20 250 250 250 250 250 250 250 250 250 250 250 250 250 250 250 250 250 250 250 250 250 20 20 20 250 250 250 250 250 250 250 250 250 250 250 250 250 250 250 250 250 250 250 250 250 20 20 20 250 250 250 250 250 250 250 250 250 250 250 250 250 250 250 250 250 250 250 250 250 20 20 20 250 250 250 250 250 250 250 250 250 250 250 250 250 250 250 250 250 250 250 250 250 20 20 20 250 250 250 250 250 250 250 250 250 250 250 250 250 250 250 250 250 250 250 250 250 20 20 20 250 250 250 250 250 250 250 250 250 250 250 250 250 250 250 250 250 250 250 250 250 20 20 20 250 250 250 250 250 250 250 250 250 250 250 250 250 250 250 250 250 250 250 250 250 
20 20 20 250 250 250 250 250 250 250 250 250 250 250 250 250 250 250 250 250 250 250 250 250 20 20 20 250 250 250 250 250 250 250 250 250 250 250 250 250 250 250 250 250 250 250 250 250 20 20 20 250 250 250 250 250 250 250 250 250 250 250 250 250 250 250 250 250 250 250 250 250 20 20 20 250 250 250 250 250 250 250 250 250 250 250 250 250 250 250 250 250 250 250 250 250 20 20 20 250 250 250 250 250 250 250 250 250 250 250 250 250 250 250 250 250 250 250 250 250 20 20 20 250 250 250 250 250 250 250 250 250 250 250 250 250 250 250 250 250 250 250 250 250 20 20 20 250 250 250 250 250 250 250 250 250 250 250 250 250 250 250 250 250 250 250 250 250 20 20 20 250 250 250 250 250 250 250 250 250 250 250 250 250 250 250 250 250 250 250 250 250 20 20 20 250 250 250 250 250 250 250 250 250 250 250 250 250 250 250 250 250 250 250 250 250 20 20 20 250 250 250 250 250 250 250 250 250 250 250 250 250 250 250 250 250 250 250 250 250 20 20 20 250 250 250 250 250 250 250 250 250 250 250 250 250 250 250 250 250 250 250 250 250 20 20 20 250 250 250 250 250 250 250 250 250 250 250 250 250 250 250 250 250 250 250 250 250 20 20 20 250 250 250 250 250 250 250 250 250 250 250 250 250 250 250 250 250 250 250 250 250 20 20 20 250 250 250 250 250 250 250 250 250 250 250 250 250 250 250 250 250 250 250 250 250 20 20 20 250 250 250 250 250 250 250 250 250 250 250 250 250 250 250 250 250 250 250 250 250 20 20 20 250 250 250 250 250 250 250 250 250 250 250 250 250 250 250 250 250 250 250 250 250 20 20 20 250 250 250 250 250 250 250 250 250 250 250 250 250 250 250 250 250 250 250 250 250 20 20 20 250 250 250 250 250 250 250 250 250 250 250 250 250 250 250 250 250 250 250 250 250 20 20 20 250 250 250 250 250 250 250 250 250 250 250 250 250 250 250 250 250 250 250 250 250 20 20 20 250 250 250 250 250 250 250 250 250 250 250 250 250 250 250 250 250 250 250 250 250 
20 20 20 250 250 250 250 250 250 250 250 250 250 250 250 250 250 250 250 250 250 250 250 250 20 20 20 250 250 250 250 250 250 250 250 250 250 250 250 250 250 250 250 250 250 250 250 250 20 20 20 250 250 250 250 250 250 250 250 250 250 250 250 250 250 250 250 250 250 250 250 250 20 20 20 250 250 250 250 250 250 250 250 250 250 250 250 250 250 250 250 250 250 250 250 250 20 20 20 250 250 250 250 250 250 250 250 250 250 250 250 250 250 250 250 250 250 250 250 250 20 20 20 250 250 250 250 250 250 250 250 250 250 250 250 250 250 250 250 250 250 250 250 250 20 20 20 250 250 250 250 250 250 250 250 250 250 250 250 250 250 250 250 250 250 250 250 250 20 20 20 250 250 250 250 250 250 250 250 250 250 250 250 250 250 250 250 250 250 250 250 250 20 20 20 250 250 250 250 250 250 250 250 250 250 250 250 250 250 250 250 250 250 250 250 250 20 20 20 250 250 250 250 250 250 250 250 250 250 250 250 250 250 250 250 250 250 250 250 250 20 20 20 250 250 250 250 250 250 250 250 250 250 250 250 250 250 250 250 250 250 250 250 250 20 20 20 250 250 250 250 250 250 250 250 250 250 250 250 250 250 250 250 250 250 250 250 250 20 20 20 250 250 250 250 250 250 250 250 250 250 250 250 250 250 250 250 250 250 250 250 250 20 20 20 250 250 250 250 250 250 250 250 250 250 250 250 250 250 250 250 250 250 250 250 250 20 20 20 250 250 250 250 250 250 250 250 250 250 250 250 250 250 250 250 250 250 250 250 250 20 20 20 250 250 250 250 250 250 250 250 250 250 250 250 250 250 250 250 250 250 250 250 250 20 20 20 250 250 250 250 250 250 250 250 250 250 250 250 250 250 250 250 250 250 250 250 250 20 20 20 250 250 250 250 250 250 250 250 250 250 250 250 250 250 250 250 250 250 250 250 250 20 20 20 250 250 250 250 250 250 250 250 250 250 250 250 250 250 250 250 250 250 250 250 250 20 20 20 250 250 250 250 250 250 250 250 250 250 250 250 250 250 250 250 250 250 250 250 250 
20 20 20 250 250 250 250 250 250 250 250 250 250 250 250 250 250 250 250 250 250 250 250 250 20 20 20 250 250 250 250 250 250 250 250 250 250 250 250 250 250 250 250 250 250 250 250 250 20 20 20 250 250 250 250 250 250 250 250 250 250 250 250 250 250 250 250 250 250 250 250 250 20 20 20 250 250 250 250 250 250 250 250 250 250 250 250 250 250 250 250 250 250 250 250 250 20 20 20 250 250 250 250 250 250 250 250 250 250 250 250 250 250 250 250 250 250 250 250 250 20 20 20 250 250 250 250 250 250 250 250 250 250 250 250 250 250 250 250 250 250 250 250 250 20 20 20 250 250 250 250 250 250 250 250 250 250 250 250 250 250 250 250 250 250 250 250 250 20 20 20 250 250 250 250 250 250 250 250 250 250 250 250 250 250 250 250 250 250 250 250 250 20 20 20 250 250 250 250 250 250 250 250 250 250 250 250 250 250 250 250 250 250 250 250 250 20 20 20 250 250 250 250 250 250 250 250 250 250 250 250 250 250 250 250 250 250 250 250 250 20 20 20 250 250 250 250 250 250 250 250 250 250 250 250 250 250 250 250 250 250 250 250 250 20 20 20 250 250 250 250 250 250 250 250 250 250 250 250 250 250 250 250 250 250 250 250 250 20 20 20 250 250 250 250 250 250 250 250 250 250 250 250 250 250 250 250 250 250 250 250 250 20 20 20 250 250 250 250 250 250 250 250 250 250 250 250 250 250 250 250 250 250 250 250 250 20 20 20 250 250 250 250 250 250 250 250 250 250 250 250 250 250 250 250 250 250 250 250 250 20 20 20 250 250 250 250 250 250 250 250 250 250 250 250 250 250 250 250 250 250 250 250 250 20 20 20 250 250 250 250 250 250 250 250 250 250 250 250 250 250 250 250 250 250 250 250 250 20 20 20 250 250 250 250 250 250 250 250 250 250 250 250 250 250 250 250 250 250 250 250 250 20 20 20 250 250 250 250 250 250 250 250 250 250 250 250 250 250 250 250 250 250 250 250 250 20 20 20 250 250 250 250 250 250 250 250 250 250 250 250 250 250 250 250 250 250 250 250 250 
20 20 20 250 250 250 250 250 250 250 250 250 250 250 250 250 250 250 250 250 250 250 250 250 20 20 20 250 250 250 250 250 250 250 250 250 250 250 250 250 250 250 250 250 250 250 250 250 20 20 20 250 250 250 250 250 250 250 250 250 250 250 250 250 250 250 250 250 250 250 250 250 20 20 20 250 250 250 250 250 250 250 250 250 250 250 250 250 250 250 250 250 250 250 250 250 20 20 20 250 250 250 250 250 250 250 250 250 250 250 250 250 250 250 250 250 250 250 250 250 20 20 20 250 250 250 250 250 250 250 250 250 250 250 250 250 250 250 250 250 250 250 250 250 20 20 20 250 250 250 250 250 250 250 250 250 250 250 250 250 250 250 250 250 250 250 250 250 20 20 20 250 250 250 250 250 250 250 250 250 250 250 250 250 250 250 250 250 250 250 250 250 20 20 20 250 250 250 250 250 250 250 250 250 250 250 250 250 250 250 250 250 250 250 250 250 20 20 20 250 250 250 250 250 250 250 250 250 250 250 250 250 250 250 250 250 250 250 250 250 20 20 20 250 250 250 250 250 250 250 250 250 250 250 250 250 250 250 250 250 250 250 250 250 20 20 20 250 250 250 250 250 250 250 250 250 250 250 250 250 250 250 250 250 250 250 250 250 20 20 20 250 250 250 250 250 250 250 250 250 250 250 250 250 250 250 250 250 250 250 250 250 20 20 20 250 250 250 250 250 250 250 250 250 250 250 250 250 250 250 250 250 250 250 250 250 20 20 20 250 250 250 250 250 250 250 250 250 250 250 250 250 250 250 250 250 250 250 250 250 20 20 20 250 250 250 250 250 250 250 250 250 250 250 250 250 250 250 250 250 250 250 250 250 20 20 20 250 250 250 250 250 250 250 250 250 250 250 250 250 250 250 250 250 250 250 250 250 20 20 20 250 250 250 250 250 250 250 250 250 250 250 250 250 250 250 250 250 250 250 250 250 20 20 20 250 250 250 250 250 250 250 250 250 250 250 250 250 250 250 250 250 250 250 250 250 20 20 20 250 250 250 250 250 250 250 250 250 250 250 250 250 250 250 250 250 250 250 250 250 
20 20 20 250 250 250 250 250 250 250 250 250 250 250 250 250 250 250 250 250 250 250 250 250 20 20 20 250 250 250 250 250 250 250 250 250 250 250 250 250 250 250 250 250 250 250 250 250 20 20 20 250 250 250 250 250 250 250 250 250 250 250 250 250 250 250 250 250 250 250 250 250 20 20 20 250 250 250 250 250 250 250 250 250 250 250 250 250 250 250 250 250 250 250 250 250 20 20 20 250 250 250 250 250 250 250 250 250 250 250 250 250 250 250 250 250 250 250 250 250 20 20 20 250 250 250 250 250 250 250 250 250 250 250 250 250 250 250 250 250 250 250 250 250 20 20 20 250 250 250 250 250 250 250 250 250 250 250 250 250 250 250 250 250 250 250 250 250 20 20 20 250 250 250 250 250 250 250 250 250 250 250 250 250 250 250 250 250 250 250 250 250 20 20 20 250 250 250 250 250 250 250 250 250 250 250 250 250 250 250 250 250 250 250 250 250 20 20 20 250 250 250 250 250 250 250 250 250 250 250 250 250 250 250 250 250 250 250 250 250 20 20 20 250 250 250 250 250 250 250 250 250 250 250 250 250 250 250 250 250 250 250 250 250 20 20 20 250 250 250 250 250 250 250 250 250 250 250 250 250 250 250 250 250 250 250 250 250 20 20 20 250 250 250 250 250 250 250 250 250 250 250 250 250 250 250 250 250 250 250 250 250 20 20 20 250 250 250 250 250 250 250 250 250 250 250 250 250 250 250 250 250 250 250 250 250 20 20 20 250 250 250 250 250 250 250 250 250 250 250 250 250 250 250 250 250 250 250 250 250 20 20 20 250 250 250 250 250 250 250 250 250 250 250 250 250 250 250 250 250 250 250 250 250 20 20 20 250 250 250 250 250 250 250 250 250 250 250 250 250 250 250 250 250 250 250 250 250 20 20 20 250 250 250 250 250 250 250 250 250 250 250 250 250 250 250 250 250 250 250 250 250 20 20 20 250 250 250 250 250 250 250 250 250 250 250 250 250 250 250 250 250 250 250 250 250 20 20 20 250 250 250 250 250 250 250 250 250 250 250 250 250 250 250 250 250 250 250 250 250 
20 20 20 250 250 250 250 250 250 250 250 250 250 250 250 250 250 250 250 250 250 250 250 250 20 20 20 250 250 250 250 250 250 250 250 250 250 250 250 250 250 250 250 250 250 250 250 250 20 20 20 250 250 250 250 250 250 250 250 250 250 250 250 250 250 250 250 250 250 250 250 250 20 20 20 250 250 250 250 250 250 250 250 250 250 250 250 250 250 250 250 250 250 250 250 250 20 20 20 250 250 250 250 250 250 250 250 250 250 250 250 250 250 250 250 250 250 250 250 250 20 20 20 250 250 250 250 250 250 250 250 250 250 250 250 250 250 250 250 250 250 250 250 250 20 20 20 250 250 250 250 250 250 250 250 250 250 250 250 250 250 250 250 250 250 250 250 250 20 20 20 250 250 250 250 250 250 250 250 250 250 250 250 250 250 250 250 250 250 250 250 250 20 20 20 250 250 250 250 250 250 250 250 250 250 250 250 250 250 250 250 250 250 250 250 250 20 20 20 250 250 250 250 250 250 250 250 250 250 250 250 250 250 250 250 250 250 250 250 250 20 20 20 250 250 250 250 250 250 250 250 250 250 250 250 250 250 250 250 250 250 250 250 250 20 20 20 250 250 250 250 250 250 250 250 250 250 250 250 250 250 250 250 250 250 250 250 250 20 20 20 250 250 250 250 250 250 250 250 250 250 250 250 250 250 250 250 250 250 250 250 250 20 20 20 250 250 250 250 250 250 250 250 250 250 250 250 250 250 250 250 250 250 250 250 250 20 20 20 250 250 250 250 250 250 250 250 250 250 250 250 250 250 250 250 250 250 250 250 250 20 20 20 250 250 250 250 250 250 250 250 250 250 250 250 250 250 250 250 250 250 250 250 250 20 20 20 250 250 250 250 250 250 250 250 250 250 250 250 250 250 250 250 250 250 250 250 250 20 20 20 250 250 250 250 250 250 250 250 250 250 250 250 250 250 250 250 250 250 250 250 250 20 20 20 250 250 250 250 250 250 250 250 250 250 250 250 250 250 250 250 250 250 250 250 250 20 20 20 250 250 250 250 250 250 250 250 250 250 250 250 250 250 250 250 250 250 250 250 250 
20 20 20 20 20 20 20 20 20 20 20 20 20 20 20 20 20 20 20 20 20 20 20 20 20 20 20 20 20 20 20 20 20 20 20 20 20 20 20 20 20 20 20 20 20 20 20 20 20 20 20 20 20 20 20 20 20 20 20 20 20 20 20 20 20 20 20 20 20 20 20 20 20 20 20 20 20 20 20 20 20 20 20 20 20 20 20 20 20 20 20 20 20 20 20 20 20 20 20 20 20 20 20 20 20 20 20 20 20 20 20 20 20 20 20 20 20 20 20 20 20 20 20 20 20 20 20 20 20 20 20 20 20 20 20 20 20 20 20 20 20 20 20 20 20 20 20 20 20 20 20 20 20 20 20 20 20 20 20 20 20 20 20 20 20 20 20 20 20 20 20 20 20 20 20 20 20 20 20 20 20 20 20 20 20 20 20 20 20 20 20 20 20 20 20 20 20 20 20 20 20 20 20 20 20 20 20 20 20 20 20 20 20 20 20 20 20 20 20 20 20 20 20 20 20 20 20 20 20 20 20 20 20 20 20 20 20 20 20 20 20 20 20 20 20 20 20 20 20 20 20 20 20 20 20 20 20 20 20 20 20 20 20 20 20 20 20 20 20 20 20 20 20 20 20 20 20 20 20 20 20 20 20 20 20 20 20 20 20 20 20 20 20 20 20 20 20 20 20 20 20 20 20 20 20 20 20 20 20 20 20 20 20 20 20 20 20 20 20 20 20 20 20 20 20 20 20 20 20 20 20 20 20 20 20 20 20 20 20 20 20 20 20 20 20 20 20 20 20 20 20 20 20 20 20 20 20 20 20 20 20 20 20 20 20 20 20 20 20 20 20 20 20 20 20 20 20 20 20 20 20 20 20 20 20 20 20 20 20 20 20 20 20 20 20 20 20 20 20 20 20 20 20 20 20 20 20 20 20 20 20 20 20 20 20 20 20 20 20 20 20 20 20 20 20 20 20 20 20 20 20 20 20 20 20 20 20 20 20 20 20 20 20 20 20 20 20 20 20 20 20 20 20 20 20 20 20 20 20 20 20 20 20 20 20 20 20 20 20 20 20 20 20 20 20 20 20 20 20 20 
20 20 20 250 250 250 250 250 250 250 250 250 250 250 250 250 250 250 250 250 250 250 250 250 20 20 20 250 250 250 250 250 250 250 250 250 250 250 250 250 250 250 250 250 250 250 250 250 20 20 20 250 250 250 250 250 250 250 250 250 250 250 250 250 250 250 250 250 250 250 250 250 20 20 20 250 250 250 250 250 250 250 250 250 250 250 250 250 250 250 250 250 250 250 250 250 20 20 20 250 250 250 250 250 250 250 250 250 250 250 250 250 250 250 250 250 250 250 250 250 20 20 20 250 250 250 250 250 250 250 250 250 250 250 250 250 250 250 250 250 250 250 250 250 20 20 20 250 250 250 250 250 250 250 250 250 250 250 250 250 250 250 250 250 250 250 250 250 20 20 20 250 250 250 250 250 250 250 250 250 250 250 250 250 250 250 250 250 250 250 250 250 20 20 20 250 250 250 250 250 250 250 250 250 250 250 250 250 250 250 250 250 250 250 250 250 20 20 20 250 250 250 250 250 250 250 250 250 250 250 250 250 250 250 250 250 250 250 250 250 20 20 20 250 250 250 250 250 250 250 250 250 250 250 250 250 250 250 250 250 250 250 250 250 20 20 20 250 250 250 250 250 250 250 250 250 250 250 250 250 250 250 250 250 250 250 250 250 20 20 20 250 250 250 250 250 250 250 250 250 250 250 250 250 250 250 250 250 250 250 250 250 20 20 20 250 250 250 250 250 250 250 250 250 250 250 250 250 250 250 250 250 250 250 250 250 20 20 20 250 250 250 250 250 250 250 250 250 250 250 250 250 250 250 250 250 250 250 250 250 20 20 20 250 250 250 250 250 250 250 250 250 250 250 250 250 250 250 250 250 250 250 250 250 20 20 20 250 250 250 250 250 250 250 250 250 250 250 250 250 250 250 250 250 250 250 250 250 20 20 20 250 250 250 250 250 250 250 250 250 250 250 250 250 250 250 250 250 250 250 250 250 20 20 20 250 250 250 250 250 250 250 250 250 250 250 250 250 250 250 250 250 250 250 250 250 20 20 20 250 250 250 250 250 250 250 250 250 250 250 250 250 250 250 250 250 250 250 250 250 
20 20 20 250 250 250 250 250 250 250 250 250 250 250 250 250 250 250 250 250 250 250 250 250 20 20 20 250 250 250 250 250 250 250 250 250 250 250 250 250 250 250 250 250 250 250 250 250 20 20 20 250 250 250 250 250 250 250 250 250 250 250 250 250 250 250 250 250 250 250 250 250 20 20 20 250 250 250 250 250 250 250 250 250 250 250 250 250 250 250 250 250 250 250 250 250 20 20 20 250 250 250 250 250 250 250 250 250 250 250 250 250 250 250 250 250 250 250 250 250 20 20 20 250 250 250 250 250 250 250 250 250 250 250 250 250 250 250 250 250 250 250 250 250 20 20 20 250 250 250 250 250 250 250 250 250 250 250 250 250 250 250 250 250 250 250 250 250 20 20 20 250 250 250 250 250 250 250 250 250 250 250 250 250 250 250 250 250 250 250 250 250 20 20 20 250 250 250 250 250 250 250 250 250 250 250 250 250 250 250 250 250 250 250 250 250 20 20 20 250 250 250 250 250 250 250 250 250 250 250 250 250 250 250 250 250 250 250 250 250 20 20 20 250 250 250 250 250 250 250 250 250 250 250 250 250 250 250 250 250 250 250 250 250 20 20 20 250 250 250 250 250 250 250 250 250 250 250 250 250 250 250 250 250 250 250 250 250 20 20 20 250 250 250 250 250 250 250 250 250 250 250 250 250 250 250 250 250 250 250 250 250 20 20 20 250 250 250 250 250 250 250 250 250 250 250 250 250 250 250 250 250 250 250 250 250 20 20 20 250 250 250 250 250 250 250 250 250 250 250 250 250 250 250 250 250 250 250 250 250 20 20 20 250 250 250 250 250 250 250 250 250 250 250 250 250 250 250 250 250 250 250 250 250 20 20 20 250 250 250 250 250 250 250 250 250 250 250 250 250 250 250 250 250 250 250 250 250 20 20 20 250 250 250 250 250 250 250 250 250 250 250 250 250 250 250 250 250 250 250 250 250 20 20 20 250 250 250 250 250 250 250 250 250 250 250 250 250 250 250 250 250 250 250 250 250 20 20 20 250 250 250 250 250 250 250 250 250 250 250 250 250 250 250 250 250 250 250 250 250 
20 20 20 250 250 250 250 250 250 250 250 250 250 250 250 250 250 250 250 250 250 250 250 250 20 20 20 250 250 250 250 250 250 250 250 250 250 250 250 250 250 250 250 250 250 250 250 250 20 20 20 250 250 250 250 250 250 250 250 250 250 250 250 250 250 250 250 250 250 250 250 250 20 20 20 250 250 250 250 250 250 250 250 250 250 250 250 250 250 250 250 250 250 250 250 250 20 20 20 250 250 250 250 250 250 250 250 250 250 250 250 250 250 250 250 250 250 250 250 250 20 20 20 250 250 250 250 250 250 250 250 250 250 250 250 250 250 250 250 250 250 250 250 250 20 20 20 250 250 250 250 250 250 250 250 250 250 250 250 250 250 250 250 250 250 250 250 250 20 20 20 250 250 250 250 250 250 250 250 250 250 250 250 250 250 250 250 250 250 250 250 250 20 20 20 250 250 250 250 250 250 250 250 250 250 250 250 250 250 250 250 250 250 250 250 250 20 20 20 250 250 250 250 250 250 250 250 250 250 250 250 250 250 250 250 250 250 250 250 250 20 20 20 250 250 250 250 250 250 250 250 250 250 250 250 250 250 250 250 250 250 250 250 250 20 20 20 250 250 250 250 250 250 250 250 250 250 250 250 250 250 250 250 250 250 250 250 250 20 20 20 250 250 250 250 250 250 250 250 250 250 250 250 250 250 250 250 250 250 250 250 250 20 20 20 250 250 250 250 250 250 250 250 250 250 250 250 250 250 250 250 250 250 250 250 250 20 20 20 250 250 250 250 250 250 250 250 250 250 250 250 250 250 250 250 250 250 250 250 250 20 20 20 250 250 250 250 250 250 250 250 250 250 250 250 250 250 250 250 250 250 250 250 250 20 20 20 250 250 250 250 250 250 250 250 250 250 250 250 250 250 250 250 250 250 250 250 250 20 20 20 250 250 250 250 250 250 250 250 250 250 250 250 250 250 250 250 250 250 250 250 250 20 20 20 250 250 250 250 250 250 250 250 250 250 250 250 250 250 250 250 250 250 250 250 250 20 20 20 250 250 250 250 250 250 250 250 250 250 250 250 250 250 250 250 250 250 250 250 250 
20 20 20 250 250 250 250 250 250 250 250 250 250 250 250 250 250 250 250 250 250 250 250 250 20 20 20 250 250 250 250 250 250 250 250 250 250 250 250 250 250 250 250 250 250 250 250 250 20 20 20 250 250 250 250 250 250 250 250 250 250 250 250 250 250 250 250 250 250 250 250 250 20 20 20 250 250 250 250 250 250 250 250 250 250 250 250 250 250 250 250 250 250 250 250 250 20 20 20 250 250 250 250 250 250 250 250 250 250 250 250 250 250 250 250 250 250 250 250 250 20 20 20 250 250 250 250 250 250 250 250 250 250 250 250 250 250 250 250 250 250 250 250 250 20 20 20 250 250 250 250 250 250 250 250 250 250 250 250 250 250 250 250 250 250 250 250 250 20 20 20 250 250 250 250 250 250 250 250 250 250 250 250 250 250 250 250 250 250 250 250 250 20 20 20 250 250 250 250 250 250 250 250 250 250 250 250 250 250 250 250 250 250 250 250 250 20 20 20 250 250 250 250 250 250 250 250 250 250 250 250 250 250 250 250 250 250 250 250 250 20 20 20 250 250 250 250 250 250 250 250 250 250 250 250 250 250 250 250 250 250 250 250 250 20 20 20 250 250 250 250 250 250 250 250 250 250 250 250 250 250 250 250 250 250 250 250 250 20 20 20 250 250 250 250 250 250 250 250 250 250 250 250 250 250 250 250 250 250 250 250 250 20 20 20 250 250 250 250 250 250 250 250 250 250 250 250 250 250 250 250 250 250 250 250 250 20 20 20 250 250 250 250 250 250 250 250 250 250 250 250 250 250 250 250 250 250 250 250 250 20 20 20 250 250 250 250 250 250 250 250 250 250 250 250 250 250 250 250 250 250 250 250 250 20 20 20 250 250 250 250 250 250 250 250 250 250 250 250 250 250 250 250 250 250 250 250 250 20 20 20 250 250 250 250 250 250 250 250 250 250 250 250 250 250 250 250 250 250 250 250 250 20 20 20 250 250 250 250 250 250 250 250 250 250 250 250 250 250 250 250 250 250 250 250 250 20 20 20 250 250 250 250 250 250 250 250 250 250 250 250 250 250 250 250 250 250 250 250 250 
20 20 20 250 250 250 250 250 250 250 250 250 250 250 250 250 250 250 250 250 250 250 250 250 20 20 20 250 250 250 250 250 250 250 250 250 250 250 250 250 250 250 250 250 250 250 250 250 20 20 20 250 250 250 250 250 250 250 250 250 250 250 250 250 250 250 250 250 250 250 250 250 20 20 20 250 250 250 250 250 250 250 250 250 250 250 250 250 250 250 250 250 250 250 250 250 20 20 20 250 250 250 250 250 250 250 250 250 250 250 250 250 250 250 250 250 250 250 250 250 20 20 20 250 250 250 250 250 250 250 250 250 250 250 250 250 250 250 250 250 250 250 250 250 20 20 20 250 250 250 250 250 250 250 250 250 250 250 250 250 250 250 250 250 250 250 250 250 20 20 20 250 250 250 250 250 250 250 250 250 250 250 250 250 250 250 250 250 250 250 250 250 20 20 20 250 250 250 250 250 250 250 250 250 250 250 250 250 250 250 250 250 250 250 250 250 20 20 20 250 250 250 250 250 250 250 250 250 250 250 250 250 250 250 250 250 250 250 250 250 20 20 20 250 250 250 250 250 250 250 250 250 250 250 250 250 250 250 250 250 250 250 250 250 20 20 20 250 250 250 250 250 250 250 250 250 250 250 250 250 250 250 250 250 250 250 250 250 20 20 20 250 250 250 250 250 250 250 250 250 250 250 250 250 250 250 250 250 250 250 250 250 20 20 20 250 250 250 250 250 250 250 250 250 250 250 250 250 250 250 250 250 250 250 250 250 20 20 20 250 250 250 250 250 250 250 250 250 250 250 250 250 250 250 250 250 250 250 250 250 20 20 20 250 250 250 250 250 250 250 250 250 250 250 250 250 250 250 250 250 250 250 250 250 20 20 20 250 250 250 250 250 250 250 250 250 250 250 250 250 250 250 250 250 250 250 250 250 20 20 20 250 250 250 250 250 250 250 250 250 250 250 250 250 250 250 250 250 250 250 250 250 20 20 20 250 250 250 250 250 250 250 250 250 250 250 250 250 250 250 250 250 250 250 250 250 20 20 20 250 250 250 250 250 250 250 250 250 250 250 250 250 250 250 250 250 250 250 250 250 
20 20 20 250 250 250 250 250 250 250 250 250 250 250 250 250 250 250 250 250 250 250 250 250 20 20 20 250 250 250 250 250 250 250 250 250 250 250 250 250 250 250 250 250 250 250 250 250 20 20 20 250 250 250 250 250 250 250 250 250 250 250 250 250 250 250 250 250 250 250 250 250 20 20 20 250 250 250 250 250 250 250 250 250 250 250 250 250 250 250 250 250 250 250 250 250 20 20 20 250 250 250 250 250 250 250 250 250 250 250 250 250 250 250 250 250 250 250 250 250 20 20 20 250 250 250 250 250 250 250 250 250 250 250 250 250 250 250 250 250 250 250 250 250 20 20 20 250 250 250 250 250 250 250 250 250 250 250 250 250 250 250 250 250 250 250 250 250 20 20 20 250 250 250 250 250 250 250 250 250 250 250 250 250 250 250 250 250 250 250 250 250 20 20 20 250 250 250 250 250 250 250 250 250 250 250 250 250 250 250 250 250 250 250 250 250 20 20 20 250 250 250 250 250 250 250 250 250 250 250 250 250 250 250 250 250 250 250 250 250 20 20 20 250 250 250 250 250 250 250 250 250 250 250 250 250 250 250 250 250 250 250 250 250 20 20 20 250 250 250 250 250 250 250 250 250 250 250 250 250 250 250 250 250 250 250 250 250 20 20 20 250 250 250 250 250 250 250 250 250 250 250 250 250 250 250 250 250 250 250 250 250 20 20 20 250 250 250 250 250 250 250 250 250 250 250 250 250 250 250 250 250 250 250 250 250 20 20 20 250 250 250 250 250 250 250 250 250 250 250 250 250 250 250 250 250 250 250 250 250 20 20 20 250 250 250 250 250 250 250 250 250 250 250 250 250 250 250 250 250 250 250 250 250 20 20 20 250 250 250 250 250 250 250 250 250 250 250 250 250 250 250 250 250 250 250 250 250 20 20 20 250 250 250 250 250 250 250 250 250 250 250 250 250 250 250 250 250 250 250 250 250 20 20 20 250 250 250 250 250 250 250 250 250 250 250 250 250 250 250 250 250 250 250 250 250 20 20 20 250 250 250 250 250 250 250 250 250 250 250 250 250 250 250 250 250 250 250 250 250 
20 20 20 250 250 250 250 250 250 250 250 250 250 250 250 250 250 250 250 250 250 250 250 250 20 20 20 250 250 250 250 250 250 250 250 250 250 250 250 250 250 250 250 250 250 250 250 250 20 20 20 250 250 250 250 250 250 250 250 250 250 250 250 250 250 250 250 250 250 250 250 250 20 20 20 250 250 250 250 250 250 250 250 250 250 250 250 250 250 250 250 250 250 250 250 250 20 20 20 250 250 250 250 250 250 250 250 250 250 250 250 250 250 250 250 250 250 250 250 250 20 20 20 250 250 250 250 250 250 250 250 250 250 250 250 250 250 250 250 250 250 250 250 250 20 20 20 250 250 250 250 250 250 250 250 250 250 250 250 250 250 250 250 250 250 250 250 250 20 20 20 250 250 250 250 250 250 250 250 250 250 250 250 250 250 250 250 250 250 250 250 250 20 20 20 250 250 250 250 250 250 250 250 250 250 250 250 250 250 250 250 250 250 250 250 250 20 20 20 250 250 250 250 250 250 250 250 250 250 250 250 250 250 250 250 250 250 250 250 250 20 20 20 250 250 250 250 250 250 250 250 250 250 250 250 250 250 250 250 250 250 250 250 250 20 20 20 250 250 250 250 250 250 250 250 250 250 250 250 250 250 250 250 250 250 250 250 250 20 20 20 250 250 250 250 250 250 250 250 250 250 250 250 250 250 250 250 250 250 250 250 250 20 20 20 250 250 250 250 250 250 250 250 250 250 250 250 250 250 250 250 250 250 250 250 250 20 20 20 250 250 250 250 250 250 250 250 250 250 250 250 250 250 250 250 250 250 250 250 250 20 20 20 250 250 250 250 250 250 250 250 250 250 250 250 250 250 250 250 250 250 250 250 250 20 20 20 250 250 250 250 250 250 250 250 250 250 250 250 250 250 250 250 250 250 250 250 250 20 20 20 250 250 250 250 250 250 250 250 250 250 250 250 250 250 250 250 250 250 250 250 250 20 20 20 250 250 250 250 250 250 250 250 250 250 250 250 250 250 250 250 250 250 250 250 250 20 20 20 250 250 250 250 250 250 250 250 250 250 250 250 250 250 250 250 250 250 250 250 250 
20 20 20 20 20 20 20 20 20 20 20 20 20 20 20 20 20 20 20 20 20 20 20 20 20 20 20 20 20 20 20 20 20 20 20 20 20 20 20 20 20 20 20 20 20 20 20 20 20 20 20 20 20 20 20 20 20 20 20 20 20 20 20 20 20 20 20 20 20 20 20 20 20 20 20 20 20 20 20 20 20 20 20 20 20 20 20 20 20 20 20 20 20 20 20 20 20 20 20 20 20 20 20 20 20 20 20 20 20 20 20 20 20 20 20 20 20 20 20 20 20 20 20 20 20 20 20 20 20 20 20 20 20 20 20 20 20 20 20 20 20 20 20 20 20 20 20 20 20 20 20 20 20 20 20 20 20 20 20 20 20 20 20 20 20 20 20 20 20 20 20 20 20 20 20 20 20 20 20 20 20 20 20 20 20 20 20 20 20 20 20 20 20 20 20 20 20 20 20 20 20 20 20 20 20 20 20 20 20 20 20 20 20 20 20 20 20 20 20 20 20 20 20 20 20 20 20 20 20 20 20 20 20 20 20 20 20 20 20 20 20 20 20 20 20 20 20 20 20 20 20 20 20 20 20 20 20 20 20 20 20 20 20 20 20 20 20 20 20 20 20 20 20 20 20 20 20 20 20 20 20 20 20 20 20 20 20 20 20 20 20 20 20 20 20 20 20 20 20 20 20 20 20 20 20 20 20 20 20 20 20 20 20 20 20 20 20 20 20 20 20 20 20 20 20 20 20 20 20 20 20 20 20 20 20 20 20 20 20 20 20 20 20 20 20 20 20 20 20 20 20 20 20 20 20 20 20 20 20 20 20 20 20 20 20 20 20 20 20 20 20 20 20 20 20 20 20 20 20 20 20 20 20 20 20 20 20 20 20 20 20 20 20 20 20 20 20 20 20 20 20 20 20 20 20 20 20 20 20 20 20 20 20 20 20 20 20 20 20 20 20 20 20 20 20 20 20 20 20 20 20 20 20 20 20 20 20 20 20 20 20 20 20 20 20 20 20 20 20 20 20 20 20 20 20 20 20 20 20 20 20 20 20 20 20 20 20 20 20 20 20 20 20 20 20 20 20 20 20 20 
20 20 20 250 250 250 250 250 250 250 250 250 250 250 250 250 250 250 250 250 250 250 250 250 20 20 20 250 250 250 250 250 250 250 250 250 250 250 250 250 250 250 250 250 250 250 250 250 20 20 20 250 250 250 250 250 250 250 250 250 250 250 250 250 250 250 250 250 250 250 250 250 20 20 20 250 250 250 250 250 250 250 250 250 250 250 250 250 250 250 250 250 250 250 250 250 20 20 20 250 250 250 250 250 250 250 250 250 250 250 250 250 250 250 250 250 250 250 250 250 20 20 20 250 250 250 250 250 250 250 250 250 250 250 250 250 250 250 250 250 250 250 250 250 20 20 20 250 250 250 250 250 250 250 250 250 250 250 250 250 250 250 250 250 250 250 250 250 20 20 20 250 250 250 250 250 250 250 250 250 250 250 250 250 250 250 250 250 250 250 250 250 20 20 20 250 250 250 250 250 250 250 250 250 250 250 250 250 250 250 250 250 250 250 250 250 20 20 20 250 250 250 250 250 250 250 250 250 250 250 250 250 250 250 250 250 250 250 250 250 20 20 20 250 250 250 250 250 250 250 250 250 250 250 250 250 250 250 250 250 250 250 250 250 20 20 20 250 250 250 250 250 250 250 250 250 250 250 250 250 250 250 250 250 250 250 250 250 20 20 20 250 250 250 250 250 250 250 250 250 250 250 250 250 250 250 250 250 250 250 250 250 20 20 20 250 250 250 250 250 250 250 250 250 250 250 250 250 250 250 250 250 250 250 250 250 20 20 20 250 250 250 250 250 250 250 250 250 250 250 250 250 250 250 250 250 250 250 250 250 20 20 20 250 250 250 250 250 250 250 250 250 250 250 250 250 250 250 250 250 250 250 250 250 20 20 20 250 250 250 250 250 250 250 250 250 250 250 250 250 250 250 250 250 250 250 250 250 20 20 20 250 250 250 250 250 250 250 250 250 250 250 250 250 250 250 250 250 250 250 250 250 20 20 20 250 250 250 250 250 250 250 250 250 250 250 250 250 250 250 250 250 250 250 250 250 20 20 20 250 250 250 250 250 250 250 250 250 250 250 250 250 250 250 250 250 250 250 250 250 
20 20 20 250 250 250 250 250 250 250 250 250 250 250 250 250 250 250 250 250 250 250 250 250 20 20 20 250 250 250 250 250 250 250 250 250 250 250 250 250 250 250 250 250 250 250 250 250 20 20 20 250 250 250 250 250 250 250 250 250 250 250 250 250 250 250 250 250 250 250 250 250 20 20 20 250 250 250 250 250 250 250 250 250 250 250 250 250 250 250 250 250 250 250 250 250 20 20 20 250 250 250 250 250 250 250 250 250 250 250 250 250 250 250 250 250 250 250 250 250 20 20 20 250 250 250 250 250 250 250 250 250 250 250 250 250 250 250 250 250 250 250 250 250 20 20 20 250 250 250 250 250 250 250 250 250 250 250 250 250 250 250 250 250 250 250 250 250 20 20 20 250 250 250 250 250 250 250 250 250 250 250 250 250 250 250 250 250 250 250 250 250 20 20 20 250 250 250 250 250 250 250 250 250 250 250 250 250 250 250 250 250 250 250 250 250 20 20 20 250 250 250 250 250 250 250 250 250 250 250 250 250 250 250 250 250 250 250 250 250 20 20 20 250 250 250 250 250 250 250 250 250 250 250 250 250 250 250 250 250 250 250 250 250 20 20 20 250 250 250 250 250 250 250 250 250 250 250 250 250 250 250 250 250 250 250 250 250 20 20 20 250 250 250 250 250 250 250 250 250 250 250 250 250 250 250 250 250 250 250 250 250 20 20 20 250 250 250 250 250 250 250 250 250 250 250 250 250 250 250 250 250 250 250 250 250 20 20 20 250 250 250 250 250 250 250 250 250 250 250 250 250 250 250 250 250 250 250 250 250 20 20 20 250 250 250 250 250 250 250 250 250 250 250 250 250 250 250 250 250 250 250 250 250 20 20 20 250 250 250 250 250 250 250 250 250 250 250 250 250 250 250 250 250 250 250 250 250 20 20 20 250 250 250 250 250 250 250 250 250 250 250 250 250 250 250 250 250 250 250 250 250 20 20 20 250 250 250 250 250 250 250 250 250 250 250 250 250 250 250 250 250 250 250 250 250 20 20 20 250 250 250 250 250 250 250 250 250 250 250 250 250 250 250 250 250 250 250 250 250 
20 20 20 250 250 250 250 250 250 250 250 250 250 250 250 250 250 250 250 250 250 250 250 250 20 20 20 250 250 250 250 250 250 250 250 250 250 250 250 250 250 250 250 250 250 250 250 250 20 20 20 250 250 250 250 250 250 250 250 250 250 250 250 250 250 250 250 250 250 250 250 250 20 20 20 250 250 250 250 250 250 250 250 250 250 250 250 250 250 250 250 250 250 250 250 250 20 20 20 250 250 250 250 250 250 250 250 250 250 250 250 250 250 250 250 250 250 250 250 250 20 20 20 250 250 250 250 250 250 250 250 250 250 250 250 250 250 250 250 250 250 250 250 250 20 20 20 250 250 250 250 250 250 250 250 250 250 250 250 250 250 250 250 250 250 250 250 250 20 20 20 250 250 250 250 250 250 250 250 250 250 250 250 250 250 250 250 250 250 250 250 250 20 20 20 250 250 250 250 250 250 250 250 250 250 250 250 250 250 250 250 250 250 250 250 250 20 20 20 250 250 250 250 250 250 250 250 250 250 250 250 250 250 250 250 250 250 250 250 250 20 20 20 250 250 250 250 250 250 250 250 250 250 250 250 250 250 250 250 250 250 250 250 250 20 20 20 250 250 250 250 250 250 250 250 250 250 250 250 250 250 250 250 250 250 250 250 250 20 20 20 250 250 250 250 250 250 250 250 250 250 250 250 250 250 250 250 250 250 250 250 250 20 20 20 250 250 250 250 250 250 250 250 250 250 250 250 250 250 250 250 250 250 250 250 250 20 20 20 250 250 250 250 250 250 250 250 250 250 250 250 250 250 250 250 250 250 250 250 250 20 20 20 250 250 250 250 250 250 250 250 250 250 250 250 250 250 250 250 250 250 250 250 250 20 20 20 250 250 250 250 250 250 250 250 250 250 250 250 250 250 250 250 250 250 250 250 250 20 20 20 250 250 250 250 250 250 250 250 250 250 250 250 250 250 250 250 250 250 250 250 250 20 20 20 250 250 250 250 250 250 250 250 250 250 250 250 250 250 250 250 250 250 250 250 250 20 20 20 250 250 250 250 250 250 250 250 250 250 250 250 250 250 250 250 250 250 250 250 250 
20 20 20 250 250 250 250 250 250 250 250 250 250 250 250 250 250 250 250 250 250 250 250 250 20 20 20 250 250 250 250 250 250 250 250 250 250 250 250 250 250 250 250 250 250 250 250 250 20 20 20 250 250 250 250 250 250 250 250 250 250 250 250 250 250 250 250 250 250 250 250 250 20 20 20 250 250 250 250 250 250 250 250 250 250 250 250 250 250 250 250 250 250 250 250 250 20 20 20 250 250 250 250 250 250 250 250 250 250 250 250 250 250 250 250 250 250 250 250 250 20 20 20 250 250 250 250 250 250 250 250 250 250 250 250 250 250 250 250 250 250 250 250 250 20 20 20 250 250 250 250 250 250 250 250 250 250 250 250 250 250 250 250 250 250 250 250 250 20 20 20 250 250 250 250 250 250 250 250 250 250 250 250 250 250 250 250 250 250 250 250 250 20 20 20 250 250 250 250 250 250 250 250 250 250 250 250 250 250 250 250 250 250 250 250 250 20 20 20 250 250 250 250 250 250 250 250 250 250 250 250 250 250 250 250 250 250 250 250 250 20 20 20 250 250 250 250 250 250 250 250 250 250 250 250 250 250 250 250 250 250 250 250 250 20 20 20 250 250 250 250 250 250 250 250 250 250 250 250 250 250 250 250 250 250 250 250 250 20 20 20 250 250 250 250 250 250 250 250 250 250 250 250 250 250 250 250 250 250 250 250 250 20 20 20 250 250 250 250 250 250 250 250 250 250 250 250 250 250 250 250 250 250 250 250 250 20 20 20 250 250 250 250 250 250 250 250 250 250 250 250 250 250 250 250 250 250 250 250 250 20 20 20 250 250 250 250 250 250 250 250 250 250 250 250 250 250 250 250 250 250 250 250 250 20 20 20 250 250 250 250 250 250 250 250 250 250 250 250 250 250 250 250 250 250 250 250 250 20 20 20 250 250 250 250 250 250 250 250 250 250 250 250 250 250 250 250 250 250 250 250 250 20 20 20 250 250 250 250 250 250 250 250 250 250 250 250 250 250 250 250 250 250 250 250 250 20 20 20 250 250 250 250 250 250 250 250 250 250 250 250 250 250 250 250 250 250 250 250 250 
20 20 20 250 250 250 250 250 250 250 250 250 250 250 250 250 250 250 250 250 250 250 250 250 20 20 20 250 250 250 250 250 250 250 250 250 250 250 250 250 250 250 250 250 250 250 250 250 20 20 20 250 250 250 250 250 250 250 250 250 250 250 250 250 250 250 250 250 250 250 250 250 20 20 20 250 250 250 250 250 250 250 250 250 250 250 250 250 250 250 250 250 250 250 250 250 20 20 20 250 250 250 250 250 250 250 250 250 250 250 250 250 250 250 250 250 250 250 250 250 20 20 20 250 250 250 250 250 250 250 250 250 250 250 250 250 250 250 250 250 250 250 250 250 20 20 20 250 250 250 250 250 250 250 250 250 250 250 250 250 250 250 250 250 250 250 250 250 20 20 20 250 250 250 250 250 250 250 250 250 250 250 250 250 250 250 250 250 250 250 250 250 20 20 20 250 250 250 250 250 250 250 250 250 250 250 250 250 250 250 250 250 250 250 250 250 20 20 20 250 250 250 250 250 250 250 250 250 250 250 250 250 250 250 250 250 250 250 250 250 20 20 20 250 250 250 250 250 250 250 250 250 250 250 250 250 250 250 250 250 250 250 250 250 20 20 20 250 250 250 250 250 250 250 250 250 250 250 250 250 250 250 250 250 250 250 250 250 20 20 20 250 250 250 250 250 250 250 250 250 250 250 250 250 250 250 250 250 250 250 250 250 20 20 20 250 250 250 250 250 250 250 250 250 250 250 250 250 250 250 250 250 250 250 250 250 20 20 20 250 250 250 250 250 250 250 250 250 250 250 250 250 250 250 250 250 250 250 250 250 20 20 20 250 250 250 250 250 250 250 250 250 250 250 250 250 250 250 250 250 250 250 250 250 20 20 20 250 250 250 250 250 250 250 250 250 250 250 250 250 250 250 250 250 250 250 250 250 20 20 20 250 250 250 250 250 250 250 250 250 250 250 250 250 250 250 250 250 250 250 250 250 20 20 20 250 250 250 250 250 250 250 250 250 250 250 250 250 250 250 250 250 250 250 250 250 20 20 20 250 250 250 250 250 250 250 250 250 250 250 250 250 250 250 250 250 250 250 250 250 
20 20 20 250 250 250 250 250 250 250 250 250 250 250 250 250 250 250 250 250 250 250 250 250 20 20 20 250 250 250 250 250 250 250 250 250 250 250 250 250 250 250 250 250 250 250 250 250 20 20 20 250 250 250 250 250 250 250 250 250 250 250 250 250 250 250 250 250 250 250 250 250 20 20 20 250 250 250 250 250 250 250 250 250 250 250 250 250 250 250 250 250 250 250 250 250 20 20 20 250 250 250 250 250 250 250 250 250 250 250 250 250 250 250 250 250 250 250 250 250 20 20 20 250 250 250 250 250 250 250 250 250 250 250 250 250 250 250 250 250 250 250 250 250 20 20 20 250 250 250 250 250 250 250 250 250 250 250 250 250 250 250 250 250 250 250 250 250 20 20 20 250 250 250 250 250 250 250 250 250 250 250 250 250 250 250 250 250 250 250 250 250 20 20 20 250 250 250 250 250 250 250 250 250 250 250 250 250 250 250 250 250 250 250 250 250 20 20 20 250 250 250 250 250 250 250 250 250 250 250 250 250 250 250 250 250 250 250 250 250 20 20 20 250 250 250 250 250 250 250 250 250 250 250 250 250 250 250 250 250 250 250 250 250 20 20 20 250 250 250 250 250 250 250 250 250 250 250 250 250 250 250 250 250 250 250 250 250 20 20 20 250 250 250 250 250 250 250 250 250 250 250 250 250 250 250 250 250 250 250 250 250 20 20 20 250 250 250 250 250 250 250 250 250 250 250 250 250 250 250 250 250 250 250 250 250 20 20 20 250 250 250 250 250 250 250 250 250 250 250 250 250 250 250 250 250 250 250 250 250 20 20 20 250 250 250 250 250 250 250 250 250 250 250 250 250 250 250 250 250 250 250 250 250 20 20 20 250 250 250 250 250 250 250 250 250 250 250 250 250 250 250 250 250 250 250 250 250 20 20 20 250 250 250 250 250 250 250 250 250 250 250 250 250 250 250 250 250 250 250 250 250 20 20 20 250 250 250 250 250 250 250 250 250 250 250 250 250 250 250 250 250 250 250 250 250 20 20 20 250 250 250 250 250 250 250 250 250 250 250 250 250 250 250 250 250 250 250 250 250 
20 20 20 250 250 250 250 250 250 250 250 250 250 250 250 250 250 250 250 250 250 250 250 250 20 20 20 250 250 250 250 250 250 250 250 250 250 250 250 250 250 250 250 250 250 250 250 250 20 20 20 250 250 250 250 250 250 250 250 250 250 250 250 250 250 250 250 250 250 250 250 250 20 20 20 250 250 250 250 250 250 250 250 250 250 250 250 250 250 250 250 250 250 250 250 250 20 20 20 250 250 250 250 250 250 250 250 250 250 250 250 250 250 250 250 250 250 250 250 250 20 20 20 250 250 250 250 250 250 250 250 250 250 250 250 250 250 250 250 250 250 250 250 250 20 20 20 250 250 250 250 250 250 250 250 250 250 250 250 250 250 250 250 250 250 250 250 250 20 20 20 250 250 250 250 250 250 250 250 250 250 250 250 250 250 250 250 250 250 250 250 250 20 20 20 250 250 250 250 250 250 250 250 250 250 250 250 250 250 250 250 250 250 250 250 250 20 20 20 250 250 250 250 250 250 250 250 250 250 250 250 250 250 250 250 250 250 250 250 250 20 20 20 250 250 250 250 250 250 250 250 250 250 250 250 250 250 250 250 250 250 250 250 250 20 20 20 250 250 250 250 250 250 250 250 250 250 250 250 250 250 250 250 250 250 250 250 250 20 20 20 250 250 250 250 250 250 250 250 250 250 250 250 250 250 250 250 250 250 250 250 250 20 20 20 250 250 250 250 250 250 250 250 250 250 250 250 250 250 250 250 250 250 250 250 250 20 20 20 250 250 250 250 250 250 250 250 250 250 250 250 250 250 250 250 250 250 250 250 250 20 20 20 250 250 250 250 250 250 250 250 250 250 250 250 250 250 250 250 250 250 250 250 250 20 20 20 250 250 250 250 250 250 250 250 250 250 250 250 250 250 250 250 250 250 250 250 250 20 20 20 250 250 250 250 250 250 250 250 250 250 250 250 250 250 250 250 250 250 250 250 250 20 20 20 250 250 250 250 250 250 250 250 250 250 250 250 250 250 250 250 250 250 250 250 250 20 20 20 250 250 250 250 250 250 250 250 250 250 250 250 250 250 250 250 250 250 250 250 250 
20 20 20 20 20 20 20 20 20 20 20 20 20 20 20 20 20 20 20 20 20 20 20 20 20 20 20 20 20 20 20 20 20 20 20 20 20 20 20 20 20 20 20 20 20 20 20 20 20 20 20 20 20 20 20 20 20 20 20 20 20 20 20 20 20 20 20 20 20 20 20 20 20 20 20 20 20 20 20 20 20 20 20 20 20 20 20 20 20 20 20 20 20 20 20 20 20 20 20 20 20 20 20 20 20 20 20 20 20 20 20 20 20 20 20 20 20 20 20 20 20 20 20 20 20 20 20 20 20 20 20 20 20 20 20 20 20 20 20 20 20 20 20 20 20 20 20 20 20 20 20 20 20 20 20 20 20 20 20 20 20 20 20 20 20 20 20 20 20 20 20 20 20 20 20 20 20 20 20 20 20 20 20 20 20 20 20 20 20 20 20 20 20 20 20 20 20 20 20 20 20 20 20 20 20 20 20 20 20 20 20 20 20 20 20 20 20 20 20 20 20 20 20 20 20 20 20 20 20 20 20 20 20 20 20 20 20 20 20 20 20 20 20 20 20 20 20 20 20 20 20 20 20 20 20 20 20 20 20 20 20 20 20 20 20 20 20 20 20 20 20 20 20 20 20 20 20 20 20 20 20 20 20 20 20 20 20 20 20 20 20 20 20 20 20 20 20 20 20 20 20 20 20 20 20 20 20 20 20 20 20 20 20 20 20 20 20 20 20 20 20 20 20 20 20 20 20 20 20 20 20 20 20 20 20 20 20 20 20 20 20 20 20 20 20 20 20 20 20 20 20 20 20 20 20 20 20 20 20 20 20 20 20 20 20 20 20 20 20 20 20 20 20 20 20 20 20 20 20 20 20 20 20 20 20 20 20 20 20 20 20 20 20 20 20 20 20 20 20 20 20 20 20 20 20 20 20 20 20 20 20 20 20 20 20 20 20 20 20 20 20 20 20 20 20 20 20 20 20 20 20 20 20 20 20 20 20 20 20 20 20 20 20 20 20 20 20 20 20 20 20 20 20 20 20 20 20 20 20 20 20 20 20 20 20 20 20 20 20 20 20 20 20 20 20 20 20 20 20 20 
20 20 20 250 250 250 250 250 250 250 250 250 250 250 250 250 250 250 250 250 250 250 250 250 20 20 20 250 250 250 250 250 250 250 250 250 250 250 250 250 250 250 250 250 250 250 250 250 20 20 20 250 250 250 250 250 250 250 250 250 250 250 250 250 250 250 250 250 250 250 250 250 20 20 20 250 250 250 250 250 250 250 250 250 250 250 250 250 250 250 250 250 250 250 250 250 20 20 20 250 250 250 250 250 250 250 250 250 250 250 250 250 250 250 250 250 250 250 250 250 20 20 20 250 250 250 250 250 250 250 250 250 250 250 250 250 250 250 250 250 250 250 250 250 20 20 20 250 250 250 250 250 250 250 250 250 250 250 250 250 250 250 250 250 250 250 250 250 20 20 20 250 250 250 250 250 250 250 250 250 250 250 250 250 250 250 250 250 250 250 250 250 20 20 20 250 250 250 250 250 250 250 250 250 250 250 250 250 250 250 250 250 250 250 250 250 20 20 20 250 250 250 250 250 250 250 250 250 250 250 250 250 250 250 250 250 250 250 250 250 20 20 20 250 250 250 250 250 250 250 250 250 250 250 250 250 250 250 250 250 250 250 250 250 20 20 20 250 250 250 250 250 250 250 250 250 250 250 250 250 250 250 250 250 250 250 250 250 20 20 20 250 250 250 250 250 250 250 250 250 250 250 250 250 250 250 250 250 250 250 250 250 20 20 20 250 250 250 250 250 250 250 250 250 250 250 250 250 250 250 250 250 250 250 250 250 20 20 20 250 250 250 250 250 250 250 250 250 250 250 250 250 250 250 250 250 250 250 250 250 20 20 20 250 250 250 250 250 250 250 250 250 250 250 250 250 250 250 250 250 250 250 250 250 20 20 20 250 250 250 250 250 250 250 250 250 250 250 250 250 250 250 250 250 250 250 250 250 20 20 20 250 250 250 250 250 250 250 250 250 250 250 250 250 250 250 250 250 250 250 250 250 20 20 20 250 250 250 250 250 250 250 250 250 250 250 250 250 250 250 250 250 250 250 250 250 20 20 20 250 250 250 250 250 250 250 250 250 250 250 250 250 250 250 250 250 250 250 250 250 
20 20 20 250 250 250 250 250 250 250 250 250 250 250 250 250 250 250 250 250 250 250 250 250 20 20 20 250 250 250 250 250 250 250 250 250 250 250 250 250 250 250 250 250 250 250 250 250 20 20 20 250 250 250 250 250 250 250 250 250 250 250 250 250 250 250 250 250 250 250 250 250 20 20 20 250 250 250 250 250 250 250 250 250 250 250 250 250 250 250 250 250 250 250 250 250 20 20 20 250 250 250 250 250 250 250 250 250 250 250 250 250 250 250 250 250 250 250 250 250 20 20 20 250 250 250 250 250 250 250 250 250 250 250 250 250 250 250 250 250 250 250 250 250 20 20 20 250 250 250 250 250 250 250 250 250 250 250 250 250 250 250 250 250 250 250 250 250 20 20 20 250 250 250 250 250 250 250 250 250 250 250 250 250 250 250 250 250 250 250 250 250 20 20 20 250 250 250 250 250 250 250 250 250 250 250 250 250 250 250 250 250 250 250 250 250 20 20 20 250 250 250 250 250 250 250 250 250 250 250 250 250 250 250 250 250 250 250 250 250 20 20 20 250 250 250 250 250 250 250 250 250 250 250 250 250 250 250 250 250 250 250 250 250 20 20 20 250 250 250 250 250 250 250 250 250 250 250 250 250 250 250 250 250 250 250 250 250 20 20 20 250 250 250 250 250 250 250 250 250 250 250 250 250 250 250 250 250 250 250 250 250 20 20 20 250 250 250 250 250 250 250 250 250 250 250 250 250 250 250 250 250 250 250 250 250 20 20 20 250 250 250 250 250 250 250 250 250 250 250 250 250 250 250 250 250 250 250 250 250 20 20 20 250 250 250 250 250 250 250 250 250 250 250 250 250 250 250 250 250 250 250 250 250 20 20 20 250 250 250 250 250 250 250 250 250 250 250 250 250 250 250 250 250 250 250 250 250 20 20 20 250 250 250 250 250 250 250 250 250 250 250 250 250 250 250 250 250 250 250 250 250 20 20 20 250 250 250 250 250 250 250 250 250 250 250 250 250 250 250 250 250 250 250 250 250 20 20 20 250 250 250 250 250 250 250 250 250 250 250 250 250 250 250 250 250 250 250 250 250 
20 20 20 250 250 250 250 250 250 250 250 250 250 250 250 250 250 250 250 250 250 250 250 250 20 20 20 250 250 250 250 250 250 250 250 250 250 250 250 250 250 250 250 250 250 250 250 250 20 20 20 250 250 250 250 250 250 250 250 250 250 250 250 250 250 250 250 250 250 250 250 250 20 20 20 250 250 250 250 250 250 250 250 250 250 250 250 250 250 250 250 250 250 250 250 250 20 20 20 250 250 250 250 250 250 250 250 250 250 250 250 250 250 250 250 250 250 250 250 250 20 20 20 250 250 250 250 250 250 250 250 250 250 250 250 250 250 250 250 250 250 250 250 250 20 20 20 250 250 250 250 250 250 250 250 250 250 250 250 250 250 250 250 250 250 250 250 250 20 20 20 250 250 250 250 250 250 250 250 250 250 250 250 250 250 250 250 250 250 250 250 250 20 20 20 250 250 250 250 250 250 250 250 250 250 250 250 250 250 250 250 250 250 250 250 250 20 20 20 250 250 250 250 250 250 250 250 250 250 250 250 250 250 250 250 250 250 250 250 250 20 20 20 250 250 250 250 250 250 250 250 250 250 250 250 250 250 250 250 250 250 250 250 250 20 20 20 250 250 250 250 250 250 250 250 250 250 250 250 250 250 250 250 250 250 250 250 250 20 20 20 250 250 250 250 250 250 250 250 250 250 250 250 250 250 250 250 250 250 250 250 250 20 20 20 250 250 250 250 250 250 250 250 250 250 250 250 250 250 250 250 250 250 250 250 250 20 20 20 250 250 250 250 250 250 250 250 250 250 250 250 250 250 250 250 250 250 250 250 250 20 20 20 250 250 250 250 250 250 250 250 250 250 250 250 250 250 250 250 250 250 250 250 250 20 20 20 250 250 250 250 250 250 250 250 250 250 250 250 250 250 250 250 250 250 250 250 250 20 20 20 250 250 250 250 250 250 250 250 250 250 250 250 250 250 250 250 250 250 250 250 250 20 20 20 250 250 250 250 250 250 250 250 250 250 250 250 250 250 250 250 250 250 250 250 250 20 20 20 250 250 250 250 250 250 250 250 250 250 250 250 250 250 250 250 250 250 250 250 250 
20 20 20 250 250 250 250 250 250 250 250 250 250 250 250 250 250 250 250 250 250 250 250 250 20 20 20 250 250 250 250 250 250 250 250 250 250 250 250 250 250 250 250 250 250 250 250 250 20 20 20 250 250 250 250 250 250 250 250 250 250 250 250 250 250 250 250 250 250 250 250 250 20 20 20 250 250 250 250 250 250 250 250 250 250 250 250 250 250 250 250 250 250 250 250 250 20 20 20 250 250 250 250 250 250 250 250 250 250 250 250 250 250 250 250 250 250 250 250 250 20 20 20 250 250 250 250 250 250 250 250 250 250 250 250 250 250 250 250 250 250 250 250 250 20 20 20 250 250 250 250 250 250 250 250 250 250 250 250 250 250 250 250 250 250 250 250 250 20 20 20 250 250 250 250 250 250 250 250 250 250 250 250 250 250 250 250 250 250 250 250 250 20 20 20 250 250 250 250 250 250 250 250 250 250 250 250 250 250 250 250 250 250 250 250 250 20 20 20 250 250 250 250 250 250 250 250 250 250 250 250 250 250 250 250 250 250 250 250 250 20 20 20 250 250 250 250 250 250 250 250 250 250 250 250 250 250 250 250 250 250 250 250 250 20 20 20 250 250 250 250 250 250 250 250 250 250 250 250 250 250 250 250 250 250 250 250 250 20 20 20 250 250 250 250 250 250 250 250 250 250 250 250 250 250 250 250 250 250 250 250 250 20 20 20 250 250 250 250 250 250 250 250 250 250 250 250 250 250 250 250 250 250 250 250 250 20 20 20 250 250 250 250 250 250 250 250 250 250 250 250 250 250 250 250 250 250 250 250 250 20 20 20 250 250 250 250 250 250 250 250 250 250 250 250 250 250 250 250 250 250 250 250 250 20 20 20 250 250 250 250 250 250 250 250 250 250 250 250 250 250 250 250 250 250 250 250 250 20 20 20 250 250 250 250 250 250 250 250 250 250 250 250 250 250 250 250 250 250 250 250 250 20 20 20 250 250 250 250 250 250 250 250 250 250 250 250 250 250 250 250 250 250 250 250 250 20 20 20 250 250 250 250 250 250 250 250 250 250 250 250 250 250 250 250 250 250 250 250 250 
20 20 20 250 250 250 250 250 250 250 250 250 250 250 250 250 250 250 250 250 250 250 250 250 20 20 20 250 250 250 250 250 250 250 250 250 250 250 250 250 250 250 250 250 250 250 250 250 20 20 20 250 250 250 250 250 250 250 250 250 250 250 250 250 250 250 250 250 250 250 250 250 20 20 20 250 250 250 250 250 250 250 250 250 250 250 250 250 250 250 250 250 250 250 250 250 20 20 20 250 250 250 250 250 250 250 250 250 250 250 250 250 250 250 250 250 250 250 250 250 20 20 20 250 250 250 250 250 250 250 250 250 250 250 250 250 250 250 250 250 250 250 250 250 20 20 20 250 250 250 250 250 250 250 250 250 250 250 250 250 250 250 250 250 250 250 250 250 20 20 20 250 250 250 250 250 250 250 250 250 250 250 250 250 250 250 250 250 250 250 250 250 20 20 20 250 250 250 250 250 250 250 250 250 250 250 250 250 250 250 250 250 250 250 250 250 20 20 20 250 250 250 250 250 250 250 250 250 250 250 250 250 250 250 250 250 250 250 250 250 20 20 20 250 250 250 250 250 250 250 250 250 250 250 250 250 250 250 250 250 250 250 250 250 20 20 20 250 250 250 250 250 250 250 250 250 250 250 250 250 250 250 250 250 250 250 250 250 20 20 20 250 250 250 250 250 250 250 250 250 250 250 250 250 250 250 250 250 250 250 250 250 20 20 20 250 250 250 250 250 250 250 250 250 250 250 250 250 250 250 250 250 250 250 250 250 20 20 20 250 250 250 250 250 250 250 250 250 250 250 250 250 250 250 250 250 250 250 250 250 20 20 20 250 250 250 250 250 250 250 250 250 250 250 250 250 250 250 250 250 250 250 250 250 20 20 20 250 250 250 250 250 250 250 250 250 250 250 250 250 250 250 250 250 250 250 250 250 20 20 20 250 250 250 250 250 250 250 250 250 250 250 250 250 250 250 250 250 250 250 250 250 20 20 20 250 250 250 250 250 250 250 250 250 250 250 250 250 250 250 250 250 250 250 250 250 20 20 20 250 250 250 250 250 250 250 250 250 250 250 250 250 250 250 250 250 250 250 250 250 
20 20 20 250 250 250 250 250 250 250 250 250 250 250 250 250 250 250 250 250 250 250 250 250 20 20 20 250 250 250 250 250 250 250 250 250 250 250 250 250 250 250 250 250 250 250 250 250 20 20 20 250 250 250 250 250 250 250 250 250 250 250 250 250 250 250 250 250 250 250 250 250 20 20 20 250 250 250 250 250 250 250 250 250 250 250 250 250 250 250 250 250 250 250 250 250 20 20 20 250 250 250 250 250 250 250 250 250 250 250 250 250 250 250 250 250 250 250 250 250 20 20 20 250 250 250 250 250 250 250 250 250 250 250 250 250 250 250 250 250 250 250 250 250 20 20 20 250 250 250 250 250 250 250 250 250 250 250 250 250 250 250 250 250 250 250 250 250 20 20 20 250 250 250 250 250 250 250 250 250 250 250 250 250 250 250 250 250 250 250 250 250 20 20 20 250 250 250 250 250 250 250 250 250 250 250 250 250 250 250 250 250 250 250 250 250 20 20 20 250 250 250 250 250 250 250 250 250 250 250 250 250 250 250 250 250 250 250 250 250 20 20 20 250 250 250 250 250 250 250 250 250 250 250 250 250 250 250 250 250 250 250 250 250 20 20 20 250 250 250 250 250 250 250 250 250 250 250 250 250 250 250 250 250 250 250 250 250 20 20 20 250 250 250 250 250 250 250 250 250 250 250 250 250 250 250 250 250 250 250 250 250 20 20 20 250 250 250 250 250 250 250 250 250 250 250 250 250 250 250 250 250 250 250 250 250 20 20 20 250 250 250 250 250 250 250 250 250 250 250 250 250 250 250 250 250 250 250 250 250 20 20 20 250 250 250 250 250 250 250 250 250 250 250 250 250 250 250 250 250 250 250 250 250 20 20 20 250 250 250 250 250 250 250 250 250 250 250 250 250 250 250 250 250 250 250 250 250 20 20 20 250 250 250 250 250 250 250 250 250 250 250 250 250 250 250 250 250 250 250 250 250 20 20 20 250 250 250 250 250 250 250 250 250 250 250 250 250 250 250 250 250 250 250 250 250 20 20 20 250 250 250 250 250 250 250 250 250 250 250 250 250 250 250 250 250 250 250 250 250 
20 20 20 250 250 250 250 250 250 250 250 250 250 250 250 250 250 250 250 250 250 250 250 250 20 20 20 250 250 250 250 250 250 250 250 250 250 250 250 250 250 250 250 250 250 250 250 250 20 20 20 250 250 250 250 250 250 250 250 250 250 250 250 250 250 250 250 250 250 250 250 250 20 20 20 250 250 250 250 250 250 250 250 250 250 250 250 250 250 250 250 250 250 250 250 250 20 20 20 250 250 250 250 250 250 250 250 250 250 250 250 250 250 250 250 250 250 250 250 250 20 20 20 250 250 250 250 250 250 250 250 250 250 250 250 250 250 250 250 250 250 250 250 250 20 20 20 250 250 250 250 250 250 250 250 250 250 250 250 250 250 250 250 250 250 250 250 250 20 20 20 250 250 250 250 250 250 250 250 250 250 250 250 250 250 250 250 250 250 250 250 250 20 20 20 250 250 250 250 250 250 250 250 250 250 250 250 250 250 250 250 250 250 250 250 250 20 20 20 250 250 250 250 250 250 250 250 250 250 250 250 250 250 250 250 250 250 250 250 250 20 20 20 250 250 250 250 250 250 250 250 250 250 250 250 250 250 250 250 250 250 250 250 250 20 20 20 250 250 250 250 250 250 250 250 250 250 250 250 250 250 250 250 250 250 250 250 250 20 20 20 250 250 250 250 250 250 250 250 250 250 250 250 250 250 250 250 250 250 250 250 250 20 20 20 250 250 250 250 250 250 250 250 250 250 250 250 250 250 250 250 250 250 250 250 250 20 20 20 250 250 250 250 250 250 250 250 250 250 250 250 250 250 250 250 250 250 250 250 250 20 20 20 250 250 250 250 250 250 250 250 250 250 250 250 250 250 250 250 250 250 250 250 250 20 20 20 250 250 250 250 250 250 250 250 250 250 250 250 250 250 250 250 250 250 250 250 250 20 20 20 250 250 250 250 250 250 250 250 250 250 250 250 250 250 250 250 250 250 250 250 250 20 20 20 250 250 250 250 250 250 250 250 250 250 250 250 250 250 250 250 250 250 250 250 250 20 20 20 250 250 250 250 250 250 250 250 250 250 250 250 250 250 250 250 250 250 250 250 250 
20 20 20 20 20 20 20 20 20 20 20 20 20 20 20 20 20 20 20 20 20 20 20 20 20 20 20 20 20 20 20 20 20 20 20 20 20 20 20 20 20 20 20 20 20 20 20 20 20 20 20 20 20 20 20 20 20 20 20 20 20 20 20 20 20 20 20 20 20 20 20 20 20 20 20 20 20 20 20 20 20 20 20 20 20 20 20 20 20 20 20 20 20 20 20 20 20 20 20 20 20 20 20 20 20 20 20 20 20 20 20 20 20 20 20 20 20 20 20 20 20 20 20 20 20 20 20 20 20 20 20 20 20 20 20 20 20 20 20 20 20 20 20 20 20 20 20 20 20 20 20 20 20 20 20 20 20 20 20 20 20 20 20 20 20 20 20 20 20 20 20 20 20 20 20 20 20 20 20 20 20 20 20 20 20 20 20 20 20 20 20 20 20 20 20 20 20 20 20 20 20 20 20 20 20 20 20 20 20 20 20 20 20 20 20 20 20 20 20 20 20 20 20 20 20 20 20 20 20 20 20 20 20 20 20 20 20 20 20 20 20 20 20 20 20 20 20 20 20 20 20 20 20 20 20 20 20 20 20 20 20 20 20 20 20 20 20 20 20 20 20 20 20 20 20 20 20 20 20 20 20 20 20 20 20 20 20 20 20 20 20 20 20 20 20 20 20 20 20 20 20 20 20 20 20 20 20 20 20 20 20 20 20 20 20 20 20 20 20 20 20 20 20 20 20 20 20 20 20 20 20 20 20 20 20 20 20 20 20 20 20 20 20 20 20 20 20 20 20 20 20 20 20 20 20 20 20 20 20 20 20 20 20 20 20 20 20 20 20 20 20 20 20 20 20 20 20 20 20 20 20 20 20 20 20 20 20 20 20 20 20 20 20 20 20 20 20 20 20 20 20 20 20 20 20 20 20 20 20 20 20 20 20 20 20 20 20 20 20 20 20 20 20 20 20 20 20 20 20 20 20 20 20 20 20 20 20 20 20 20 20 20 20 20 20 20 20 20 20 20 20 20 20 20 20 20 20 20 20 20 20 20 20 20 20 20 20 20 20 20 20 20 20 20 20 20 20 20 20 20 
20 20 20 250 250 250 250 250 250 250 250 250 250 250 250 250 250 250 250 250 250 250 250 250 20 20 20 250 250 250 250 250 250 250 250 250 250 250 250 250 250 250 250 250 250 250 250 250 20 20 20 250 250 250 250 250 250 250 250 250 250 250 250 250 250 250 250 250 250 250 250 250 20 20 20 250 250 250 250 250 250 250 250 250 250 250 250 250 250 250 250 250 250 250 250 250 20 20 20 250 250 250 250 250 250 250 250 250 250 250 250 250 250 250 250 250 250 250 250 250 20 20 20 250 250 250 250 250 250 250 250 250 250 250 250 250 250 250 250 250 250 250 250 250 20 20 20 250 250 250 250 250 250 250 250 250 250 250 250 250 250 250 250 250 250 250 250 250 20 20 20 250 250 250 250 250 250 250 250 250 250 250 250 250 250 250 250 250 250 250 250 250 20 20 20 250 250 250 250 250 250 250 250 250 250 250 250 250 250 250 250 250 250 250 250 250 20 20 20 250 250 250 250 250 250 250 250 250 250 250 250 250 250 250 250 250 250 250 250 250 20 20 20 250 250 250 250 250 250 250 250 250 250 250 250 250 250 250 250 250 250 250 250 250 20 20 20 250 250 250 250 250 250 250 250 250 250 250 250 250 250 250 250 250 250 250 250 250 20 20 20 250 250 250 250 250 250 250 250 250 250 250 250 250 250 250 250 250 250 250 250 250 20 20 20 250 250 250 250 250 250 250 250 250 250 250 250 250 250 250 250 250 250 250 250 250 20 20 20 250 250 250 250 250 250 250 250 250 250 250 250 250 250 250 250 250 250 250 250 250 20 20 20 250 250 250 250 250 250 250 250 250 250 250 250 250 250 250 250 250 250 250 250 250 20 20 20 250 250 250 250 250 250 250 250 250 250 250 250 250 250 250 250 250 250 250 250 250 20 20 20 250 250 250 250 250 250 250 250 250 250 250 250 250 250 250 250 250 250 250 250 250 20 20 20 250 250 250 250 250 250 250 250 250 250 250 250 250 250 250 250 250 250 250 250 250 20 20 20 250 250 250 250 250 250 250 250 250 250 250 250 250 250 250 250 250 250 250 250 250 
20 20 20 250 250 250 250 250 250 250 250 250 250 250 250 250 250 250 250 250 250 250 250 250 20 20 20 250 250 250 250 250 250 250 250 250 250 250 250 250 250 250 250 250 250 250 250 250 20 20 20 250 250 250 250 250 250 250 250 250 250 250 250 250 250 250 250 250 250 250 250 250 20 20 20 250 250 250 250 250 250 250 250 250 250 250 250 250 250 250 250 250 250 250 250 250 20 20 20 250 250 250 250 250 250 250 250 250 250 250 250 250 250 250 250 250 250 250 250 250 20 20 20 250 250 250 250 250 250 250 250 250 250 250 250 250 250 250 250 250 250 250 250 250 20 20 20 250 250 250 250 250 250 250 250 250 250 250 250 250 250 250 250 250 250 250 250 250 20 20 20 250 250 250 250 250 250 250 250 250 250 250 250 250 250 250 250 250 250 250 250 250 20 20 20 250 250 250 250 250 250 250 250 250 250 250 250 250 250 250 250 250 250 250 250 250 20 20 20 250 250 250 250 250 250 250 250 250 250 250 250 250 250 250 250 250 250 250 250 250 20 20 20 250 250 250 250 250 250 250 250 250 250 250 250 250 250 250 250 250 250 250 250 250 20 20 20 250 250 250 250 250 250 250 250 250 250 250 250 250 250 250 250 250 250 250 250 250 20 20 20 250 250 250 250 250 250 250 250 250 250 250 250 250 250 250 250 250 250 250 250 250 20 20 20 250 250 250 250 250 250 250 250 250 250 250 250 250 250 250 250 250 250 250 250 250 20 20 20 250 250 250 250 250 250 250 250 250 250 250 250 250 250 250 250 250 250 250 250 250 20 20 20 250 250 250 250 250 250 250 250 250 250 250 250 250 250 250 250 250 250 250 250 250 20 20 20 250 250 250 250 250 250 250 250 250 250 250 250 250 250 250 250 250 250 250 250 250 20 20 20 250 250 250 250 250 250 250 250 250 250 250 250 250 250 250 250 250 250 250 250 250 20 20 20 250 250 250 250 250 250 250 250 250 250 250 250 250 250 250 250 250 250 250 250 250 20 20 20 250 250 250 250 250 250 250 250 250 250 250 250 250 250 250 250 250 250 250 250 250 
20 20 20 250 250 250 250 250 250 250 250 250 250 250 250 250 250 250 250 250 250 250 250 250 20 20 20 250 250 250 250 250 250 250 250 250 250 250 250 250 250 250 250 250 250 250 250 250 20 20 20 250 250 250 250 250 250 250 250 250 250 250 250 250 250 250 250 250 250 250 250 250 20 20 20 250 250 250 250 250 250 250 250 250 250 250 250 250 250 250 250 250 250 250 250 250 20 20 20 250 250 250 250 250 250 250 250 250 250 250 250 250 250 250 250 250 250 250 250 250 20 20 20 250 250 250 250 250 250 250 250 250 250 250 250 250 250 250 250 250 250 250 250 250 20 20 20 250 250 250 250 250 250 250 250 250 250 250 250 250 250 250 250 250 250 250 250 250 20 20 20 250 250 250 250 250 250 250 250 250 250 250 250 250 250 250 250 250 250 250 250 250 20 20 20 250 250 250 250 250 250 250 250 250 250 250 250 250 250 250 250 250 250 250 250 250 20 20 20 250 250 250 250 250 250 250 250 250 250 250 250 250 250 250 250 250 250 250 250 250 20 20 20 250 250 250 250 250 250 250 250 250 250 250 250 250 250 250 250 250 250 250 250 250 20 20 20 250 250 250 250 250 250 250 250 250 250 250 250 250 250 250 250 250 250 250 250 250 20 20 20 250 250 250 250 250 250 250 250 250 250 250 250 250 250 250 250 250 250 250 250 250 20 20 20 250 250 250 250 250 250 250 250 250 250 250 250 250 250 250 250 250 250 250 250 250 20 20 20 250 250 250 250 250 250 250 250 250 250 250 250 250 250 250 250 250 250 250 250 250 20 20 20 250 250 250 250 250 250 250 250 250 250 250 250 250 250 250 250 250 250 250 250 250 20 20 20 250 250 250 250 250 250 250 250 250 250 250 250 250 250 250 250 250 250 250 250 250 20 20 20 250 250 250 250 250 250 250 250 250 250 250 250 250 250 250 250 250 250 250 250 250 20 20 20 250 250 250 250 250 250 250 250 250 250 250 250 250 250 250 250 250 250 250 250 250 20 20 20 250 250 250 250 250 250 250 250 250 250 250 250 250 250 250 250 250 250 250 250 250 
20 20 20 250 250 250 250 250 250 250 250 250 250 250 250 250 250 250 250 250 250 250 250 250 20 20 20 250 250 250 250 250 250 250 250 250 250 250 250 250 250 250 250 250 250 250 250 250 20 20 20 250 250 250 250 250 250 250 250 250 250 250 250 250 250 250 250 250 250 250 250 250 20 20 20 250 250 250 250 250 250 250 250 250 250 250 250 250 250 250 250 250 250 250 250 250 20 20 20 250 250 250 250 250 250 250 250 250 250 250 250 250 250 250 250 250 250 250 250 250 20 20 20 250 250 250 250 250 250 250 250 250 250 250 250 250 250 250 250 250 250 250 250 250 20 20 20 250 250 250 250 250 250 250 250 250 250 250 250 250 250 250 250 250 250 250 250 250 20 20 20 250 250 250 250 250 250 250 250 250 250 250 250 250 250 250 250 250 250 250 250 250 20 20 20 250 250 250 250 250 250 250 250 250 250 250 250 250 250 250 250 250 250 250 250 250 20 20 20 250 250 250 250 250 250 250 250 250 250 250 250 250 250 250 250 250 250 250 250 250 20 20 20 250 250 250 250 250 250 250 250 250 250 250 250 250 250 250 250 250 250 250 250 250 20 20 20 250 250 250 250 250 250 250 250 250 250 250 250 250 250 250 250 250 250 250 250 250 20 20 20 250 250 250 250 250 250 250 250 250 250 250 250 250 250 250 250 250 250 250 250 250 20 20 20 250 250 250 250 250 250 250 250 250 250 250 250 250 250 250 250 250 250 250 250 250 20 20 20 250 250 250 250 250 250 250 250 250 250 250 250 250 250 250 250 250 250 250 250 250 20 20 20 250 250 250 250 250 250 250 250 250 250 250 250 250 250 250 250 250 250 250 250 250 20 20 20 250 250 250 250 250 250 250 250 250 250 250 250 250 250 250 250 250 250 250 250 250 20 20 20 250 250 250 250 250 250 250 250 250 250 250 250 250 250 250 250 250 250 250 250 250 20 20 20 250 250 250 250 250 250 250 250 250 250 250 250 250 250 250 250 250 250 250 250 250 20 20 20 250 250 250 250 250 250 250 250 250 250 250 250 250 250 250 250 250 250 250 250 250 
20 20 20 250 250 250 250 250 250 250 250 250 250 250 250 250 250 250 250 250 250 250 250 250 20 20 20 250 250 250 250 250 250 250 250 250 250 250 250 250 250 250 250 250 250 250 250 250 20 20 20 250 250 250 250 250 250 250 250 250 250 250 250 250 250 250 250 250 250 250 250 250 20 20 20 250 250 250 250 250 250 250 250 250 250 250 250 250 250 250 250 250 250 250 250 250 20 20 20 250 250 250 250 250 250 250 250 250 250 250 250 250 250 250 250 250 250 250 250 250 20 20 20 250 250 250 250 250 250 250 250 250 250 250 250 250 250 250 250 250 250 250 250 250 20 20 20 250 250 250 250 250 250 250 250 250 250 250 250 250 250 250 250 250 250 250 250 250 20 20 20 250 250 250 250 250 250 250 250 250 250 250 250 250 250 250 250 250 250 250 250 250 20 20 20 250 250 250 250 250 250 250 250 250 250 250 250 250 250 250 250 250 250 250 250 250 20 20 20 250 250 250 250 250 250 250 250 250 250 250 250 250 250 250 250 250 250 250 250 250 20 20 20 250 250 250 250 250 250 250 250 250 250 250 250 250 250 250 250 250 250 250 250 250 20 20 20 250 250 250 250 250 250 250 250 250 250 250 250 250 250 250 250 250 250 250 250 250 20 20 20 250 250 250 250 250 250 250 250 250 250 250 250 250 250 250 250 250 250 250 250 250 20 20 20 250 250 250 250 250 250 250 250 250 250 250 250 250 250 250 250 250 250 250 250 250 20 20 20 250 250 250 250 250 250 250 250 250 250 250 250 250 250 250 250 250 250 250 250 250 20 20 20 250 250 250 250 250 250 250 250 250 250 250 250 250 250 250 250 250 250 250 250 250 20 20 20 250 250 250 250 250 250 250 250 250 250 250 250 250 250 250 250 250 250 250 250 250 20 20 20 250 250 250 250 250 250 250 250 250 250 250 250 250 250 250 250 250 250 250 250 250 20 20 20 250 250 250 250 250 250 250 250 250 250 250 250 250 250 250 250 250 250 250 250 250 20 20 20 250 250 250 250 250 250 250 250 250 250 250 250 250 250 250 250 250 250 250 250 250 
20 20 20 250 250 250 250 250 250 250 250 250 250 250 250 250 250 250 250 250 250 250 250 250 20 20 20 250 250 250 250 250 250 250 250 250 250 250 250 250 250 250 250 250 250 250 250 250 20 20 20 250 250 250 250 250 250 250 250 250 250 250 250 250 250 250 250 250 250 250 250 250 20 20 20 250 250 250 250 250 250 250 250 250 250 250 250 250 250 250 250 250 250 250 250 250 20 20 20 250 250 250 250 250 250 250 250 250 250 250 250 250 250 250 250 250 250 250 250 250 20 20 20 250 250 250 250 250 250 250 250 250 250 250 250 250 250 250 250 250 250 250 250 250 20 20 20 250 250 250 250 250 250 250 250 250 250 250 250 250 250 250 250 250 250 250 250 250 20 20 20 250 250 250 250 250 250 250 250 250 250 250 250 250 250 250 250 250 250 250 250 250 20 20 20 250 250 250 250 250 250 250 250 250 250 250 250 250 250 250 250 250 250 250 250 250 20 20 20 250 250 250 250 250 250 250 250 250 250 250 250 250 250 250 250 250 250 250 250 250 20 20 20 250 250 250 250 250 250 250 250 250 250 250 250 250 250 250 250 250 250 250 250 250 20 20 20 250 250 250 250 250 250 250 250 250 250 250 250 250 250 250 250 250 250 250 250 250 20 20 20 250 250 250 250 250 250 250 250 250 250 250 250 250 250 250 250 250 250 250 250 250 20 20 20 250 250 250 250 250 250 250 250 250 250 250 250 250 250 250 250 250 250 250 250 250 20 20 20 250 250 250 250 250 250 250 250 250 250 250 250 250 250 250 250 250 250 250 250 250 20 20 20 250 250 250 250 250 250 250 250 250 250 250 250 250 250 250 250 250 250 250 250 250 20 20 20 250 250 250 250 250 250 250 250 250 250 250 250 250 250 250 250 250 250 250 250 250 20 20 20 250 250 250 250 250 250 250 250 250 250 250 250 250 250 250 250 250 250 250 250 250 20 20 20 250 250 250 250 250 250 250 250 250 250 250 250 250 250 250 250 250 250 250 250 250 20 20 20 250 250 250 250 250 250 250 250 250 250 250 250 250 250 250 250 250 250 250 250 250 
20 20 20 250 250 250 250 250 250 250 250 250 250 250 250 250 250 250 250 250 250 250 250 250 20 20 20 250 250 250 250 250 250 250 250 250 250 250 250 250 250 250 250 250 250 250 250 250 20 20 20 250 250 250 250 250 250 250 250 250 250 250 250 250 250 250 250 250 250 250 250 250 20 20 20 250 250 250 250 250 250 250 250 250 250 250 250 250 250 250 250 250 250 250 250 250 20 20 20 250 250 250 250 250 250 250 250 250 250 250 250 250 250 250 250 250 250 250 250 250 20 20 20 250 250 250 250 250 250 250 250 250 250 250 250 250 250 250 250 250 250 250 250 250 20 20 20 250 250 250 250 250 250 250 250 250 250 250 250 250 250 250 250 250 250 250 250 250 20 20 20 250 250 250 250 250 250 250 250 250 250 250 250 250 250 250 250 250 250 250 250 250 20 20 20 250 250 250 250 250 250 250 250 250 250 250 250 250 250 250 250 250 250 250 250 250 20 20 20 250 250 250 250 250 250 250 250 250 250 250 250 250 250 250 250 250 250 250 250 250 20 20 20 250 250 250 250 250 250 250 250 250 250 250 250 250 250 250 250 250 250 250 250 250 20 20 20 250 250 250 250 250 250 250 250 250 250 250 250 250 250 250 250 250 250 250 250 250 20 20 20 250 250 250 250 250 250 250 250 250 250 250 250 250 250 250 250 250 250 250 250 250 20 20 20 250 250 250 250 250 250 250 250 250 250 250 250 250 250 250 250 250 250 250 250 250 20 20 20 250 250 250 250 250 250 250 250 250 250 250 250 250 250 250 250 250 250 250 250 250 20 20 20 250 250 250 250 250 250 250 250 250 250 250 250 250 250 250 250 250 250 250 250 250 20 20 20 250 250 250 250 250 250 250 250 250 250 250 250 250 250 250 250 250 250 250 250 250 20 20 20 250 250 250 250 250 250 250 250 250 250 250 250 250 250 250 250 250 250 250 250 250 20 20 20 250 250 250 250 250 250 250 250 250 250 250 250 250 250 250 250 250 250 250 250 250 20 20 20 250 250 250 250 250 250 250 250 250 250 250 250 250 250 250 250 250 250 250 250 250 
20 20 20 20 20 20 20 20 20 20 20 20 20 20 20 20 20 20 20 20 20 20 20 20 20 20 20 20 20 20 20 20 20 20 20 20 20 20 20 20 20 20 20 20 20 20 20 20 20 20 20 20 20 20 20 20 20 20 20 20 20 20 20 20 20 20 20 20 20 20 20 20 20 20 20 20 20 20 20 20 20 20 20 20 20 20 20 20 20 20 20 20 20 20 20 20 20 20 20 20 20 20 20 20 20 20 20 20 20 20 20 20 20 20 20 20 20 20 20 20 20 20 20 20 20 20 20 20 20 20 20 20 20 20 20 20 20 20 20 20 20 20 20 20 20 20 20 20 20 20 20 20 20 20 20 20 20 20 20 20 20 20 20 20 20 20 20 20 20 20 20 20 20 20 20 20 20 20 20 20 20 20 20 20 20 20 20 20 20 20 20 20 20 20 20 20 20 20 20 20 20 20 20 20 20 20 20 20 20 20 20 20 20 20 20 20 20 20 20 20 20 20 20 20 20 20 20 20 20 20 20 20 20 20 20 20 20 20 20 20 20 20 20 20 20 20 20 20 20 20 20 20 20 20 20 20 20 20 20 20 20 20 20 20 20 20 20 20 20 20 20 20 20 20 20 20 20 20 20 20 20 20 20 20 20 20 20 20 20 20 20 20 20 20 20 20 20 20 20 20 20 20 20 20 20 20 20 20 20 20 20 20 20 20 20 20 20 20 20 20 20 20 20 20 20 20 20 20 20 20 20 20 20 20 20 20 20 20 20 20 20 20 20 20 20 20 20 20 20 20 20 20 20 20 20 20 20 20 20 20 20 20 20 20 20 20 20 20 20 20 20 20 20 20 20 20 20 20 20 20 20 20 20 20 20 20 20 20 20 20 20 20 20 20 20 20 20 20 20 20 20 20 20 20 20 20 20 20 20 20 20 20 20 20 20 20 20 20 20 20 20 20 20 20 20 20 20 20 20 20 20 20 20 20 20 20 20 20 20 20 20 20 20 20 20 20 20 20 20 20 20 20 20 20 20 20 20 20 20 20 20 20 20 20 20 20 20 20 20 20 20 20 20 20 20 20 20 20 20 20 
20 20 20 250 250 250 250 250 250 250 250 250 250 250 250 250 250 250 250 250 250 250 250 250 20 20 20 250 250 250 250 250 250 250 250 250 250 250 250 250 250 250 250 250 250 250 250 250 20 20 20 250 250 250 250 250 250 250 250 250 250 250 250 250 250 250 250 250 250 250 250 250 20 20 20 250 250 250 250 250 250 250 250 250 250 250 250 250 250 250 250 250 250 250 250 250 20 20 20 250 250 250 250 250 250 250 250 250 250 250 250 250 250 250 250 250 250 250 250 250 20 20 20 250 250 250 250 250 250 250 250 250 250 250 250 250 250 250 250 250 250 250 250 250 20 20 20 250 250 250 250 250 250 250 250 250 250 250 250 250 250 250 250 250 250 250 250 250 20 20 20 250 250 250 250 250 250 250 250 250 250 250 250 250 250 250 250 250 250 250 250 250 20 20 20 250 250 250 250 250 250 250 250 250 250 250 250 250 250 250 250 250 250 250 250 250 20 20 20 250 250 250 250 250 250 250 250 250 250 250 250 250 250 250 250 250 250 250 250 250 20 20 20 250 250 250 250 250 250 250 250 250 250 250 250 250 250 250 250 250 250 250 250 250 20 20 20 250 250 250 250 250 250 250 250 250 250 250 250 250 250 250 250 250 250 250 250 250 20 20 20 250 250 250 250 250 250 250 250 250 250 250 250 250 250 250 250 250 250 250 250 250 20 20 20 250 250 250 250 250 250 250 250 250 250 250 250 250 250 250 250 250 250 250 250 250 20 20 20 250 250 250 250 250 250 250 250 250 250 250 250 250 250 250 250 250 250 250 250 250 20 20 20 250 250 250 250 250 250 250 250 250 250 250 250 250 250 250 250 250 250 250 250 250 20 20 20 250 250 250 250 250 250 250 250 250 250 250 250 250 250 250 250 250 250 250 250 250 20 20 20 250 250 250 250 250 250 250 250 250 250 250 250 250 250 250 250 250 250 250 250 250 20 20 20 250 250 250 250 250 250 250 250 250 250 250 250 250 250 250 250 250 250 250 250 250 20 20 20 250 250 250 250 250 250 250 250 250 250 250 250 250 250 250 250 250 250 250 250 250 
20 20 20 250 250 250 250 250 250 250 250 250 250 250 250 250 250 250 250 250 250 250 250 250 20 20 20 250 250 250 250 250 250 250 250 250 250 250 250 250 250 250 250 250 250 250 250 250 20 20 20 250 250 250 250 250 250 250 250 250 250 250 250 250 250 250 250 250 250 250 250 250 20 20 20 250 250 250 250 250 250 250 250 250 250 250 250 250 250 250 250 250 250 250 250 250 20 20 20 250 250 250 250 250 250 250 250 250 250 250 250 250 250 250 250 250 250 250 250 250 20 20 20 250 250 250 250 250 250 250 250 250 250 250 250 250 250 250 250 250 250 250 250 250 20 20 20 250 250 250 250 250 250 250 250 250 250 250 250 250 250 250 250 250 250 250 250 250 20 20 20 250 250 250 250 250 250 250 250 250 250 250 250 250 250 250 250 250 250 250 250 250 20 20 20 250 250 250 250 250 250 250 250 250 250 250 250 250 250 250 250 250 250 250 250 250 20 20 20 250 250 250 250 250 250 250 250 250 250 250 250 250 250 250 250 250 250 250 250 250 20 20 20 250 250 250 250 250 250 250 250 250 250 250 250 250 250 250 250 250 250 250 250 250 20 20 20 250 250 250 250 250 250 250 250 250 250 250 250 250 250 250 250 250 250 250 250 250 20 20 20 250 250 250 250 250 250 250 250 250 250 250 250 250 250 250 250 250 250 250 250 250 20 20 20 250 250 250 250 250 250 250 250 250 250 250 250 250 250 250 250 250 250 250 250 250 20 20 20 250 250 250 250 250 250 250 250 250 250 250 250 250 250 250 250 250 250 250 250 250 20 20 20 250 250 250 250 250 250 250 250 250 250 250 250 250 250 250 250 250 250 250 250 250 20 20 20 250 250 250 250 250 250 250 250 250 250 250 250 250 250 250 250 250 250 250 250 250 20 20 20 250 250 250 250 250 250 250 250 250 250 250 250 250 250 250 250 250 250 250 250 250 20 20 20 250 250 250 250 250 250 250 250 250 250 250 250 250 250 250 250 250 250 250 250 250 20 20 20 250 250 250 250 250 250 250 250 250 250 250 250 250 250 250 250 250 250 250 250 250 
20 20 20 250 250 250 250 250 250 250 250 250 250 250 250 250 250 250 250 250 250 250 250 250 20 20 20 250 250 250 250 250 250 250 250 250 250 250 250 250 250 250 250 250 250 250 250 250 20 20 20 250 250 250 250 250 250 250 250 250 250 250 250 250 250 250 250 250 250 250 250 250 20 20 20 250 250 250 250 250 250 250 250 250 250 250 250 250 250 250 250 250 250 250 250 250 20 20 20 250 250 250 250 250 250 250 250 250 250 250 250 250 250 250 250 250 250 250 250 250 20 20 20 250 250 250 250 250 250 250 250 250 250 250 250 250 250 250 250 250 250 250 250 250 20 20 20 250 250 250 250 250 250 250 250 250 250 250 250 250 250 250 250 250 250 250 250 250 20 20 20 250 250 250 250 250 250 250 250 250 250 250 250 250 250 250 250 250 250 250 250 250 20 20 20 250 250 250 250 250 250 250 250 250 250 250 250 250 250 250 250 250 250 250 250 250 20 20 20 250 250 250 250 250 250 250 250 250 250 250 250 250 250 250 250 250 250 250 250 250 20 20 20 250 250 250 250 250 250 250 250 250 250 250 250 250 250 250 250 250 250 250 250 250 20 20 20 250 250 250 250 250 250 250 250 250 250 250 250 250 250 250 250 250 250 250 250 250 20 20 20 250 250 250 250 250 250 250 250 250 250 250 250 250 250 250 250 250 250 250 250 250 20 20 20 250 250 250 250 250 250 250 250 250 250 250 250 250 250 250 250 250 250 250 250 250 20 20 20 250 250 250 250 250 250 250 250 250 250 250 250 250 250 250 250 250 250 250 250 250 20 20 20 250 250 250 250 250 250 250 250 250 250 250 250 250 250 250 250 250 250 250 250 250 20 20 20 250 250 250 250 250 250 250 250 250 250 250 250 250 250 250 250 250 250 250 250 250 20 20 20 250 250 250 250 250 250 250 250 250 250 250 250 250 250 250 250 250 250 250 250 250 20 20 20 250 250 250 250 250 250 250 250 250 250 250 250 250 250 250 250 250 250 250 250 250 20 20 20 250 250 250 250 250 250 250 250 250 250 250 250 250 250 250 250 250 250 250 250 250 
20 20 20 250 250 250 250 250 250 250 250 250 250 250 250 250 250 250 250 250 250 250 250 250 20 20 20 250 250 250 250 250 250 250 250 250 250 250 250 250 250 250 250 250 250 250 250 250 20 20 20 250 250 250 250 250 250 250 250 250 250 250 250 250 250 250 250 250 250 250 250 250 20 20 20 250 250 250 250 250 250 250 250 250 250 250 250 250 250 250 250 250 250 250 250 250 20 20 20 250 250 250 250 250 250 250 250 250 250 250 250 250 250 250 250 250 250 250 250 250 20 20 20 250 250 250 250 250 250 250 250 250 250 250 250 250 250 250 250 250 250 250 250 250 20 20 20 250 250 250 250 250 250 250 250 250 250 250 250 250 250 250 250 250 250 250 250 250 20 20 20 250 250 250 250 250 250 250 250 250 250 250 250 250 250 250 250 250 250 250 250 250 20 20 20 250 250 250 250 250 250 250 250 250 250 250 250 250 250 250 250 250 250 250 250 250 20 20 20 250 250 250 250 250 250 250 250 250 250 250 250 250 250 250 250 250 250 250 250 250 20 20 20 250 250 250 250 250 250 250 250 250 250 250 250 250 250 250 250 250 250 250 250 250 20 20 20 250 250 250 250 250 250 250 250 250 250 250 250 250 250 250 250 250 250 250 250 250 20 20 20 250 250 250 250 250 250 250 250 250 250 250 250 250 250 250 250 250 250 250 250 250 20 20 20 250 250 250 250 250 250 250 250 250 250 250 250 250 250 250 250 250 250 250 250 250 20 20 20 250 250 250 250 250 250 250 250 250 250 250 250 250 250 250 250 250 250 250 250 250 20 20 20 250 250 250 250 250 250 250 250 250 250 250 250 250 250 250 250 250 250 250 250 250 20 20 20 250 250 250 250 250 250 250 250 250 250 250 250 250 250 250 250 250 250 250 250 250 20 20 20 250 250 250 250 250 250 250 250 250 250 250 250 250 250 250 250 250 250 250 250 250 20 20 20 250 250 250 250 250 250 250 250 250 250 250 250 250 250 250 250 250 250 250 250 250 20 20 20 250 250 250 250 250 250 250 250 250 250 250 250 250 250 250 250 250 250 250 250 250 
20 20 20 250 250 250 250 250 250 250 250 250 250 250 250 250 250 250 250 250 250 250 250 250 20 20 20 250 250 250 250 250 250 250 250 250 250 250 250 250 250 250 250 250 250 250 250 250 20 20 20 250 250 250 250 250 250 250 250 250 250 250 250 250 250 250 250 250 250 250 250 250 20 20 20 250 250 250 250 250 250 250 250 250 250 250 250 250 250 250 250 250 250 250 250 250 20 20 20 250 250 250 250 250 250 250 250 250 250 250 250 250 250 250 250 250 250 250 250 250 20 20 20 250 250 250 250 250 250 250 250 250 250 250 250 250 250 250 250 250 250 250 250 250 20 20 20 250 250 250 250 250 250 250 250 250 250 250 250 250 250 250 250 250 250 250 250 250 20 20 20 250 250 250 250 250 250 250 250 250 250 250 250 250 250 250 250 250 250 250 250 250 20 20 20 250 250 250 250 250 250 250 250 250 250 250 250 250 250 250 250 250 250 250 250 250 20 20 20 250 250 250 250 250 250 250 250 250 250 250 250 250 250 250 250 250 250 250 250 250 20 20 20 250 250 250 250 250 250 250 250 250 250 250 250 250 250 250 250 250 250 250 250 250 20 20 20 250 250 250 250 250 250 250 250 250 250 250 250 250 250 250 250 250 250 250 250 250 20 20 20 250 250 250 250 250 250 250 250 250 250 250 250 250 250 250 250 250 250 250 250 250 20 20 20 250 250 250 250 250 250 250 250 250 250 250 250 250 250 250 250 250 250 250 250 250 20 20 20 250 250 250 250 250 250 250 250 250 250 250 250 250 250 250 250 250 250 250 250 250 20 20 20 250 250 250 250 250 250 250 250 250 250 250 250 250 250 250 250 250 250 250 250 250 20 20 20 250 250 250 250 250 250 250 250 250 250 250 250 250 250 250 250 250 250 250 250 250 20 20 20 250 250 250 250 250 250 250 250 250 250 250 250 250 250 250 250 250 250 250 250 250 20 20 20 250 250 250 250 250 250 250 250 250 250 250 250 250 250 250 250 250 250 250 250 250 20 20 20 250 250 250 250 250 250 250 250 250 250 250 250 250 250 250 250 250 250 250 250 250 
20 20 20 250 250 250 250 250 250 250 250 250 250 250 250 250 250 250 250 250 250 250 250 250 20 20 20 250 250 250 250 250 250 250 250 250 250 250 250 250 250 250 250 250 250 250 250 250 20 20 20 250 250 250 250 250 250 250 250 250 250 250 250 250 250 250 250 250 250 250 250 250 20 20 20 250 250 250 250 250 250 250 250 250 250 250 250 250 250 250 250 250 250 250 250 250 20 20 20 250 250 250 250 250 250 250 250 250 250 250 250 250 250 250 250 250 250 250 250 250 20 20 20 250 250 250 250 250 250 250 250 250 250 250 250 250 250 250 250 250 250 250 250 250 20 20 20 250 250 250 250 250 250 250 250 250 250 250 250 250 250 250 250 250 250 250 250 250 20 20 20 250 250 250 250 250 250 250 250 250 250 250 250 250 250 250 250 250 250 250 250 250 20 20 20 250 250 250 250 250 250 250 250 250 250 250 250 250 250 250 250 250 250 250 250 250 20 20 20 250 250 250 250 250 250 250 250 250 250 250 250 250 250 250 250 250 250 250 250 250 20 20 20 250 250 250 250 250 250 250 250 250 250 250 250 250 250 250 250 250 250 250 250 250 20 20 20 250 250 250 250 250 250 250 250 250 250 250 250 250 250 250 250 250 250 250 250 250 20 20 20 250 250 250 250 250 250 250 250 250 250 250 250 250 250 250 250 250 250 250 250 250 20 20 20 250 250 250 250 250 250 250 250 250 250 250 250 250 250 250 250 250 250 250 250 250 20 20 20 250 250 250 250 250 250 250 250 250 250 250 250 250 250 250 250 250 250 250 250 250 20 20 20 250 250 250 250 250 250 250 250 250 250 250 250 250 250 250 250 250 250 250 250 250 20 20 20 250 250 250 250 250 250 250 250 250 250 250 250 250 250 250 250 250 250 250 250 250 20 20 20 250 250 250 250 250 250 250 250 250 250 250 250 250 250 250 250 250 250 250 250 250 20 20 20 250 250 250 250 250 250 250 250 250 250 250 250 250 250 250 250 250 250 250 250 250 20 20 20 250 250 250 250 250 250 250 250 250 250 250 250 250 250 250 250 250 250 250 250 250 
20 20 20 250 250 250 250 250 250 250 250 250 250 250 250 250 250 250 250 250 250 250 250 250 20 20 20 250 250 250 250 250 250 250 250 250 250 250 250 250 250 250 250 250 250 250 250 250 20 20 20 250 250 250 250 250 250 250 250 250 250 250 250 250 250 250 250 250 250 250 250 250 20 20 20 250 250 250 250 250 250 250 250 250 250 250 250 250 250 250 250 250 250 250 250 250 20 20 20 250 250 250 250 250 250 250 250 250 250 250 250 250 250 250 250 250 250 250 250 250 20 20 20 250 250 250 250 250 250 250 250 250 250 250 250 250 250 250 250 250 250 250 250 250 20 20 20 250 250 250 250 250 250 250 250 250 250 250 250 250 250 250 250 250 250 250 250 250 20 20 20 250 250 250 250 250 250 250 250 250 250 250 250 250 250 250 250 250 250 250 250 250 20 20 20 250 250 250 250 250 250 250 250 250 250 250 250 250 250 250 250 250 250 250 250 250 20 20 20 250 250 250 250 250 250 250 250 250 250 250 250 250 250 250 250 250 250 250 250 250 20 20 20 250 250 250 250 250 250 250 250 250 250 250 250 250 250 250 250 250 250 250 250 250 20 20 20 250 250 250 250 250 250 250 250 250 250 250 250 250 250 250 250 250 250 250 250 250 20 20 20 250 250 250 250 250 250 250 250 250 250 250 250 250 250 250 250 250 250 250 250 250 20 20 20 250 250 250 250 250 250 250 250 250 250 250 250 250 250 250 250 250 250 250 250 250 20 20 20 250 250 250 250 250 250 250 250 250 250 250 250 250 250 250 250 250 250 250 250 250 20 20 20 250 250 250 250 250 250 250 250 250 250 250 250 250 250 250 250 250 250 250 250 250 20 20 20 250 250 250 250 250 250 250 250 250 250 250 250 250 250 250 250 250 250 250 250 250 20 20 20 250 250 250 250 250 250 250 250 250 250 250 250 250 250 250 250 250 250 250 250 250 20 20 20 250 250 250 250 250 250 250 250 250 250 250 250 250 250 250 250 250 250 250 250 250 20 20 20 250 250 250 250 250 250 250 250 250 250 250 250 250 250 250 250 250 250 250 250 250 
20 20 20 20 20 20 20 20 20 20 20 20 20 20 20 20 20 20 20 20 20 20 20 20 20 20 20 20 20 20 20 20 20 20 20 20 20 20 20 20 20 20 20 20 20 20 20 20 20 20 20 20 20 20 20 20 20 20 20 20 20 20 20 20 20 20 20 20 20 20 20 20 20 20 20 20 20 20 20 20 20 20 20 20 20 20 20 20 20 20 20 20 20 20 20 20 20 20 20 20 20 20 20 20 20 20 20 20 20 20 20 20 20 20 20 20 20 20 20 20 20 20 20 20 20 20 20 20 20 20 20 20 20 20 20 20 20 20 20 20 20 20 20 20 20 20 20 20 20 20 20 20 20 20 20 20 20 20 20 20 20 20 20 20 20 20 20 20 20 20 20 20 20 20 20 20 20 20 20 20 20 20 20 20 20 20 20 20 20 20 20 20 20 20 20 20 20 20 20 20 20 20 20 20 20 20 20 20 20 20 20 20 20 20 20 20 20 20 20 20 20 20 20 20 20 20 20 20 20 20 20 20 20 20 20 20 20 20 20 20 20 20 20 20 20 20 20 20 20 20 20 20 20 20 20 20 20 20 20 20 20 20 20 20 20 20 20 20 20 20 20 20 20 20 20 20 20 20 20 20 20 20 20 20 20 20 20 20 20 20 20 20 20 20 20 20 20 20 20 20 20 20 20 20 20 20 20 20 20 20 20 20 20 20 20 20 20 20 20 20 20 20 20 20 20 20 20 20 20 20 20 20 20 20 20 20 20 20 20 20 20 20 20 20 20 20 20 20 20 20 20 20 20 20 20 20 20 20 20 20 20 20 20 20 20 20 20 20 20 20 20 20 20 20 20 20 20 20 20 20 20 20 20 20 20 20 20 20 20 20 20 20 20 20 20 20 20 20 20 20 20 20 20 20 20 20 20 20 20 20 20 20 20 20 20 20 20 20 20 20 20 20 20 20 20 20 20 20 20 20 20 20 20 20 20 20 20 20 20 20 20 20 20 20 20 20 20 20 20 20 20 20 20 20 20 20 20 20 20 20 20 20 20 20 20 20 20 20 20 20 20 20 20 20 20 20 20 20 20 20 
20 20 20 250 250 250 250 250 250 250 250 250 250 250 250 250 250 250 250 250 250 250 250 250 20 20 20 250 250 250 250 250 250 250 250 250 250 250 250 250 250 250 250 250 250 250 250 250 20 20 20 250 250 250 250 250 250 250 250 250 250 250 250 250 250 250 250 250 250 250 250 250 20 20 20 250 250 250 250 250 250 250 250 250 250 250 250 250 250 250 250 250 250 250 250 250 20 20 20 250 250 250 250 250 250 250 250 250 250 250 250 250 250 250 250 250 250 250 250 250 20 20 20 250 250 250 250 250 250 250 250 250 250 250 250 250 250 250 250 250 250 250 250 250 20 20 20 250 250 250 250 250 250 250 250 250 250 250 250 250 250 250 250 250 250 250 250 250 20 20 20 250 250 250 250 250 250 250 250 250 250 250 250 250 250 250 250 250 250 250 250 250 20 20 20 250 250 250 250 250 250 250 250 250 250 250 250 250 250 250 250 250 250 250 250 250 20 20 20 250 250 250 250 250 250 250 250 250 250 250 250 250 250 250 250 250 250 250 250 250 20 20 20 250 250 250 250 250 250 250 250 250 250 250 250 250 250 250 250 250 250 250 250 250 20 20 20 250 250 250 250 250 250 250 250 250 250 250 250 250 250 250 250 250 250 250 250 250 20 20 20 250 250 250 250 250 250 250 250 250 250 250 250 250 250 250 250 250 250 250 250 250 20 20 20 250 250 250 250 250 250 250 250 250 250 250 250 250 250 250 250 250 250 250 250 250 20 20 20 250 250 250 250 250 250 250 250 250 250 250 250 250 250 250 250 250 250 250 250 250 20 20 20 250 250 250 250 250 250 250 250 250 250 250 250 250 250 250 250 250 250 250 250 250 20 20 20 250 250 250 250 250 250 250 250 250 250 250 250 250 250 250 250 250 250 250 250 250 20 20 20 250 250 250 250 250 250 250 250 250 250 250 250 250 250 250 250 250 250 250 250 250 20 20 20 250 250 250 250 250 250 250 250 250 250 250 250 250 250 250 250 250 250 250 250 250 20 20 20 250 250 250 250 250 250 250 250 250 250 250 250 250 250 250 250 250 250 250 250 250 
20 20 20 250 250 250 250 250 250 250 250 250 250 250 250 250 250 250 250 250 250 250 250 250 20 20 20 250 250 250 250 250 250 250 250 250 250 250 250 250 250 250 250 250 250 250 250 250 20 20 20 250 250 250 250 250 250 250 250 250 250 250 250 250 250 250 250 250 250 250 250 250 20 20 20 250 250 250 250 250 250 250 250 250 250 250 250 250 250 250 250 250 250 250 250 250 20 20 20 250 250 250 250 250 250 250 250 250 250 250 250 250 250 250 250 250 250 250 250 250 20 20 20 250 250 250 250 250 250 250 250 250 250 250 250 250 250 250 250 250 250 250 250 250 20 20 20 250 250 250 250 250 250 250 250 250 250 250 250 250 250 250 250 250 250 250 250 250 20 20 20 250 250 250 250 250 250 250 250 250 250 250 250 250 250 250 250 250 250 250 250 250 20 20 20 250 250 250 250 250 250 250 250 250 250 250 250 250 250 250 250 250 250 250 250 250 20 20 20 250 250 250 250 250 250 250 250 250 250 250 250 250 250 250 250 250 250 250 250 250 20 20 20 250 250 250 250 250 250 250 250 250 250 250 250 250 250 250 250 250 250 250 250 250 20 20 20 250 250 250 250 250 250 250 250 250 250 250 250 250 250 250 250 250 250 250 250 250 20 20 20 250 250 250 250 250 250 250 250 250 250 250 250 250 250 250 250 250 250 250 250 250 20 20 20 250 250 250 250 250 250 250 250 250 250 250 250 250 250 250 250 250 250 250 250 250 20 20 20 250 250 250 250 250 250 250 250 250 250 250 250 250 250 250 250 250 250 250 250 250 20 20 20 250 250 250 250 250 250 250 250 250 250 250 250 250 250 250 250 250 250 250 250 250 20 20 20 250 250 250 250 250 250 250 250 250 250 250 250 250 250 250 250 250 250 250 250 250 20 20 20 250 250 250 250 250 250 250 250 250 250 250 250 250 250 250 250 250 250 250 250 250 20 20 20 250 250 250 250 250 250 250 250 250 250 250 250 250 250 250 250 250 250 250 250 250 20 20 20 250 250 250 250 250 250 250 250 250 250 250 250 250 250 250 250 250 250 250 250 250 
20 20 20 250 250 250 250 250 250 250 250 250 250 250 250 250 250 250 250 250 250 250 250 250 20 20 20 250 250 250 250 250 250 250 250 250 250 250 250 250 250 250 250 250 250 250 250 250 20 20 20 250 250 250 250 250 250 250 250 250 250 250 250 250 250 250 250 250 250 250 250 250 20 20 20 250 250 250 250 250 250 250 250 250 250 250 250 250 250 250 250 250 250 250 250 250 20 20 20 250 250 250 250 250 250 250 250 250 250 250 250 250 250 250 250 250 250 250 250 250 20 20 20 250 250 250 250 250 250 250 250 250 250 250 250 250 250 250 250 250 250 250 250 250 20 20 20 250 250 250 250 250 250 250 250 250 250 250 250 250 250 250 250 250 250 250 250 250 20 20 20 250 250 250 250 250 250 250 250 250 250 250 250 250 250 250 250 250 250 250 250 250 20 20 20 250 250 250 250 250 250 250 250 250 250 250 250 250 250 250 250 250 250 250 250 250 20 20 20 250 250 250 250 250 250 250 250 250 250 250 250 250 250 250 250 250 250 250 250 250 20 20 20 250 250 250 250 250 250 250 250 250 250 250 250 250 250 250 250 250 250 250 250 250 20 20 20 250 250 250 250 250 250 250 250 250 250 250 250 250 250 250 250 250 250 250 250 250 20 20 20 250 250 250 250 250 250 250 250 250 250 250 250 250 250 250 250 250 250 250 250 250 20 20 20 250 250 250 250 250 250 250 250 250 250 250 250 250 250 250 250 250 250 250 250 250 20 20 20 250 250 250 250 250 250 250 250 250 250 250 250 250 250 250 250 250 250 250 250 250 20 20 20 250 250 250 250 250 250 250 250 250 250 250 250 250 250 250 250 250 250 250 250 250 20 20 20 250 250 250 250 250 250 250 250 250 250 250 250 250 250 250 250 250 250 250 250 250 20 20 20 250 250 250 250 250 250 250 250 250 250 250 250 250 250 250 250 250 250 250 250 250 20 20 20 250 250 250 250 250 250 250 250 250 250 250 250 250 250 250 250 250 250 250 250 250 20 20 20 250 250 250 250 250 250 250 250 250 250 250 250 250 250 250 250 250 250 250 250 250 
20 20 20 250 250 250 250 250 250 250 250 250 250 250 250 250 250 250 250 250 250 250 250 250 20 20 20 250 250 250 250 250 250 250 250 250 250 250 250 250 250 250 250 250 250 250 250 250 20 20 20 250 250 250 250 250 250 250 250 250 250 250 250 250 250 250 250 250 250 250 250 250 20 20 20 250 250 250 250 250 250 250 250 250 250 250 250 250 250 250 250 250 250 250 250 250 20 20 20 250 250 250 250 250 250 250 250 250 250 250 250 250 250 250 250 250 250 250 250 250 20 20 20 250 250 250 250 250 250 250 250 250 250 250 250 250 250 250 250 250 250 250 250 250 20 20 20 250 250 250 250 250 250 250 250 250 250 250 250 250 250 250 250 250 250 250 250 250 20 20 20 250 250 250 250 250 250 250 250 250 250 250 250 250 250 250 250 250 250 250 250 250 20 20 20 250 250 250 250 250 250 250 250 250 250 250 250 250 250 250 250 250 250 250 250 250 20 20 20 250 250 250 250 250 250 250 250 250 250 250 250 250 250 250 250 250 250 250 250 250 20 20 20 250 250 250 250 250 250 250 250 250 250 250 250 250 250 250 250 250 250 250 250 250 20 20 20 250 250 250 250 250 250 250 250 250 250 250 250 250 250 250 250 250 250 250 250 250 20 20 20 250 250 250 250 250 250 250 250 250 250 250 250 250 250 250 250 250 250 250 250 250 20 20 20 250 250 250 250 250 250 250 250 250 250 250 250 250 250 250 250 250 250 250 250 250 20 20 20 250 250 250 250 250 250 250 250 250 250 250 250 250 250 250 250 250 250 250 250 250 20 20 20 250 250 250 250 250 250 250 250 250 250 250 250 250 250 250 250 250 250 250 250 250 20 20 20 250 250 250 250 250 250 250 250 250 250 250 250 250 250 250 250 250 250 250 250 250 20 20 20 250 250 250 250 250 250 250 250 250 250 250 250 250 250 250 250 250 250 250 250 250 20 20 20 250 250 250 250 250 250 250 250 250 250 250 250 250 250 250 250 250 250 250 250 250 20 20 20 250 250 250 250 250 250 250 250 250 250 250 250 250 250 250 250 250 250 250 250 250 
20 20 20 250 250 250 250 250 250 250 250 250 250 250 250 250 250 250 250 250 250 250 250 250 20 20 20 250 250 250 250 250 250 250 250 250 250 250 250 250 250 250 250 250 250 250 250 250 20 20 20 250 250 250 250 250 250 250 250 250 250 250 250 250 250 250 250 250 250 250 250 250 20 20 20 250 250 250 250 250 250 250 250 250 250 250 250 250 250 250 250 250 250 250 250 250 20 20 20 250 250 250 250 250 250 250 250 250 250 250 250 250 250 250 250 250 250 250 250 250 20 20 20 250 250 250 250 250 250 250 250 250 250 250 250 250 250 250 250 250 250 250 250 250 20 20 20 250 250 250 250 250 250 250 250 250 250 250 250 250 250 250 250 250 250 250 250 250 20 20 20 250 250 250 250 250 250 250 250 250 250 250 250 250 250 250 250 250 250 250 250 250 20 20 20 250 250 250 250 250 250 250 250 250 250 250 250 250 250 250 250 250 250 250 250 250 20 20 20 250 250 250 250 250 250 250 250 250 250 250 250 250 250 250 250 250 250 250 250 250 20 20 20 250 250 250 250 250 250 250 250 250 250 250 250 250 250 250 250 250 250 250 250 250 20 20 20 250 250 250 250 250 250 250 250 250 250 250 250 250 250 250 250 250 250 250 250 250 20 20 20 250 250 250 250 250 250 250 250 250 250 250 250 250 250 250 250 250 250 250 250 250 20 20 20 250 250 250 250 250 250 250 250 250 250 250 250 250 250 250 250 250 250 250 250 250 20 20 20 250 250 250 250 250 250 250 250 250 250 250 250 250 250 250 250 250 250 250 250 250 20 20 20 250 250 250 250 250 250 250 250 250 250 250 250 250 250 250 250 250 250 250 250 250 20 20 20 250 250 250 250 250 250 250 250 250 250 250 250 250 250 250 250 250 250 250 250 250 20 20 20 250 250 250 250 250 250 250 250 250 250 250 250 250 250 250 250 250 250 250 250 250 20 20 20 250 250 250 250 250 250 250 250 250 250 250 250 250 250 250 250 250 250 250 250 250 20 20 20 250 250 250 250 250 250 250 250 250 250 250 250 250 250 250 250 250 250 250 250 250 
20 20 20 250 250 250 250 250 250 250 250 250 250 250 250 250 250 250 250 250 250 250 250 250 20 20 20 250 250 250 250 250 250 250 250 250 250 250 250 250 250 250 250 250 250 250 250 250 20 20 20 250 250 250 250 250 250 250 250 250 250 250 250 250 250 250 250 250 250 250 250 250 20 20 20 250 250 250 250 250 250 250 250 250 250 250 250 250 250 250 250 250 250 250 250 250 20 20 20 250 250 250 250 250 250 250 250 250 250 250 250 250 250 250 250 250 250 250 250 250 20 20 20 250 250 250 250 250 250 250 250 250 250 250 250 250 250 250 250 250 250 250 250 250 20 20 20 250 250 250 250 250 250 250 250 250 250 250 250 250 250 250 250 250 250 250 250 250 20 20 20 250 250 250 250 250 250 250 250 250 250 250 250 250 250 250 250 250 250 250 250 250 20 20 20 250 250 250 250 250 250 250 250 250 250 250 250 250 250 250 250 250 250 250 250 250 20 20 20 250 250 250 250 250 250 250 250 250 250 250 250 250 250 250 250 250 250 250 250 250 20 20 20 250 250 250 250 250 250 250 250 250 250 250 250 250 250 250 250 250 250 250 250 250 20 20 20 250 250 250 250 250 250 250 250 250 250 250 250 250 250 250 250 250 250 250 250 250 20 20 20 250 250 250 250 250 250 250 250 250 250 250 250 250 250 250 250 250 250 250 250 250 20 20 20 250 250 250 250 250 250 250 250 250 250 250 250 250 250 250 250 250 250 250 250 250 20 20 20 250 250 250 250 250 250 250 250 250 250 250 250 250 250 250 250 250 250 250 250 250 20 20 20 250 250 250 250 250 250 250 250 250 250 250 250 250 250 250 250 250 250 250 250 250 20 20 20 250 250 250 250 250 250 250 250 250 250 250 250 250 250 250 250 250 250 250 250 250 20 20 20 250 250 250 250 250 250 250 250 250 250 250 250 250 250 250 250 250 250 250 250 250 20 20 20 250 250 250 250 250 250 250 250 250 250 250 250 250 250 250 250 250 250 250 250 250 20 20 20 250 250 250 250 250 250 250 250 250 250 250 250 250 250 250 250 250 250 250 250 250 
20 20 20 250 250 250 250 250 250 250 250 250 250 250 250 250 250 250 250 250 250 250 250 250 20 20 20 250 250 250 250 250 250 250 250 250 250 250 250 250 250 250 250 250 250 250 250 250 20 20 20 250 250 250 250 250 250 250 250 250 250 250 250 250 250 250 250 250 250 250 250 250 20 20 20 250 250 250 250 250 250 250 250 250 250 250 250 250 250 250 250 250 250 250 250 250 20 20 20 250 250 250 250 250 250 250 250 250 250 250 250 250 250 250 250 250 250 250 250 250 20 20 20 250 250 250 250 250 250 250 250 250 250 250 250 250 250 250 250 250 250 250 250 250 20 20 20 250 250 250 250 250 250 250 250 250 250 250 250 250 250 250 250 250 250 250 250 250 20 20 20 250 250 250 250 250 250 250 250 250 250 250 250 250 250 250 250 250 250 250 250 250 20 20 20 250 250 250 250 250 250 250 250 250 250 250 250 250 250 250 250 250 250 250 250 250 20 20 20 250 250 250 250 250 250 250 250 250 250 250 250 250 250 250 250 250 250 250 250 250 20 20 20 250 250 250 250 250 250 250 250 250 250 250 250 250 250 250 250 250 250 250 250 250 20 20 20 250 250 250 250 250 250 250 250 250 250 250 250 250 250 250 250 250 250 250 250 250 20 20 20 250 250 250 250 250 250 250 250 250 250 250 250 250 250 250 250 250 250 250 250 250 20 20 20 250 250 250 250 250 250 250 250 250 250 250 250 250 250 250 250 250 250 250 250 250 20 20 20 250 250 250 250 250 250 250 250 250 250 250 250 250 250 250 250 250 250 250 250 250 20 20 20 250 250 250 250 250 250 250 250 250 250 250 250 250 250 250 250 250 250 250 250 250 20 20 20 250 250 250 250 250 250 250 250 250 250 250 250 250 250 250 250 250 250 250 250 250 20 20 20 250 250 250 250 250 250 250 250 250 250 250 250 250 250 250 250 250 250 250 250 250 20 20 20 250 250 250 250 250 250 250 250 250 250 250 250 250 250 250 250 250 250 250 250 250 20 20 20 250 250 250 250 250 250 250 250 250 250 250 250 250 250 250 250 250 250 250 250 250 
20 20 20 20 20 20 20 20 20 20 20 20 20 20 20 20 20 20 20 20 20 20 20 20 20 20 20 20 20 20 20 20 20 20 20 20 20 20 20 20 20 20 20 20 20 20 20 20 20 20 20 20 20 20 20 20 20 20 20 20 20 20 20 20 20 20 20 20 20 20 20 20 20 20 20 20 20 20 20 20 20 20 20 20 20 20 20 20 20 20 20 20 20 20 20 20 20 20 20 20 20 20 20 20 20 20 20 20 20 20 20 20 20 20 20 20 20 20 20 20 20 20 20 20 20 20 20 20 20 20 20 20 20 20 20 20 20 20 20 20 20 20 20 20 20 20 20 20 20 20 20 20 20 20 20 20 20 20 20 20 20 20 20 20 20 20 20 20 20 20 20 20 20 20 20 20 20 20 20 20 20 20 20 20 20 20 20 20 20 20 20 20 20 20 20 20 20 20 20 20 20 20 20 20 20 20 20 20 20 20 20 20 20 20 20 20 20 20 20 20 20 20 20 20 20 20 20 20 20 20 20 20 20 20 20 20 20 20 20 20 20 20 20 20 20 20 20 20 20 20 20 20 20 20 20 20 20 20 20 20 20 20 20 20 20 20 20 20 20 20 20 20 20 20 20 20 20 20 20 20 20 20 20 20 20 20 20 20 20 20 20 20 20 20 20 20 20 20 20 20 20 20 20 20 20 20 20 20 20 20 20 20 20 20 20 20 20 20 20 20 20 20 20 20 20 20 20 20 20 20 20 20 20 20 20 20 20 20 20 20 20 20 20 20 20 20 20 20 20 20 20 20 20 20 20 20 20 20 20 20 20 20 20 20 20 20 20 20 20 20 20 20 20 20 20 20 20 20 20 20 20 20 20 20 20 20 20 20 20 20 20 20 20 20 20 20 20 20 20 20 20 20 20 20 20 20 20 20 20 20 20 20 20 20 20 20 20 20 20 20 20 20 20 20 20 20 20 20 20 20 20 20 20 20 20 20 20 20 20 20 20 20 20 20 20 20 20 20 20 20 20 20 20 20 20 20 20 20 20 20 20 20 20 20 20 20 20 20 20 20 20 20 20 20 20 20 20 20 20 20 
20 20 20 250 250 250 250 250 250 250 250 250 250 250 250 250 250 250 250 250 250 250 250 250 20 20 20 250 250 250 250 250 250 250 250 250 250 250 250 250 250 250 250 250 250 250 250 250 20 20 20 250 250 250 250 250 250 250 250 250 250 250 250 250 250 250 250 250 250 250 250 250 20 20 20 250 250 250 250 250 250 250 250 250 250 250 250 250 250 250 250 250 250 250 250 250 20 20 20 250 250 250 250 250 250 250 250 250 250 250 250 250 250 250 250 250 250 250 250 250 20 20 20 250 250 250 250 250 250 250 250 250 250 250 250 250 250 250 250 250 250 250 250 250 20 20 20 250 250 250 250 250 250 250 250 250 250 250 250 250 250 250 250 250 250 250 250 250 20 20 20 250 250 250 250 250 250 250 250 250 250 250 250 250 250 250 250 250 250 250 250 250 20 20 20 250 250 250 250 250 250 250 250 250 250 250 250 250 250 250 250 250 250 250 250 250 20 20 20 250 250 250 250 250 250 250 250 250 250 250 250 250 250 250 250 250 250 250 250 250 20 20 20 250 250 250 250 250 250 250 250 250 250 250 250 250 250 250 250 250 250 250 250 250 20 20 20 250 250 250 250 250 250 250 250 250 250 250 250 250 250 250 250 250 250 250 250 250 20 20 20 250 250 250 250 250 250 250 250 250 250 250 250 250 250 250 250 250 250 250 250 250 20 20 20 250 250 250 250 250 250 250 250 250 250 250 250 250 250 250 250 250 250 250 250 250 20 20 20 250 250 250 250 250 250 250 250 250 250 250 250 250 250 250 250 250 250 250 250 250 20 20 20 250 250 250 250 250 250 250 250 250 250 250 250 250 250 250 250 250 250 250 250 250 20 20 20 250 250 250 250 250 250 250 250 250 250 250 250 250 250 250 250 250 250 250 250 250 20 20 20 250 250 250 250 250 250 250 250 250 250 250 250 250 250 250 250 250 250 250 250 250 20 20 20 250 250 250 250 250 250 250 250 250 250 250 250 250 250 250 250 250 250 250 250 250 20 20 20 250 250 250 250 250 250 250 250 250 250 250 250 250 250 250 250 250 250 250 250 250 
20 20 20 250 250 250 250 250 250 250 250 250 250 250 250 250 250 250 250 250 250 250 250 250 20 20 20 250 250 250 250 250 250 250 250 250 250 250 250 250 250 250 250 250 250 250 250 250 20 20 20 250 250 250 250 250 250 250 250 250 250 250 250 250 250 250 250 250 250 250 250 250 20 20 20 250 250 250 250 250 250 250 250 250 250 250 250 250 250 250 250 250 250 250 250 250 20 20 20 250 250 250 250 250 250 250 250 250 250 250 250 250 250 250 250 250 250 250 250 250 20 20 20 250 250 250 250 250 250 250 250 250 250 250 250 250 250 250 250 250 250 250 250 250 20 20 20 250 250 250 250 250 250 250 250 250 250 250 250 250 250 250 250 250 250 250 250 250 20 20 20 250 250 250 250 250 250 250 250 250 250 250 250 250 250 250 250 250 250 250 250 250 20 20 20 250 250 250 250 250 250 250 250 250 250 250 250 250 250 250 250 250 250 250 250 250 20 20 20 250 250 250 250 250 250 250 250 250 250 250 250 250 250 250 250 250 250 250 250 250 20 20 20 250 250 250 250 250 250 250 250 250 250 250 250 250 250 250 250 250 250 250 250 250 20 20 20 250 250 250 250 250 250 250 250 250 250 250 250 250 250 250 250 250 250 250 250 250 20 20 20 250 250 250 250 250 250 250 250 250 250 250 250 250 250 250 250 250 250 250 250 250 20 20 20 250 250 250 250 250 250 250 250 250 250 250 250 250 250 250 250 250 250 250 250 250 20 20 20 250 250 250 250 250 250 250 250 250 250 250 250 250 250 250 250 250 250 250 250 250 20 20 20 250 250 250 250 250 250 250 250 250 250 250 250 250 250 250 250 250 250 250 250 250 20 20 20 250 250 250 250 250 250 250 250 250 250 250 250 250 250 250 250 250 250 250 250 250 20 20 20 250 250 250 250 250 250 250 250 250 250 250 250 250 250 250 250 250 250 250 250 250 20 20 20 250 250 250 250 250 250 250 250 250 250 250 250 250 250 250 250 250 250 250 250 250 20 20 20 250 250 250 250 250 250 250 250 250 250 250 250 250 250 250 250 250 250 250 250 250 
20 20 20 250 250 250 250 250 250 250 250 250 250 250 250 250 250 250 250 250 250 250 250 250 20 20 20 250 250 250 250 250 250 250 250 250 250 250 250 250 250 250 250 250 250 250 250 250 20 20 20 250 250 250 250 250 250 250 250 250 250 250 250 250 250 250 250 250 250 250 250 250 20 20 20 250 250 250 250 250 250 250 250 250 250 250 250 250 250 250 250 250 250 250 250 250 20 20 20 250 250 250 250 250 250 250 250 250 250 250 250 250 250 250 250 250 250 250 250 250 20 20 20 250 250 250 250 250 250 250 250 250 250 250 250 250 250 250 250 250 250 250 250 250 20 20 20 250 250 250 250 250 250 250 250 250 250 250 250 250 250 250 250 250 250 250 250 250 20 20 20 250 250 250 250 250 250 250 250 250 250 250 250 250 250 250 250 250 250 250 250 250 20 20 20 250 250 250 250 250 250 250 250 250 250 250 250 250 250 250 250 250 250 250 250 250 20 20 20 250 250 250 250 250 250 250 250 250 250 250 250 250 250 250 250 250 250 250 250 250 20 20 20 250 250 250 250 250 250 250 250 250 250 250 250 250 250 250 250 250 250 250 250 250 20 20 20 250 250 250 250 250 250 250 250 250 250 250 250 250 250 250 250 250 250 250 250 250 20 20 20 250 250 250 250 250 250 250 250 250 250 250 250 250 250 250 250 250 250 250 250 250 20 20 20 250 250 250 250 250 250 250 250 250 250 250 250 250 250 250 250 250 250 250 250 250 20 20 20 250 250 250 250 250 250 250 250 250 250 250 250 250 250 250 250 250 250 250 250 250 20 20 20 250 250 250 250 250 250 250 250 250 250 250 250 250 250 250 250 250 250 250 250 250 20 20 20 250 250 250 250 250 250 250 250 250 250 250 250 250 250 250 250 250 250 250 250 250 20 20 20 250 250 250 250 250 250 250 250 250 250 250 250 250 250 250 250 250 250 250 250 250 20 20 20 250 250 250 250 250 250 250 250 250 250 250 250 250 250 250 250 250 250 250 250 250 20 20 20 250 250 250 250 250 250 250 250 250 250 250 250 250 250 250 250 250 250 250 250 250 
20 20 20 250 250 250 250 250 250 250 250 250 250 250 250 250 250 250 250 250 250 250 250 250 20 20 20 250 250 250 250 250 250 250 250 250 250 250 250 250 250 250 250 250 250 250 250 250 20 20 20 250 250 250 250 250 250 250 250 250 250 250 250 250 250 250 250 250 250 250 250 250 20 20 20 250 250 250 250 250 250 250 250 250 250 250 250 250 250 250 250 250 250 250 250 250 20 20 20 250 250 250 250 250 250 250 250 250 250 250 250 250 250 250 250 250 250 250 250 250 20 20 20 250 250 250 250 250 250 250 250 250 250 250 250 250 250 250 250 250 250 250 250 250 20 20 20 250 250 250 250 250 250 250 250 250 250 250 250 250 250 250 250 250 250 250 250 250 20 20 20 250 250 250 250 250 250 250 250 250 250 250 250 250 250 250 250 250 250 250 250 250 20 20 20 250 250 250 250 250 250 250 250 250 250 250 250 250 250 250 250 250 250 250 250 250 20 20 20 250 250 250 250 250 250 250 250 250 250 250 250 250 250 250 250 250 250 250 250 250 20 20 20 250 250 250 250 250 250 250 250 250 250 250 250 250 250 250 250 250 250 250 250 250 20 20 20 250 250 250 250 250 250 250 250 250 250 250 250 250 250 250 250 250 250 250 250 250 20 20 20 250 250 250 250 250 250 250 250 250 250 250 250 250 250 250 250 250 250 250 250 250 20 20 20 250 250 250 250 250 250 250 250 250 250 250 250 250 250 250 250 250 250 250 250 250 20 20 20 250 250 250 250 250 250 250 250 250 250 250 250 250 250 250 250 250 250 250 250 250 20 20 20 250 250 250 250 250 250 250 250 250 250 250 250 250 250 250 250 250 250 250 250 250 20 20 20 250 250 250 250 250 250 250 250 250 250 250 250 250 250 250 250 250 250 250 250 250 20 20 20 250 250 250 250 250 250 250 250 250 250 250 250 250 250 250 250 250 250 250 250 250 20 20 20 250 250 250 250 250 250 250 250 250 250 250 250 250 250 250 250 250 250 250 250 250 20 20 20 250 250 250 250 250 250 250 250 250 250 250 250 250 250 250 250 250 250 250 250 250 
20 20 20 250 250 250 250 250 250 250 250 250 250 250 250 250 250 250 250 250 250 250 250 250 20 20 20 250 250 250 250 250 250 250 250 250 250 250 250 250 250 250 250 250 250 250 250 250 20 20 20 250 250 250 250 250 250 250 250 250 250 250 250 250 250 250 250 250 250 250 250 250 20 20 20 250 250 250 250 250 250 250 250 250 250 250 250 250 250 250 250 250 250 250 250 250 20 20 20 250 250 250 250 250 250 250 250 250 250 250 250 250 250 250 250 250 250 250 250 250 20 20 20 250 250 250 250 250 250 250 250 250 250 250 250 250 250 250 250 250 250 250 250 250 20 20 20 250 250 250 250 250 250 250 250 250 250 250 250 250 250 250 250 250 250 250 250 250 20 20 20 250 250 250 250 250 250 250 250 250 250 250 250 250 250 250 250 250 250 250 250 250 20 20 20 250 250 250 250 250 250 250 250 250 250 250 250 250 250 250 250 250 250 250 250 250 20 20 20 250 250 250 250 250 250 250 250 250 250 250 250 250 250 250 250 250 250 250 250 250 20 20 20 250 250 250 250 250 250 250 250 250 250 250 250 250 250 250 250 250 250 250 250 250 20 20 20 250 250 250 250 250 250 250 250 250 250 250 250 250 250 250 250 250 250 250 250 250 20 20 20 250 250 250 250 250 250 250 250 250 250 250 250 250 250 250 250 250 250 250 250 250 20 20 20 250 250 250 250 250 250 250 250 250 250 250 250 250 250 250 250 250 250 250 250 250 20 20 20 250 250 250 250 250 250 250 250 250 250 250 250 250 250 250 250 250 250 250 250 250 20 20 20 250 250 250 250 250 250 250 250 250 250 250 250 250 250 250 250 250 250 250 250 250 20 20 20 250 250 250 250 250 250 250 250 250 250 250 250 250 250 250 250 250 250 250 250 250 20 20 20 250 250 250 250 250 250 250 250 250 250 250 250 250 250 250 250 250 250 250 250 250 20 20 20 250 250 250 250 250 250 250 250 250 250 250 250 250 250 250 250 250 250 250 250 250 20 20 20 250 250 250 250 250 250 250 250 250 250 250 250 250 250 250 250 250 250 250 250 250 
20 20 20 250 250 250 250 250 250 250 250 250 250 250 250 250 250 250 250 250 250 250 250 250 20 20 20 250 250 250 250 250 250 250 250 250 250 250 250 250 250 250 250 250 250 250 250 250 20 20 20 250 250 250 250 250 250 250 250 250 250 250 250 250 250 250 250 250 250 250 250 250 20 20 20 250 250 250 250 250 250 250 250 250 250 250 250 250 250 250 250 250 250 250 250 250 20 20 20 250 250 250 250 250 250 250 250 250 250 250 250 250 250 250 250 250 250 250 250 250 20 20 20 250 250 250 250 250 250 250 250 250 250 250 250 250 250 250 250 250 250 250 250 250 20 20 20 250 250 250 250 250 250 250 250 250 250 250 250 250 250 250 250 250 250 250 250 250 20 20 20 250 250 250 250 250 250 250 250 250 250 250 250 250 250 250 250 250 250 250 250 250 20 20 20 250 250 250 250 250 250 250 250 250 250 250 250 250 250 250 250 250 250 250 250 250 20 20 20 250 250 250 250 250 250 250 250 250 250 250 250 250 250 250 250 250 250 250 250 250 20 20 20 250 250 250 250 250 250 250 250 250 250 250 250 250 250 250 250 250 250 250 250 250 20 20 20 250 250 250 250 250 250 250 250 250 250 250 250 250 250 250 250 250 250 250 250 250 20 20 20 250 250 250 250 250 250 250 250 250 250 250 250 250 250 250 250 250 250 250 250 250 20 20 20 250 250 250 250 250 250 250 250 250 250 250 250 250 250 250 250 250 250 250 250 250 20 20 20 250 250 250 250 250 250 250 250 250 250 250 250 250 250 250 250 250 250 250 250 250 20 20 20 250 250 250 250 250 250 250 250 250 250 250 250 250 250 250 250 250 250 250 250 250 20 20 20 250 250 250 250 250 250 250 250 250 250 250 250 250 250 250 250 250 250 250 250 250 20 20 20 250 250 250 250 250 250 250 250 250 250 250 250 250 250 250 250 250 250 250 250 250 20 20 20 250 250 250 250 250 250 250 250 250 250 250 250 250 250 250 250 250 250 250 250 250 20 20 20 250 250 250 250 250 250 250 250 250 250 250 250 250 250 250 250 250 250 250 250 250 
20 20 20 250 250 250 250 250 250 250 250 250 250 250 250 250 250 250 250 250 250 250 250 250 20 20 20 250 250 250 250 250 250 250 250 250 250 250 250 250 250 250 250 250 250 250 250 250 20 20 20 250 250 250 250 250 250 250 250 250 250 250 250 250 250 250 250 250 250 250 250 250 20 20 20 250 250 250 250 250 250 250 250 250 250 250 250 250 250 250 250 250 250 250 250 250 20 20 20 250 250 250 250 250 250 250 250 250 250 250 250 250 250 250 250 250 250 250 250 250 20 20 20 250 250 250 250 250 250 250 250 250 250 250 250 250 250 250 250 250 250 250 250 250 20 20 20 250 250 250 250 250 250 250 250 250 250 250 250 250 250 250 250 250 250 250 250 250 20 20 20 250 250 250 250 250 250 250 250 250 250 250 250 250 250 250 250 250 250 250 250 250 20 20 20 250 250 250 250 250 250 250 250 250 250 250 250 250 250 250 250 250 250 250 250 250 20 20 20 250 250 250 250 250 250 250 250 250 250 250 250 250 250 250 250 250 250 250 250 250 20 20 20 250 250 250 250 250 250 250 250 250 250 250 250 250 250 250 250 250 250 250 250 250 20 20 20 250 250 250 250 250 250 250 250 250 250 250 250 250 250 250 250 250 250 250 250 250 20 20 20 250 250 250 250 250 250 250 250 250 250 250 250 250 250 250 250 250 250 250 250 250 20 20 20 250 250 250 250 250 250 250 250 250 250 250 250 250 250 250 250 250 250 250 250 250 20 20 20 250 250 250 250 250 250 250 250 250 250 250 250 250 250 250 250 250 250 250 250 250 20 20 20 250 250 250 250 250 250 250 250 250 250 250 250 250 250 250 250 250 250 250 250 250 20 20 20 250 250 250 250 250 250 250 250 250 250 250 250 250 250 250 250 250 250 250 250 250 20 20 20 250 250 250 250 250 250 250 250 250 250 250 250 250 250 250 250 250 250 250 250 250 20 20 20 250 250 250 250 250 250 250 250 250 250 250 250 250 250 250 250 250 250 250 250 250 20 20 20 250 250 250 250 250 250 250 250 250 250 250 250 250 250 250 250 250 250 250 250 250 
20 20 20 20 20 20 20 20 20 20 20 20 20 20 20 20 20 20 20 20 20 20 20 20 20 20 20 20 20 20 20 20 20 20 20 20 20 20 20 20 20 20 20 20 20 20 20 20 20 20 20 20 20 20 20 20 20 20 20 20 20 20 20 20 20 20 20 20 20 20 20 20 20 20 20 20 20 20 20 20 20 20 20 20 20 20 20 20 20 20 20 20 20 20 20 20 20 20 20 20 20 20 20 20 20 20 20 20 20 20 20 20 20 20 20 20 20 20 20 20 20 20 20 20 20 20 20 20 20 20 20 20 20 20 20 20 20 20 20 20 20 20 20 20 20 20 20 20 20 20 20 20 20 20 20 20 20 20 20 20 20 20 20 20 20 20 20 20 20 20 20 20 20 20 20 20 20 20 20 20 20 20 20 20 20 20 20 20 20 20 20 20 20 20 20 20 20 20 20 20 20 20 20 20 20 20 20 20 20 20 20 20 20 20 20 20 20 20 20 20 20 20 20 20 20 20 20 20 20 20 20 20 20 20 20 20 20 20 20 20 20 20 20 20 20 20 20 20 20 20 20 20 20 20 20 20 20 20 20 20 20 20 20 20 20 20 20 20 20 20 20 20 20 20 20 20 20 20 20 20 20 20 20 20 20 20 20 20 20 20 20 20 20 20 20 20 20 20 20 20 20 20 20 20 20 20 20 20 20 20 20 20 20 20 20 20 20 20 20 20 20 20 20 20 20 20 20 20 20 20 20 20 20 20 20 20 20 20 20 20 20 20 20 20 20 20 20 20 20 20 20 20 20 20 20 20 20 20 20 20 20 20 20 20 20 20 20 20 20 20 20 20 20 20 20 20 20 20 20 20 20 20 20 20 20 20 20 20 20 20 20 20 20 20 20 20 20 20 20 20 20 20 20 20 20 20 20 20 20 20 20 20 20 20 20 20 20 20 20 20 20 20 20 20 20 20 20 20 20 20 20 20 20 20 20 20 20 20 20 20 20 20 20 20 20 20 20 20 20 20 20 20 20 20 20 20 20 20 20 20 20 20 20 20 20 20 20 20 20 20 20 20 20 20 20 20 20 20 20 20 
20 20 20 250 250 250 250 250 250 250 250 250 250 250 250 250 250 250 250 250 250 250 250 250 20 20 20 250 250 250 250 250 250 250 250 250 250 250 250 250 250 250 250 250 250 250 250 250 20 20 20 250 250 250 250 250 250 250 250 250 250 250 250 250 250 250 250 250 250 250 250 250 20 20 20 250 250 250 250 250 250 250 250 250 250 250 250 250 250 250 250 250 250 250 250 250 20 20 20 250 250 250 250 250 250 250 250 250 250 250 250 250 250 250 250 250 250 250 250 250 20 20 20 250 250 250 250 250 250 250 250 250 250 250 250 250 250 250 250 250 250 250 250 250 20 20 20 250 250 250 250 250 250 250 250 250 250 250 250 250 250 250 250 250 250 250 250 250 20 20 20 250 250 250 250 250 250 250 250 250 250 250 250 250 250 250 250 250 250 250 250 250 20 20 20 250 250 250 250 250 250 250 250 250 250 250 250 250 250 250 250 250 250 250 250 250 20 20 20 250 250 250 250 250 250 250 250 250 250 250 250 250 250 250 250 250 250 250 250 250 20 20 20 250 250 250 250 250 250 250 250 250 250 250 250 250 250 250 250 250 250 250 250 250 20 20 20 250 250 250 250 250 250 250 250 250 250 250 250 250 250 250 250 250 250 250 250 250 20 20 20 250 250 250 250 250 250 250 250 250 250 250 250 250 250 250 250 250 250 250 250 250 20 20 20 250 250 250 250 250 250 250 250 250 250 250 250 250 250 250 250 250 250 250 250 250 20 20 20 250 250 250 250 250 250 250 250 250 250 250 250 250 250 250 250 250 250 250 250 250 20 20 20 250 250 250 250 250 250 250 250 250 250 250 250 250 250 250 250 250 250 250 250 250 20 20 20 250 250 250 250 250 250 250 250 250 250 250 250 250 250 250 250 250 250 250 250 250 20 20 20 250 250 250 250 250 250 250 250 250 250 250 250 250 250 250 250 250 250 250 250 250 20 20 20 250 250 250 250 250 250 250 250 250 250 250 250 250 250 250 250 250 250 250 250 250 20 20 20 250 250 250 250 250 250 250 250 250 250 250 250 250 250 250 250 250 250 250 250 250 
20 20 20 250 250 250 250 250 250 250 250 250 250 250 250 250 250 250 250 250 250 250 250 250 20 20 20 250 250 250 250 250 250 250 250 250 250 250 250 250 250 250 250 250 250 250 250 250 20 20 20 250 250 250 250 250 250 250 250 250 250 250 250 250 250 250 250 250 250 250 250 250 20 20 20 250 250 250 250 250 250 250 250 250 250 250 250 250 250 250 250 250 250 250 250 250 20 20 20 250 250 250 250 250 250 250 250 250 250 250 250 250 250 250 250 250 250 250 250 250 20 20 20 250 250 250 250 250 250 250 250 250 250 250 250 250 250 250 250 250 250 250 250 250 20 20 20 250 250 250 250 250 250 250 250 250 250 250 250 250 250 250 250 250 250 250 250 250 20 20 20 250 250 250 250 250 250 250 250 250 250 250 250 250 250 250 250 250 250 250 250 250 20 20 20 250 250 250 250 250 250 250 250 250 250 250 250 250 250 250 250 250 250 250 250 250 20 20 20 250 250 250 250 250 250 250 250 250 250 250 250 250 250 250 250 250 250 250 250 250 20 20 20 250 250 250 250 250 250 250 250 250 250 250 250 250 250 250 250 250 250 250 250 250 20 20 20 250 250 250 250 250 250 250 250 250 250 250 250 250 250 250 250 250 250 250 250 250 20 20 20 250 250 250 250 250 250 250 250 250 250 250 250 250 250 250 250 250 250 250 250 250 20 20 20 250 250 250 250 250 250 250 250 250 250 250 250 250 250 250 250 250 250 250 250 250 20 20 20 250 250 250 250 250 250 250 250 250 250 250 250 250 250 250 250 250 250 250 250 250 20 20 20 250 250 250 250 250 250 250 250 250 250 250 250 250 250 250 250 250 250 250 250 250 20 20 20 250 250 250 250 250 250 250 250 250 250 250 250 250 250 250 250 250 250 250 250 250 20 20 20 250 250 250 250 250 250 250 250 250 250 250 250 250 250 250 250 250 250 250 250 250 20 20 20 250 250 250 250 250 250 250 250 250 250 250 250 250 250 250 250 250 250 250 250 250 20 20 20 250 250 250 250 250 250 250 250 250 250 250 250 250 250 250 250 250 250 250 250 250 
20 20 20 250 250 250 250 250 250 250 250 250 250 250 250 250 250 250 250 250 250 250 250 250 20 20 20 250 250 250 250 250 250 250 250 250 250 250 250 250 250 250 250 250 250 250 250 250 20 20 20 250 250 250 250 250 250 250 250 250 250 250 250 250 250 250 250 250 250 250 250 250 20 20 20 250 250 250 250 250 250 250 250 250 250 250 250 250 250 250 250 250 250 250 250 250 20 20 20 250 250 250 250 250 250 250 250 250 250 250 250 250 250 250 250 250 250 250 250 250 20 20 20 250 250 250 250 250 250 250 250 250 250 250 250 250 250 250 250 250 250 250 250 250 20 20 20 250 250 250 250 250 250 250 250 250 250 250 250 250 250 250 250 250 250 250 250 250 20 20 20 250 250 250 250 250 250 250 250 250 250 250 250 250 250 250 250 250 250 250 250 250 20 20 20 250 250 250 250 250 250 250 250 250 250 250 250 250 250 250 250 250 250 250 250 250 20 20 20 250 250 250 250 250 250 250 250 250 250 250 250 250 250 250 250 250 250 250 250 250 20 20 20 250 250 250 250 250 250 250 250 250 250 250 250 250 250 250 250 250 250 250 250 250 20 20 20 250 250 250 250 250 250 250 250 250 250 250 250 250 250 250 250 250 250 250 250 250 20 20 20 250 250 250 250 250 250 250 250 250 250 250 250 250 250 250 250 250 250 250 250 250 20 20 20 250 250 250 250 250 250 250 250 250 250 250 250 250 250 250 250 250 250 250 250 250 20 20 20 250 250 250 250 250 250 250 250 250 250 250 250 250 250 250 250 250 250 250 250 250 20 20 20 250 250 250 250 250 250 250 250 250 250 250 250 250 250 250 250 250 250 250 250 250 20 20 20 250 250 250 250 250 250 250 250 250 250 250 250 250 250 250 250 250 250 250 250 250 20 20 20 250 250 250 250 250 250 250 250 250 250 250 250 250 250 250 250 250 250 250 250 250 20 20 20 250 250 250 250 250 250 250 250 250 250 250 250 250 250 250 250 250 250 250 250 250 20 20 20 250 250 250 250 250 250 250 250 250 250 250 250 250 250 250 250 250 250 250 250 250 
20 20 20 250 250 250 250 250 250 250 250 250 250 250 250 250 250 250 250 250 250 250 250 250 20 20 20 250 250 250 250 250 250 250 250 250 250 250 250 250 250 250 250 250 250 250 250 250 20 20 20 250 250 250 250 250 250 250 250 250 250 250 250 250 250 250 250 250 250 250 250 250 20 20 20 250 250 250 250 250 250 250 250 250 250 250 250 250 250 250 250 250 250 250 250 250 20 20 20 250 250 250 250 250 250 250 250 250 250 250 250 250 250 250 250 250 250 250 250 250 20 20 20 250 250 250 250 250 250 250 250 250 250 250 250 250 250 250 250 250 250 250 250 250 20 20 20 250 250 250 250 250 250 250 250 250 250 250 250 250 250 250 250 250 250 250 250 250 20 20 20 250 250 250 250 250 250 250 250 250 250 250 250 250 250 250 250 250 250 250 250 250 20 20 20 250 250 250 250 250 250 250 250 250 250 250 250 250 250 250 250 250 250 250 250 250 20 20 20 250 250 250 250 250 250 250 250 250 250 250 250 250 250 250 250 250 250 250 250 250 20 20 20 250 250 250 250 250 250 250 250 250 250 250 250 250 250 250 250 250 250 250 250 250 20 20 20 250 250 250 250 250 250 250 250 250 250 250 250 250 250 250 250 250 250 250 250 250 20 20 20 250 250 250 250 250 250 250 250 250 250 250 250 250 250 250 250 250 250 250 250 250 20 20 20 250 250 250 250 250 250 250 250 250 250 250 250 250 250 250 250 250 250 250 250 250 20 20 20 250 250 250 250 250 250 250 250 250 250 250 250 250 250 250 250 250 250 250 250 250 20 20 20 250 250 250 250 250 250 250 250 250 250 250 250 250 250 250 250 250 250 250 250 250 20 20 20 250 250 250 250 250 250 250 250 250 250 250 250 250 250 250 250 250 250 250 250 250 20 20 20 250 250 250 250 250 250 250 250 250 250 250 250 250 250 250 250 250 250 250 250 250 20 20 20 250 250 250 250 250 250 250 250 250 250 250 250 250 250 250 250 250 250 250 250 250 20 20 20 250 250 250 250 250 250 250 250 250 250 250 250 250 250 250 250 250 250 250 250 250 
20 20 20 250 250 250 250 250 250 250 250 250 250 250 250 250 250 250 250 250 250 250 250 250 20 20 20 250 250 250 250 250 250 250 250 250 250 250 250 250 250 250 250 250 250 250 250 250 20 20 20 250 250 250 250 250 250 250 250 250 250 250 250 250 250 250 250 250 250 250 250 250 20 20 20 250 250 250 250 250 250 250 250 250 250 250 250 250 250 250 250 250 250 250 250 250 20 20 20 250 250 250 250 250 250 250 250 250 250 250 250 250 250 250 250 250 250 250 250 250 20 20 20 250 250 250 250 250 250 250 250 250 250 250 250 250 250 250 250 250 250 250 250 250 20 20 20 250 250 250 250 250 250 250 250 250 250 250 250 250 250 250 250 250 250 250 250 250 20 20 20 250 250 250 250 250 250 250 250 250 250 250 250 250 250 250 250 250 250 250 250 250 20 20 20 250 250 250 250 250 250 250 250 250 250 250 250 250 250 250 250 250 250 250 250 250 20 20 20 250 250 250 250 250 250 250 250 250 250 250 250 250 250 250 250 250 250 250 250 250 20 20 20 250 250 250 250 250 250 250 250 250 250 250 250 250 250 250 250 250 250 250 250 250 20 20 20 250 250 250 250 250 250 250 250 250 250 250 250 250 250 250 250 250 250 250 250 250 20 20 20 250 250 250 250 250 250 250 250 250 250 250 250 250 250 250 250 250 250 250 250 250 20 20 20 250 250 250 250 250 250 250 250 250 250 250 250 250 250 250 250 250 250 250 250 250 20 20 20 250 250 250 250 250 250 250 250 250 250 250 250 250 250 250 250 250 250 250 250 250 20 20 20 250 250 250 250 250 250 250 250 250 250 250 250 250 250 250 250 250 250 250 250 250 20 20 20 250 250 250 250 250 250 250 250 250 250 250 250 250 250 250 250 250 250 250 250 250 20 20 20 250 250 250 250 250 250 250 250 250 250 250 250 250 250 250 250 250 250 250 250 250 20 20 20 250 250 250 250 250 250 250 250 250 250 250 250 250 250 250 250 250 250 250 250 250 20 20 20 250 250 250 250 250 250 250 250 250 250 250 250 250 250 250 250 250 250 250 250 250 
20 20 20 250 250 250 250 250 250 250 250 250 250 250 250 250 250 250 250 250 250 250 250 250 20 20 20 250 250 250 250 250 250 250 250 250 250 250 250 250 250 250 250 250 250 250 250 250 20 20 20 250 250 250 250 250 250 250 250 250 250 250 250 250 250 250 250 250 250 250 250 250 20 20 20 250 250 250 250 250 250 250 250 250 250 250 250 250 250 250 250 250 250 250 250 250 20 20 20 250 250 250 250 250 250 250 250 250 250 250 250 250 250 250 250 250 250 250 250 250 20 20 20 250 250 250 250 250 250 250 250 250 250 250 250 250 250 250 250 250 250 250 250 250 20 20 20 250 250 250 250 250 250 250 250 250 250 250 250 250 250 250 250 250 250 250 250 250 20 20 20 250 250 250 250 250 250 250 250 250 250 250 250 250 250 250 250 250 250 250 250 250 20 20 20 250 250 250 250 250 250 250 250 250 250 250 250 250 250 250 250 250 250 250 250 250 20 20 20 250 250 250 250 250 250 250 250 250 250 250 250 250 250 250 250 250 250 250 250 250 20 20 20 250 250 250 250 250 250 250 250 250 250 250 250 250 250 250 250 250 250 250 250 250 20 20 20 250 250 250 250 250 250 250 250 250 250 250 250 250 250 250 250 250 250 250 250 250 20 20 20 250 250 250 250 250 250 250 250 250 250 250 250 250 250 250 250 250 250 250 250 250 20 20 20 250 250 250 250 250 250 250 250 250 250 250 250 250 250 250 250 250 250 250 250 250 20 20 20 250 250 250 250 250 250 250 250 250 250 250 250 250 250 250 250 250 250 250 250 250 20 20 20 250 250 250 250 250 250 250 250 250 250 250 250 250 250 250 250 250 250 250 250 250 20 20 20 250 250 250 250 250 250 250 250 250 250 250 250 250 250 250 250 250 250 250 250 250 20 20 20 250 250 250 250 250 250 250 250 250 250 250 250 250 250 250 250 250 250 250 250 250 20 20 20 250 250 250 250 250 250 250 250 250 250 250 250 250 250 250 250 250 250 250 250 250 20 20 20 250 250 250 250 250 250 250 250 250 250 250 250 250 250 250 250 250 250 250 250 250 
20 20 20 250 250 250 250 250 250 250 250 250 250 250 250 250 250 250 250 250 250 250 250 250 20 20 20 250 250 250 250 250 250 250 250 250 250 250 250 250 250 250 250 250 250 250 250 250 20 20 20 250 250 250 250 250 250 250 250 250 250 250 250 250 250 250 250 250 250 250 250 250 20 20 20 250 250 250 250 250 250 250 250 250 250 250 250 250 250 250 250 250 250 250 250 250 20 20 20 250 250 250 250 250 250 250 250 250 250 250 250 250 250 250 250 250 250 250 250 250 20 20 20 250 250 250 250 250 250 250 250 250 250 250 250 250 250 250 250 250 250 250 250 250 20 20 20 250 250 250 250 250 250 250 250 250 250 250 250 250 250 250 250 250 250 250 250 250 20 20 20 250 250 250 250 250 250 250 250 250 250 250 250 250 250 250 250 250 250 250 250 250 20 20 20 250 250 250 250 250 250 250 250 250 250 250 250 250 250 250 250 250 250 250 250 250 20 20 20 250 250 250 250 250 250 250 250 250 250 250 250 250 250 250 250 250 250 250 250 250 20 20 20 250 250 250 250 250 250 250 250 250 250 250 250 250 250 250 250 250 250 250 250 250 20 20 20 250 250 250 250 250 250 250 250 250 250 250 250 250 250 250 250 250 250 250 250 250 20 20 20 250 250 250 250 250 250 250 250 250 250 250 250 250 250 250 250 250 250 250 250 250 20 20 20 250 250 250 250 250 250 250 250 250 250 250 250 250 250 250 250 250 250 250 250 250 20 20 20 250 250 250 250 250 250 250 250 250 250 250 250 250 250 250 250 250 250 250 250 250 20 20 20 250 250 250 250 250 250 250 250 250 250 250 250 250 250 250 250 250 250 250 250 250 20 20 20 250 250 250 250 250 250 250 250 250 250 250 250 250 250 250 250 250 250 250 250 250 20 20 20 250 250 250 250 250 250 250 250 250 250 250 250 250 250 250 250 250 250 250 250 250 20 20 20 250 250 250 250 250 250 250 250 250 250 250 250 250 250 250 250 250 250 250 250 250 20 20 20 250 250 250 250 250 250 250 250 250 250 250 250 250 250 250 250 250 250 250 250 250 
20 20 20 20 20 20 20 20 20 20 20 20 20 20 20 20 20 20 20 20 20 20 20 20 20 20 20 20 20 20 20 20 20 20 20 20 20 20 20 20 20 20 20 20 20 20 20 20 20 20 20 20 20 20 20 20 20 20 20 20 20 20 20 20 20 20 20 20 20 20 20 20 20 20 20 20 20 20 20 20 20 20 20 20 20 20 20 20 20 20 20 20 20 20 20 20 20 20 20 20 20 20 20 20 20 20 20 20 20 20 20 20 20 20 20 20 20 20 20 20 20 20 20 20 20 20 20 20 20 20 20 20 20 20 20 20 20 20 20 20 20 20 20 20 20 20 20 20 20 20 20 20 20 20 20 20 20 20 20 20 20 20 20 20 20 20 20 20 20 20 20 20 20 20 20 20 20 20 20 20 20 20 20 20 20 20 20 20 20 20 20 20 20 20 20 20 20 20 20 20 20 20 20 20 20 20 20 20 20 20 20 20 20 20 20 20 20 20 20 20 20 20 20 20 20 20 20 20 20 20 20 20 20 20 20 20 20 20 20 20 20 20 20 20 20 20 20 20 20 20 20 20 20 20 20 20 20 20 20 20 20 20 20 20 20 20 20 20 20 20 20 20 20 20 20 20 20 20 20 20 20 20 20 20 20 20 20 20 20 20 20 20 20 20 20 20 20 20 20 20 20 20 20 20 20 20 20 20 20 20 20 20 20 20 20 20 20 20 20 20 20 20 20 20 20 20 20 20 20 20 20 20 20 20 20 20 20 20 20 20 20 20 20 20 20 20 20 20 20 20 20 20 20 20 20 20 20 20 20 20 20 20 20 20 20 20 20 20 20 20 20 20 20 20 20 20 20 20 20 20 20 20 20 20 20 20 20 20 20 20 20 20 20 20 20 20 20 20 20 20 20 20 20 20 20 20 20 20 20 20 20 20 20 20 20 20 20 20 20 20 20 20 20 20 20 20 20 20 20 20 20 20 20 20 20 20 20 20 20 20 20 20 20 20 20 20 20 20 20 20 20 20 20 20 20 20 20 20 20 20 20 20 20 20 20 20 20 20 20 20 20 20 20 20 20 20 20 20 20 20 
20 20 20 250 250 250 250 250 250 250 250 250 250 250 250 250 250 250 250 250 250 250 250 250 20 20 20 250 250 250 250 250 250 250 250 250 250 250 250 250 250 250 250 250 250 250 250 250 20 20 20 250 250 250 250 250 250 250 250 250 250 250 250 250 250 250 250 250 250 250 250 250 20 20 20 250 250 250 250 250 250 250 250 250 250 250 250 250 250 250 250 250 250 250 250 250 20 20 20 250 250 250 250 250 250 250 250 250 250 250 250 250 250 250 250 250 250 250 250 250 20 20 20 250 250 250 250 250 250 250 250 250 250 250 250 250 250 250 250 250 250 250 250 250 20 20 20 250 250 250 250 250 250 250 250 250 250 250 250 250 250 250 250 250 250 250 250 250 20 20 20 250 250 250 250 250 250 250 250 250 250 250 250 250 250 250 250 250 250 250 250 250 20 20 20 250 250 250 250 250 250 250 250 250 250 250 250 250 250 250 250 250 250 250 250 250 20 20 20 250 250 250 250 250 250 250 250 250 250 250 250 250 250 250 250 250 250 250 250 250 20 20 20 250 250 250 250 250 250 250 250 250 250 250 250 250 250 250 250 250 250 250 250 250 20 20 20 250 250 250 250 250 250 250 250 250 250 250 250 250 250 250 250 250 250 250 250 250 20 20 20 250 250 250 250 250 250 250 250 250 250 250 250 250 250 250 250 250 250 250 250 250 20 20 20 250 250 250 250 250 250 250 250 250 250 250 250 250 250 250 250 250 250 250 250 250 20 20 20 250 250 250 250 250 250 250 250 250 250 250 250 250 250 250 250 250 250 250 250 250 20 20 20 250 250 250 250 250 250 250 250 250 250 250 250 250 250 250 250 250 250 250 250 250 20 20 20 250 250 250 250 250 250 250 250 250 250 250 250 250 250 250 250 250 250 250 250 250 20 20 20 250 250 250 250 250 250 250 250 250 250 250 250 250 250 250 250 250 250 250 250 250 20 20 20 250 250 250 250 250 250 250 250 250 250 250 250 250 250 250 250 250 250 250 250 250 20 20 20 250 250 250 250 250 250 250 250 250 250 250 250 250 250 250 250 250 250 250 250 250 
20 20 20 250 250 250 250 250 250 250 250 250 250 250 250 250 250 250 250 250 250 250 250 250 20 20 20 250 250 250 250 250 250 250 250 250 250 250 250 250 250 250 250 250 250 250 250 250 20 20 20 250 250 250 250 250 250 250 250 250 250 250 250 250 250 250 250 250 250 250 250 250 20 20 20 250 250 250 250 250 250 250 250 250 250 250 250 250 250 250 250 250 250 250 250 250 20 20 20 250 250 250 250 250 250 250 250 250 250 250 250 250 250 250 250 250 250 250 250 250 20 20 20 250 250 250 250 250 250 250 250 250 250 250 250 250 250 250 250 250 250 250 250 250 20 20 20 250 250 250 250 250 250 250 250 250 250 250 250 250 250 250 250 250 250 250 250 250 20 20 20 250 250 250 250 250 250 250 250 250 250 250 250 250 250 250 250 250 250 250 250 250 20 20 20 250 250 250 250 250 250 250 250 250 250 250 250 250 250 250 250 250 250 250 250 250 20 20 20 250 250 250 250 250 250 250 250 250 250 250 250 250 250 250 250 250 250 250 250 250 20 20 20 250 250 250 250 250 250 250 250 250 250 250 250 250 250 250 250 250 250 250 250 250 20 20 20 250 250 250 250 250 250 250 250 250 250 250 250 250 250 250 250 250 250 250 250 250 20 20 20 250 250 250 250 250 250 250 250 250 250 250 250 250 250 250 250 250 250 250 250 250 20 20 20 250 250 250 250 250 250 250 250 250 250 250 250 250 250 250 250 250 250 250 250 250 20 20 20 250 250 250 250 250 250 250 250 250 250 250 250 250 250 250 250 250 250 250 250 250 20 20 20 250 250 250 250 250 250 250 250 250 250 250 250 250 250 250 250 250 250 250 250 250 20 20 20 250 250 250 250 250 250 250 250 250 250 250 250 250 250 250 250 250 250 250 250 250 20 20 20 250 250 250 250 250 250 250 250 250 250 250 250 250 250 250 250 250 250 250 250 250 20 20 20 250 250 250 250 250 250 250 250 250 250 250 250 250 250 250 250 250 250 250 250 250 20 20 20 250 250 250 250 250 250 250 250 250 250 250 250 250 250 250 250 250 250 250 250 250 
20 20 20 250 250 250 250 250 250 250 250 250 250 250 250 250 250 250 250 250 250 250 250 250 20 20 20 250 250 250 250 250 250 250 250 250 250 250 250 250 250 250 250 250 250 250 250 250 20 20 20 250 250 250 250 250 250 250 250 250 250 250 250 250 250 250 250 250 250 250 250 250 20 20 20 250 250 250 250 250 250 250 250 250 250 250 250 250 250 250 250 250 250 250 250 250 20 20 20 250 250 250 250 250 250 250 250 250 250 250 250 250 250 250 250 250 250 250 250 250 20 20 20 250 250 250 250 250 250 250 250 250 250 250 250 250 250 250 250 250 250 250 250 250 20 20 20 250 250 250 250 250 250 250 250 250 250 250 250 250 250 250 250 250 250 250 250 250 20 20 20 250 250 250 250 250 250 250 250 250 250 250 250 250 250 250 250 250 250 250 250 250 20 20 20 250 250 250 250 250 250 250 250 250 250 250 250 250 250 250 250 250 250 250 250 250 20 20 20 250 250 250 250 250 250 250 250 250 250 250 250 250 250 250 250 250 250 250 250 250 20 20 20 250 250 250 250 250 250 250 250 250 250 250 250 250 250 250 250 250 250 250 250 250 20 20 20 250 250 250 250 250 250 250 250 250 250 250 250 250 250 250 250 250 250 250 250 250 20 20 20 250 250 250 250 250 250 250 250 250 250 250 250 250 250 250 250 250 250 250 250 250 20 20 20 250 250 250 250 250 250 250 250 250 250 250 250 250 250 250 250 250 250 250 250 250 20 20 20 250 250 250 250 250 250 250 250 250 250 250 250 250 250 250 250 250 250 250 250 250 20 20 20 250 250 250 250 250 250 250 250 250 250 250 250 250 250 250 250 250 250 250 250 250 20 20 20 250 250 250 250 250 250 250 250 250 250 250 250 250 250 250 250 250 250 250 250 250 20 20 20 250 250 250 250 250 250 250 250 250 250 250 250 250 250 250 250 250 250 250 250 250 20 20 20 250 250 250 250 250 250 250 250 250 250 250 250 250 250 250 250 250 250 250 250 250 20 20 20 250 250 250 250 250 250 250 250 250 250 250 250 250 250 250 250 250 250 250 250 250 
20 20 20 250 250 250 250 250 250 250 250 250 250 250 250 250 250 250 250 250 250 250 250 250 20 20 20 250 250 250 250 250 250 250 250 250 250 250 250 250 250 250 250 250 250 250 250 250 20 20 20 250 250 250 250 250 250 250 250 250 250 250 250 250 250 250 250 250 250 250 250 250 20 20 20 250 250 250 250 250 250 250 250 250 250 250 250 250 250 250 250 250 250 250 250 250 20 20 20 250 250 250 250 250 250 250 250 250 250 250 250 250 250 250 250 250 250 250 250 250 20 20 20 250 250 250 250 250 250 250 250 250 250 250 250 250 250 250 250 250 250 250 250 250 20 20 20 250 250 250 250 250 250 250 250 250 250 250 250 250 250 250 250 250 250 250 250 250 20 20 20 250 250 250 250 250 250 250 250 250 250 250 250 250 250 250 250 250 250 250 250 250 20 20 20 250 250 250 250 250 250 250 250 250 250 250 250 250 250 250 250 250 250 250 250 250 20 20 20 250 250 250 250 250 250 250 250 250 250 250 250 250 250 250 250 250 250 250 250 250 20 20 20 250 250 250 250 250 250 250 250 250 250 250 250 250 250 250 250 250 250 250 250 250 20 20 20 250 250 250 250 250 250 250 250 250 250 250 250 250 250 250 250 250 250 250 250 250 20 20 20 250 250 250 250 250 250 250 250 250 250 250 250 250 250 250 250 250 250 250 250 250 20 20 20 250 250 250 250 250 250 250 250 250 250 250 250 250 250 250 250 250 250 250 250 250 20 20 20 250 250 250 250 250 250 250 250 250 250 250 250 250 250 250 250 250 250 250 250 250 20 20 20 250 250 250 250 250 250 250 250 250 250 250 250 250 250 250 250 250 250 250 250 250 20 20 20 250 250 250 250 250 250 250 250 250 250 250 250 250 250 250 250 250 250 250 250 250 20 20 20 250 250 250 250 250 250 250 250 250 250 250 250 250 250 250 250 250 250 250 250 250 20 20 20 250 250 250 250 250 250 250 250 250 250 250 250 250 250 250 250 250 250 250 250 250 20 20 20 250 250 250 250 250 250 250 250 250 250 250 250 250 250 250 250 250 250 250 250 250 
20 20 20 250 250 250 250 250 250 250 250 250 250 250 250 250 250 250 250 250 250 250 250 250 20 20 20 250 250 250 250 250 250 250 250 250 250 250 250 250 250 250 250 250 250 250 250 250 20 20 20 250 250 250 250 250 250 250 250 250 250 250 250 250 250 250 250 250 250 250 250 250 20 20 20 250 250 250 250 250 250 250 250 250 250 250 250 250 250 250 250 250 250 250 250 250 20 20 20 250 250 250 250 250 250 250 250 250 250 250 250 250 250 250 250 250 250 250 250 250 20 20 20 250 250 250 250 250 250 250 250 250 250 250 250 250 250 250 250 250 250 250 250 250 20 20 20 250 250 250 250 250 250 250 250 250 250 250 250 250 250 250 250 250 250 250 250 250 20 20 20 250 250 250 250 250 250 250 250 250 250 250 250 250 250 250 250 250 250 250 250 250 20 20 20 250 250 250 250 250 250 250 250 250 250 250 250 250 250 250 250 250 250 250 250 250 20 20 20 250 250 250 250 250 250 250 250 250 250 250 250 250 250 250 250 250 250 250 250 250 20 20 20 250 250 250 250 250 250 250 250 250 250 250 250 250 250 250 250 250 250 250 250 250 20 20 20 250 250 250 250 250 250 250 250 250 250 250 250 250 250 250 250 250 250 250 250 250 20 20 20 250 250 250 250 250 250 250 250 250 250 250 250 250 250 250 250 250 250 250 250 250 20 20 20 250 250 250 250 250 250 250 250 250 250 250 250 250 250 250 250 250 250 250 250 250 20 20 20 250 250 250 250 250 250 250 250 250 250 250 250 250 250 250 250 250 250 250 250 250 20 20 20 250 250 250 250 250 250 250 250 250 250 250 250 250 250 250 250 250 250 250 250 250 20 20 20 250 250 250 250 250 250 250 250 250 250 250 250 250 250 250 250 250 250 250 250 250 20 20 20 250 250 250 250 250 250 250 250 250 250 250 250 250 250 250 250 250 250 250 250 250 20 20 20 250 250 250 250 250 250 250 250 250 250 250 250 250 250 250 250 250 250 250 250 250 20 20 20 250 250 250 250 250 250 250 250 250 250 250 250 250 250 250 250 250 250 250 250 250 
20 20 20 250 250 250 250 250 250 250 250 250 250 250 250 250 250 250 250 250 250 250 250 250 20 20 20 250 250 250 250 250 250 250 250 250 250 250 250 250 250 250 250 250 250 250 250 250 20 20 20 250 250 250 250 250 250 250 250 250 250 250 250 250 250 250 250 250 250 250 250 250 20 20 20 250 250 250 250 250 250 250 250 250 250 250 250 250 250 250 250 250 250 250 250 250 20 20 20 250 250 250 250 250 250 250 250 250 250 250 250 250 250 250 250 250 250 250 250 250 20 20 20 250 250 250 250 250 250 250 250 250 250 250 250 250 250 250 250 250 250 250 250 250 20 20 20 250 250 250 250 250 250 250 250 250 250 250 250 250 250 250 250 250 250 250 250 250 20 20 20 250 250 250 250 250 250 250 250 250 250 250 250 250 250 250 250 250 250 250 250 250 20 20 20 250 250 250 250 250 250 250 250 250 250 250 250 250 250 250 250 250 250 250 250 250 20 20 20 250 250 250 250 250 250 250 250 250 250 250 250 250 250 250 250 250 250 250 250 250 20 20 20 250 250 250 250 250 250 250 250 250 250 250 250 250 250 250 250 250 250 250 250 250 20 20 20 250 250 250 250 250 250 250 250 250 250 250 250 250 250 250 250 250 250 250 250 250 20 20 20 250 250 250 250 250 250 250 250 250 250 250 250 250 250 250 250 250 250 250 250 250 20 20 20 250 250 250 250 250 250 250 250 250 250 250 250 250 250 250 250 250 250 250 250 250 20 20 20 250 250 250 250 250 250 250 250 250 250 250 250 250 250 250 250 250 250 250 250 250 20 20 20 250 250 250 250 250 250 250 250 250 250 250 250 250 250 250 250 250 250 250 250 250 20 20 20 250 250 250 250 250 250 250 250 250 250 250 250 250 250 250 250 250 250 250 250 250 20 20 20 250 250 250 250 250 250 250 250 250 250 250 250 250 250 250 250 250 250 250 250 250 20 20 20 250 250 250 250 250 250 250 250 250 250 250 250 250 250 250 250 250 250 250 250 250 20 20 20 250 250 250 250 250 250 250 250 250 250 250 250 250 250 250 250 250 250 250 250 250 
20 20 20 250 250 250 250 250 250 250 250 250 250 250 250 250 250 250 250 250 250 250 250 250 20 20 20 250 250 250 250 250 250 250 250 250 250 250 250 250 250 250 250 250 250 250 250 250 20 20 20 250 250 250 250 250 250 250 250 250 250 250 250 250 250 250 250 250 250 250 250 250 20 20 20 250 250 250 250 250 250 250 250 250 250 250 250 250 250 250 250 250 250 250 250 250 20 20 20 250 250 250 250 250 250 250 250 250 250 250 250 250 250 250 250 250 250 250 250 250 20 20 20 250 250 250 250 250 250 250 250 250 250 250 250 250 250 250 250 250 250 250 250 250 20 20 20 250 250 250 250 250 250 250 250 250 250 250 250 250 250 250 250 250 250 250 250 250 20 20 20 250 250 250 250 250 250 250 250 250 250 250 250 250 250 250 250 250 250 250 250 250 20 20 20 250 250 250 250 250 250 250 250 250 250 250 250 250 250 250 250 250 250 250 250 250 20 20 20 250 250 250 250 250 250 250 250 250 250 250 250 250 250 250 250 250 250 250 250 250 20 20 20 250 250 250 250 250 250 250 250 250 250 250 250 250 250 250 250 250 250 250 250 250 20 20 20 250 250 250 250 250 250 250 250 250 250 250 250 250 250 250 250 250 250 250 250 250 20 20 20 250 250 250 250 250 250 250 250 250 250 250 250 250 250 250 250 250 250 250 250 250 20 20 20 250 250 250 250 250 250 250 250 250 250 250 250 250 250 250 250 250 250 250 250 250 20 20 20 250 250 250 250 250 250 250 250 250 250 250 250 250 250 250 250 250 250 250 250 250 20 20 20 250 250 250 250 250 250 250 250 250 250 250 250 250 250 250 250 250 250 250 250 250 20 20 20 250 250 250 250 250 250 250 250 250 250 250 250 250 250 250 250 250 250 250 250 250 20 20 20 250 250 250 250 250 250 250 250 250 250 250 250 250 250 250 250 250 250 250 250 250 20 20 20 250 250 250 250 250 250 250 250 250 250 250 250 250 250 250 250 250 250 250 250 250 20 20 20 250 250 250 250 250 250 250 250 250 250 250 250 250 250 250 250 250 250 250 250 250 
